{
  "type": "map",
  "version": "1.10",
  "tiledversion": "1.12.2",
  "orientation": "orthogonal",
  "renderorder": "right-down",
  "infinite": true,
  "width": 0,
  "height": 0,
  "tilewidth": 32,
  "tileheight": 32,
  "nextlayerid": 22,
  "nextobjectid": 496,
  "properties": [
    {
      "name": "map_id",
      "type": "string",
      "value": "coastal-intercept-master"
    },
    {
      "name": "geography_version",
      "type": "int",
      "value": 10
    },
    {
      "name": "encounter_owned_geometry",
      "type": "bool",
      "value": false
    },
    {
      "name": "inspiration",
      "type": "string",
      "value": "authored Level 1 reconstruction registered uniformly to the supplied blueprint; reference image is editor/review-only"
    },
    {
      "name": "min_x",
      "type": "float",
      "value": 0.0
    },
    {
      "name": "max_x",
      "type": "float",
      "value": 2605.7861328125
    },
    {
      "name": "min_y",
      "type": "float",
      "value": -6525.0
    },
    {
      "name": "max_y",
      "type": "float",
      "value": 1300.0
    },
    {
      "name": "geography_pipeline",
      "type": "string",
      "value": "Tiled TMJ -> validator/compiler -> runtime"
    },
    {
      "name": "reference_width",
      "type": "int",
      "value": 682
    },
    {
      "name": "reference_height",
      "type": "int",
      "value": 2048
    },
    {
      "name": "reference_scale",
      "type": "float",
      "value": 3.82080078125
    },
    {
      "name": "reference_origin_x",
      "type": "float",
      "value": 0.0
    },
    {
      "name": "reference_origin_y",
      "type": "float",
      "value": -6525.0
    },
    {
      "name": "runtime_width",
      "type": "float",
      "value": 900.0
    },
    {
      "name": "runtime_projection",
      "type": "string",
      "value": "portrait-composition-x-compression"
    }
  ],
  "layers": [
    {
      "id": 1,
      "name": "Districts",
      "type": "objectgroup",
      "draworder": "topdown",
      "visible": true,
      "opacity": 1,
      "x": 0,
      "y": 0,
      "objects": [
        {
          "id": 1,
          "name": "open-sea",
          "class": "district",
          "x": 0.0,
          "y": 665.7471,
          "width": 2605.7861328125,
          "height": 634.2529,
          "properties": [
            {
              "name": "display_name",
              "type": "string",
              "value": "OPEN SEA"
            },
            {
              "name": "max_y",
              "type": "float",
              "value": 1300.0
            },
            {
              "name": "min_y",
              "type": "float",
              "value": 665.7471
            },
            {
              "name": "biome",
              "type": "string",
              "value": "tropical-ocean"
            },
            {
              "name": "elevation_band",
              "type": "int",
              "value": 0
            }
          ]
        },
        {
          "id": 2,
          "name": "outer-archipelago",
          "class": "district",
          "x": 0.0,
          "y": -220.6787,
          "width": 2605.7861328125,
          "height": 886.4258,
          "properties": [
            {
              "name": "display_name",
              "type": "string",
              "value": "OUTER ARCHIPELAGO"
            },
            {
              "name": "max_y",
              "type": "float",
              "value": 665.7471
            },
            {
              "name": "min_y",
              "type": "float",
              "value": -220.6787
            },
            {
              "name": "biome",
              "type": "string",
              "value": "tropical-islands"
            },
            {
              "name": "elevation_band",
              "type": "int",
              "value": 0
            }
          ]
        },
        {
          "id": 3,
          "name": "dense-archipelago",
          "class": "district",
          "x": 0.0,
          "y": -1204.5349,
          "width": 2605.7861328125,
          "height": 983.8562,
          "properties": [
            {
              "name": "display_name",
              "type": "string",
              "value": "DENSE ARCHIPELAGO"
            },
            {
              "name": "max_y",
              "type": "float",
              "value": -220.6787
            },
            {
              "name": "min_y",
              "type": "float",
              "value": -1204.5349
            },
            {
              "name": "biome",
              "type": "string",
              "value": "tropical-islands"
            },
            {
              "name": "elevation_band",
              "type": "int",
              "value": 20
            }
          ]
        },
        {
          "id": 4,
          "name": "coastal-narrows",
          "class": "district",
          "x": 0.0,
          "y": -1949.5911,
          "width": 2605.7861328125,
          "height": 745.0562,
          "properties": [
            {
              "name": "display_name",
              "type": "string",
              "value": "COASTAL NARROWS"
            },
            {
              "name": "max_y",
              "type": "float",
              "value": -1204.5349
            },
            {
              "name": "min_y",
              "type": "float",
              "value": -1949.5911
            },
            {
              "name": "biome",
              "type": "string",
              "value": "temperate-coast"
            },
            {
              "name": "elevation_band",
              "type": "int",
              "value": 45
            }
          ]
        },
        {
          "id": 5,
          "name": "bridge-gateway",
          "class": "district",
          "x": 0.0,
          "y": -2532.2632,
          "width": 2605.7861328125,
          "height": 582.6721,
          "properties": [
            {
              "name": "display_name",
              "type": "string",
              "value": "BRIDGE GATEWAY"
            },
            {
              "name": "max_y",
              "type": "float",
              "value": -1949.5911
            },
            {
              "name": "min_y",
              "type": "float",
              "value": -2532.2632
            },
            {
              "name": "biome",
              "type": "string",
              "value": "temperate-coast"
            },
            {
              "name": "elevation_band",
              "type": "int",
              "value": 70
            }
          ]
        },
        {
          "id": 6,
          "name": "civil-harbour",
          "class": "district",
          "x": 0.0,
          "y": -3019.4153,
          "width": 2605.7861328125,
          "height": 487.1521,
          "properties": [
            {
              "name": "display_name",
              "type": "string",
              "value": "CIVIL HARBOUR"
            },
            {
              "name": "max_y",
              "type": "float",
              "value": -2532.2632
            },
            {
              "name": "min_y",
              "type": "float",
              "value": -3019.4153
            },
            {
              "name": "biome",
              "type": "string",
              "value": "temperate-harbour"
            },
            {
              "name": "elevation_band",
              "type": "int",
              "value": 55
            }
          ]
        },
        {
          "id": 7,
          "name": "industrial-harbour",
          "class": "district",
          "x": 0.0,
          "y": -3493.1946,
          "width": 2605.7861328125,
          "height": 473.7793,
          "properties": [
            {
              "name": "display_name",
              "type": "string",
              "value": "INDUSTRIAL HARBOUR"
            },
            {
              "name": "max_y",
              "type": "float",
              "value": -3019.4153
            },
            {
              "name": "min_y",
              "type": "float",
              "value": -3493.1946
            },
            {
              "name": "biome",
              "type": "string",
              "value": "temperate-harbour"
            },
            {
              "name": "elevation_band",
              "type": "int",
              "value": 55
            }
          ]
        },
        {
          "id": 8,
          "name": "naval-yard",
          "class": "district",
          "x": 0.0,
          "y": -3995.6299,
          "width": 2605.7861328125,
          "height": 502.4353,
          "properties": [
            {
              "name": "display_name",
              "type": "string",
              "value": "NAVAL YARD"
            },
            {
              "name": "max_y",
              "type": "float",
              "value": -3493.1946
            },
            {
              "name": "min_y",
              "type": "float",
              "value": -3995.6299
            },
            {
              "name": "biome",
              "type": "string",
              "value": "temperate-harbour"
            },
            {
              "name": "elevation_band",
              "type": "int",
              "value": 70
            }
          ]
        },
        {
          "id": 9,
          "name": "mountain-transition",
          "class": "district",
          "x": 0.0,
          "y": -4454.126,
          "width": 2605.7861328125,
          "height": 458.4961,
          "properties": [
            {
              "name": "display_name",
              "type": "string",
              "value": "MOUNTAIN TRANSITION"
            },
            {
              "name": "max_y",
              "type": "float",
              "value": -3995.6299
            },
            {
              "name": "min_y",
              "type": "float",
              "value": -4454.126
            },
            {
              "name": "biome",
              "type": "string",
              "value": "alpine"
            },
            {
              "name": "elevation_band",
              "type": "int",
              "value": 120
            }
          ]
        },
        {
          "id": 10,
          "name": "river-canyon",
          "class": "district",
          "x": 0.0,
          "y": -4939.3677,
          "width": 2605.7861328125,
          "height": 485.2417,
          "properties": [
            {
              "name": "display_name",
              "type": "string",
              "value": "RIVER CANYON"
            },
            {
              "name": "max_y",
              "type": "float",
              "value": -4454.126
            },
            {
              "name": "min_y",
              "type": "float",
              "value": -4939.3677
            },
            {
              "name": "biome",
              "type": "string",
              "value": "alpine"
            },
            {
              "name": "elevation_band",
              "type": "int",
              "value": 180
            }
          ]
        },
        {
          "id": 11,
          "name": "lower-dam",
          "class": "district",
          "x": 0.0,
          "y": -5348.1934,
          "width": 2605.7861328125,
          "height": 408.8257,
          "properties": [
            {
              "name": "display_name",
              "type": "string",
              "value": "LOWER DAM"
            },
            {
              "name": "max_y",
              "type": "float",
              "value": -4939.3677
            },
            {
              "name": "min_y",
              "type": "float",
              "value": -5348.1934
            },
            {
              "name": "biome",
              "type": "string",
              "value": "alpine"
            },
            {
              "name": "elevation_band",
              "type": "int",
              "value": 220
            }
          ]
        },
        {
          "id": 12,
          "name": "alpine-reservoir",
          "class": "district",
          "x": 0.0,
          "y": -5621.3806,
          "width": 2605.7861328125,
          "height": 273.1873,
          "properties": [
            {
              "name": "display_name",
              "type": "string",
              "value": "ALPINE RESERVOIR"
            },
            {
              "name": "max_y",
              "type": "float",
              "value": -5348.1934
            },
            {
              "name": "min_y",
              "type": "float",
              "value": -5621.3806
            },
            {
              "name": "biome",
              "type": "string",
              "value": "alpine"
            },
            {
              "name": "elevation_band",
              "type": "int",
              "value": 260
            }
          ]
        },
        {
          "id": 13,
          "name": "frozen-valley",
          "class": "district",
          "x": 0.0,
          "y": -5862.0911,
          "width": 2605.7861328125,
          "height": 240.7104,
          "properties": [
            {
              "name": "display_name",
              "type": "string",
              "value": "FROZEN VALLEY"
            },
            {
              "name": "max_y",
              "type": "float",
              "value": -5621.3806
            },
            {
              "name": "min_y",
              "type": "float",
              "value": -5862.0911
            },
            {
              "name": "biome",
              "type": "string",
              "value": "snow"
            },
            {
              "name": "elevation_band",
              "type": "int",
              "value": 320
            }
          ]
        },
        {
          "id": 14,
          "name": "fortress-approach",
          "class": "district",
          "x": 0.0,
          "y": -6110.4431,
          "width": 2605.7861328125,
          "height": 248.3521,
          "properties": [
            {
              "name": "display_name",
              "type": "string",
              "value": "FORTRESS APPROACH"
            },
            {
              "name": "max_y",
              "type": "float",
              "value": -5862.0911
            },
            {
              "name": "min_y",
              "type": "float",
              "value": -6110.4431
            },
            {
              "name": "biome",
              "type": "string",
              "value": "snow"
            },
            {
              "name": "elevation_band",
              "type": "int",
              "value": 360
            }
          ]
        },
        {
          "id": 15,
          "name": "citadel-basin",
          "class": "district",
          "x": 0.0,
          "y": -6525.0,
          "width": 2605.7861328125,
          "height": 414.5569,
          "properties": [
            {
              "name": "display_name",
              "type": "string",
              "value": "CITADEL BASIN"
            },
            {
              "name": "max_y",
              "type": "float",
              "value": -6110.4431
            },
            {
              "name": "min_y",
              "type": "float",
              "value": -6525.0
            },
            {
              "name": "biome",
              "type": "string",
              "value": "snow"
            },
            {
              "name": "elevation_band",
              "type": "int",
              "value": 420
            }
          ]
        }
      ]
    },
    {
      "id": 2,
      "name": "Land",
      "type": "objectgroup",
      "draworder": "topdown",
      "visible": true,
      "opacity": 1,
      "x": 0,
      "y": 0,
      "objects": [
        {
          "id": 16,
          "name": "west-coastal-bank",
          "class": "land",
          "x": 0.0,
          "y": 0.0,
          "polygon": [
            {
              "x": 0.0,
              "y": -1328.7109375
            },
            {
              "x": 450.8544921875,
              "y": -1328.7109375
            },
            {
              "x": 450.8544921875,
              "y": -1405.126953125
            },
            {
              "x": 466.1376953125,
              "y": -1481.54296875
            },
            {
              "x": 481.4208984375,
              "y": -1557.958984375
            },
            {
              "x": 519.62890625,
              "y": -1653.47900390625
            },
            {
              "x": 557.8369140625,
              "y": -1748.9990234375
            },
            {
              "x": 588.4033203125,
              "y": -1844.51904296875
            },
            {
              "x": 618.9697265625,
              "y": -1940.0390625
            },
            {
              "x": 649.5361328125,
              "y": -2035.55908203125
            },
            {
              "x": 680.1025390625,
              "y": -2131.0791015625
            },
            {
              "x": 699.20654296875,
              "y": -2226.59912109375
            },
            {
              "x": 718.310546875,
              "y": -2322.119140625
            },
            {
              "x": 737.41455078125,
              "y": -2417.63916015625
            },
            {
              "x": 756.5185546875,
              "y": -2513.1591796875
            },
            {
              "x": 773.712158203125,
              "y": -2608.67919921875
            },
            {
              "x": 790.90576171875,
              "y": -2704.19921875
            },
            {
              "x": 779.443359375,
              "y": -2799.71923828125
            },
            {
              "x": 767.98095703125,
              "y": -2895.2392578125
            },
            {
              "x": 785.174560546875,
              "y": -2990.75927734375
            },
            {
              "x": 802.3681640625,
              "y": -3086.279296875
            },
            {
              "x": 825.29296875,
              "y": -3181.79931640625
            },
            {
              "x": 848.2177734375,
              "y": -3277.3193359375
            },
            {
              "x": 867.32177734375,
              "y": -3372.83935546875
            },
            {
              "x": 886.42578125,
              "y": -3468.359375
            },
            {
              "x": 915.081787109375,
              "y": -3563.87939453125
            },
            {
              "x": 943.73779296875,
              "y": -3659.3994140625
            },
            {
              "x": 959.02099609375,
              "y": -3754.91943359375
            },
            {
              "x": 974.30419921875,
              "y": -3850.439453125
            },
            {
              "x": 987.677001953125,
              "y": -3945.95947265625
            },
            {
              "x": 1001.0498046875,
              "y": -4041.4794921875
            },
            {
              "x": 1006.781005859375,
              "y": -4136.99951171875
            },
            {
              "x": 1012.51220703125,
              "y": -4232.51953125
            },
            {
              "x": 0.0,
              "y": -4232.51953125
            }
          ],
          "properties": [
            {
              "name": "material",
              "type": "string",
              "value": "land-tropical"
            },
            {
              "name": "elevation",
              "type": "int",
              "value": 55
            }
          ]
        },
        {
          "id": 17,
          "name": "east-coastal-bank",
          "class": "land",
          "x": 0.0,
          "y": 0.0,
          "polygon": [
            {
              "x": 2605.7861328125,
              "y": -1328.7109375
            },
            {
              "x": 2093.798828125,
              "y": -1328.7109375
            },
            {
              "x": 2093.798828125,
              "y": -1405.126953125
            },
            {
              "x": 2082.33642578125,
              "y": -1481.54296875
            },
            {
              "x": 2070.8740234375,
              "y": -1557.958984375
            },
            {
              "x": 2046.038818359375,
              "y": -1653.47900390625
            },
            {
              "x": 2021.20361328125,
              "y": -1748.9990234375
            },
            {
              "x": 1996.368408203125,
              "y": -1844.51904296875
            },
            {
              "x": 1971.533203125,
              "y": -1940.0390625
            },
            {
              "x": 1946.697998046875,
              "y": -2035.55908203125
            },
            {
              "x": 1921.86279296875,
              "y": -2131.0791015625
            },
            {
              "x": 1906.57958984375,
              "y": -2226.59912109375
            },
            {
              "x": 1891.29638671875,
              "y": -2322.119140625
            },
            {
              "x": 1874.102783203125,
              "y": -2417.63916015625
            },
            {
              "x": 1856.9091796875,
              "y": -2513.1591796875
            },
            {
              "x": 1841.6259765625,
              "y": -2608.67919921875
            },
            {
              "x": 1826.3427734375,
              "y": -2704.19921875
            },
            {
              "x": 1841.6259765625,
              "y": -2799.71923828125
            },
            {
              "x": 1856.9091796875,
              "y": -2895.2392578125
            },
            {
              "x": 1833.984375,
              "y": -2990.75927734375
            },
            {
              "x": 1811.0595703125,
              "y": -3086.279296875
            },
            {
              "x": 1788.134765625,
              "y": -3181.79931640625
            },
            {
              "x": 1765.2099609375,
              "y": -3277.3193359375
            },
            {
              "x": 1746.10595703125,
              "y": -3372.83935546875
            },
            {
              "x": 1727.001953125,
              "y": -3468.359375
            },
            {
              "x": 1705.987548828125,
              "y": -3563.87939453125
            },
            {
              "x": 1684.97314453125,
              "y": -3659.3994140625
            },
            {
              "x": 1667.779541015625,
              "y": -3754.91943359375
            },
            {
              "x": 1650.5859375,
              "y": -3850.439453125
            },
            {
              "x": 1637.213134765625,
              "y": -3945.95947265625
            },
            {
              "x": 1623.84033203125,
              "y": -4041.4794921875
            },
            {
              "x": 1612.3779296875,
              "y": -4136.99951171875
            },
            {
              "x": 1600.91552734375,
              "y": -4232.51953125
            },
            {
              "x": 2605.7861328125,
              "y": -4232.51953125
            }
          ],
          "properties": [
            {
              "name": "material",
              "type": "string",
              "value": "land-tropical"
            },
            {
              "name": "elevation",
              "type": "int",
              "value": 58
            }
          ]
        },
        {
          "id": 18,
          "name": "west-alpine-bank",
          "class": "land",
          "x": 0.0,
          "y": 0.0,
          "polygon": [
            {
              "x": 0.0,
              "y": -4232.51953125
            },
            {
              "x": 1012.51220703125,
              "y": -4232.51953125
            },
            {
              "x": 1039.2578125,
              "y": -4328.03955078125
            },
            {
              "x": 1066.00341796875,
              "y": -4423.5595703125
            },
            {
              "x": 1079.376220703125,
              "y": -4519.07958984375
            },
            {
              "x": 1092.7490234375,
              "y": -4614.599609375
            },
            {
              "x": 1079.376220703125,
              "y": -4710.11962890625
            },
            {
              "x": 1066.00341796875,
              "y": -4805.6396484375
            },
            {
              "x": 1079.376220703125,
              "y": -4901.15966796875
            },
            {
              "x": 1092.7490234375,
              "y": -4996.6796875
            },
            {
              "x": 1069.82421875,
              "y": -5092.19970703125
            },
            {
              "x": 1046.8994140625,
              "y": -5187.7197265625
            },
            {
              "x": 1014.422607421875,
              "y": -5283.23974609375
            },
            {
              "x": 981.94580078125,
              "y": -5378.759765625
            },
            {
              "x": 936.09619140625,
              "y": -5455.17578125
            },
            {
              "x": 0.0,
              "y": -5455.17578125
            }
          ],
          "properties": [
            {
              "name": "material",
              "type": "string",
              "value": "land-alpine"
            },
            {
              "name": "elevation",
              "type": "int",
              "value": 145
            }
          ]
        },
        {
          "id": 19,
          "name": "east-alpine-bank",
          "class": "land",
          "x": 0.0,
          "y": 0.0,
          "polygon": [
            {
              "x": 2605.7861328125,
              "y": -4232.51953125
            },
            {
              "x": 1600.91552734375,
              "y": -4232.51953125
            },
            {
              "x": 1574.169921875,
              "y": -4328.03955078125
            },
            {
              "x": 1547.42431640625,
              "y": -4423.5595703125
            },
            {
              "x": 1534.051513671875,
              "y": -4519.07958984375
            },
            {
              "x": 1520.6787109375,
              "y": -4614.599609375
            },
            {
              "x": 1532.14111328125,
              "y": -4710.11962890625
            },
            {
              "x": 1543.603515625,
              "y": -4805.6396484375
            },
            {
              "x": 1528.3203125,
              "y": -4901.15966796875
            },
            {
              "x": 1513.037109375,
              "y": -4996.6796875
            },
            {
              "x": 1535.9619140625,
              "y": -5092.19970703125
            },
            {
              "x": 1558.88671875,
              "y": -5187.7197265625
            },
            {
              "x": 1591.363525390625,
              "y": -5283.23974609375
            },
            {
              "x": 1623.84033203125,
              "y": -5378.759765625
            },
            {
              "x": 1673.5107421875,
              "y": -5455.17578125
            },
            {
              "x": 2605.7861328125,
              "y": -5455.17578125
            }
          ],
          "properties": [
            {
              "name": "material",
              "type": "string",
              "value": "land-alpine"
            },
            {
              "name": "elevation",
              "type": "int",
              "value": 150
            }
          ]
        },
        {
          "id": 20,
          "name": "west-snow-bank",
          "class": "land",
          "x": 0.0,
          "y": 0.0,
          "polygon": [
            {
              "x": 0.0,
              "y": -5455.17578125
            },
            {
              "x": 936.09619140625,
              "y": -5455.17578125
            },
            {
              "x": 863.5009765625,
              "y": -5569.7998046875
            },
            {
              "x": 806.18896484375,
              "y": -5684.423828125
            },
            {
              "x": 773.712158203125,
              "y": -5760.83984375
            },
            {
              "x": 741.2353515625,
              "y": -5837.255859375
            },
            {
              "x": 718.310546875,
              "y": -5913.671875
            },
            {
              "x": 695.3857421875,
              "y": -5990.087890625
            },
            {
              "x": 703.02734375,
              "y": -6066.50390625
            },
            {
              "x": 710.6689453125,
              "y": -6142.919921875
            },
            {
              "x": 735.504150390625,
              "y": -6219.3359375
            },
            {
              "x": 760.33935546875,
              "y": -6295.751953125
            },
            {
              "x": 792.816162109375,
              "y": -6372.16796875
            },
            {
              "x": 825.29296875,
              "y": -6448.583984375
            },
            {
              "x": 863.5009765625,
              "y": -6525.0
            },
            {
              "x": 0.0,
              "y": -6525.0
            }
          ],
          "properties": [
            {
              "name": "material",
              "type": "string",
              "value": "land-snow"
            },
            {
              "name": "elevation",
              "type": "int",
              "value": 310
            }
          ]
        },
        {
          "id": 21,
          "name": "east-snow-bank",
          "class": "land",
          "x": 0.0,
          "y": 0.0,
          "polygon": [
            {
              "x": 2605.7861328125,
              "y": -5455.17578125
            },
            {
              "x": 1673.5107421875,
              "y": -5455.17578125
            },
            {
              "x": 1746.10595703125,
              "y": -5569.7998046875
            },
            {
              "x": 1803.41796875,
              "y": -5684.423828125
            },
            {
              "x": 1835.894775390625,
              "y": -5760.83984375
            },
            {
              "x": 1868.37158203125,
              "y": -5837.255859375
            },
            {
              "x": 1895.1171875,
              "y": -5913.671875
            },
            {
              "x": 1921.86279296875,
              "y": -5990.087890625
            },
            {
              "x": 1914.22119140625,
              "y": -6066.50390625
            },
            {
              "x": 1906.57958984375,
              "y": -6142.919921875
            },
            {
              "x": 1877.923583984375,
              "y": -6219.3359375
            },
            {
              "x": 1849.267578125,
              "y": -6295.751953125
            },
            {
              "x": 1818.701171875,
              "y": -6372.16796875
            },
            {
              "x": 1788.134765625,
              "y": -6448.583984375
            },
            {
              "x": 1749.9267578125,
              "y": -6525.0
            },
            {
              "x": 2605.7861328125,
              "y": -6525.0
            }
          ],
          "properties": [
            {
              "name": "material",
              "type": "string",
              "value": "land-snow"
            },
            {
              "name": "elevation",
              "type": "int",
              "value": 320
            }
          ]
        },
        {
          "id": 42,
          "name": "bridge-fort-islet",
          "class": "land",
          "x": 0.0,
          "y": 0.0,
          "polygon": [
            {
              "x": 1445.4931,
              "y": -1848.0
            },
            {
              "x": 1437.3396,
              "y": -1814.4927
            },
            {
              "x": 1384.3347,
              "y": -1787.496
            },
            {
              "x": 1337.9698,
              "y": -1756.5143
            },
            {
              "x": 1274.5449,
              "y": -1772.8652
            },
            {
              "x": 1206.2156,
              "y": -1787.3689
            },
            {
              "x": 1181.0123,
              "y": -1807.2871
            },
            {
              "x": 1159.5115,
              "y": -1848.0
            },
            {
              "x": 1169.0908,
              "y": -1881.7189
            },
            {
              "x": 1221.1327,
              "y": -1921.3561
            },
            {
              "x": 1267.863,
              "y": -1922.8287
            },
            {
              "x": 1331.2118,
              "y": -1923.927
            },
            {
              "x": 1399.8506,
              "y": -1921.3476
            },
            {
              "x": 1424.1616,
              "y": -1881.2349
            }
          ],
          "properties": [
            {
              "name": "material",
              "type": "string",
              "value": "land-tropical"
            },
            {
              "name": "elevation",
              "type": "int",
              "value": 58
            }
          ]
        },
        {
          "id": 43,
          "name": "reservoir-radar-island",
          "class": "land",
          "x": 0.0,
          "y": 0.0,
          "polygon": [
            {
              "x": 806.6202,
              "y": -5495.3249
            },
            {
              "x": 764.4119,
              "y": -5476.6049
            },
            {
              "x": 665.4056,
              "y": -5465.3399
            },
            {
              "x": 551.9905,
              "y": -5463.2299
            },
            {
              "x": 428.1026,
              "y": -5462.5724
            },
            {
              "x": 317.5376,
              "y": -5474.6649
            },
            {
              "x": 323.7128,
              "y": -5495.3249
            },
            {
              "x": 325.5676,
              "y": -5515.2774
            },
            {
              "x": 453.1878,
              "y": -5521.4424
            },
            {
              "x": 551.9905,
              "y": -5531.3624
            },
            {
              "x": 657.2625,
              "y": -5523.1549
            },
            {
              "x": 754.2104,
              "y": -5513.1449
            }
          ],
          "properties": [
            {
              "name": "material",
              "type": "string",
              "value": "land-alpine"
            },
            {
              "name": "elevation",
              "type": "int",
              "value": 125
            }
          ]
        },
        {
          "id": 44,
          "name": "frozen-gun-island",
          "class": "land",
          "x": 0.0,
          "y": 0.0,
          "polygon": [
            {
              "x": 1552.5079,
              "y": -5741.2356
            },
            {
              "x": 1560.1081,
              "y": -5721.0681
            },
            {
              "x": 1445.9467,
              "y": -5710.9756
            },
            {
              "x": 1328.5506,
              "y": -5714.7781
            },
            {
              "x": 1209.8199,
              "y": -5721.4481
            },
            {
              "x": 1181.0251,
              "y": -5741.2356
            },
            {
              "x": 1207.2639,
              "y": -5761.3156
            },
            {
              "x": 1320.4527,
              "y": -5771.6056
            },
            {
              "x": 1448.4348,
              "y": -5772.7006
            },
            {
              "x": 1556.5568,
              "y": -5760.9956
            }
          ],
          "properties": [
            {
              "name": "material",
              "type": "string",
              "value": "land-snow"
            },
            {
              "name": "elevation",
              "type": "int",
              "value": 180
            }
          ]
        },
        {
          "id": 45,
          "name": "citadel-island",
          "class": "land",
          "x": 0.0,
          "y": 0.0,
          "polygon": [
            {
              "x": 1803.6861,
              "y": -6431.4237
            },
            {
              "x": 1704.4084,
              "y": -6401.9812
            },
            {
              "x": 1633.8124,
              "y": -6368.0837
            },
            {
              "x": 1400.3548,
              "y": -6364.0537
            },
            {
              "x": 1182.369,
              "y": -6355.0612
            },
            {
              "x": 990.0792,
              "y": -6373.2787
            },
            {
              "x": 795.4143,
              "y": -6394.9837
            },
            {
              "x": 834.5915,
              "y": -6431.4237
            },
            {
              "x": 752.5952,
              "y": -6470.9662
            },
            {
              "x": 1018.4895,
              "y": -6484.2062
            },
            {
              "x": 1198.5421,
              "y": -6497.1262
            },
            {
              "x": 1421.5042,
              "y": -6512.7337
            },
            {
              "x": 1677.5815,
              "y": -6503.0237
            },
            {
              "x": 1827.0749,
              "y": -6469.7562
            }
          ],
          "properties": [
            {
              "name": "material",
              "type": "string",
              "value": "land-snow"
            },
            {
              "name": "elevation",
              "type": "int",
              "value": 240
            }
          ]
        },
        {
          "id": 22,
          "name": "archipelago-island-01",
          "class": "terrain",
          "x": 0.0,
          "y": 0.0,
          "polygon": [
            {
              "x": 1933.3252,
              "y": 780.3711
            },
            {
              "x": 1937.146,
              "y": 807.1167
            },
            {
              "x": 1952.4292,
              "y": 814.7583
            },
            {
              "x": 1982.9956,
              "y": 814.7583
            },
            {
              "x": 2009.7412,
              "y": 841.5039
            },
            {
              "x": 2021.2036,
              "y": 898.8159
            },
            {
              "x": 2082.3364,
              "y": 898.8159
            },
            {
              "x": 2086.1572,
              "y": 933.2031
            },
            {
              "x": 2124.3652,
              "y": 937.0239
            },
            {
              "x": 2132.0068,
              "y": 963.7695
            },
            {
              "x": 2151.1108,
              "y": 963.7695
            },
            {
              "x": 2174.0356,
              "y": 952.3071
            },
            {
              "x": 2174.0356,
              "y": 940.8447
            },
            {
              "x": 2139.6484,
              "y": 937.0239
            },
            {
              "x": 2139.6484,
              "y": 860.6079
            },
            {
              "x": 2193.1396,
              "y": 856.7871
            },
            {
              "x": 2193.1396,
              "y": 849.1455
            },
            {
              "x": 2166.394,
              "y": 830.0415
            },
            {
              "x": 2151.1108,
              "y": 826.2207
            },
            {
              "x": 2135.8276,
              "y": 810.9375
            },
            {
              "x": 2132.0068,
              "y": 791.8335
            },
            {
              "x": 2116.7236,
              "y": 772.7295
            },
            {
              "x": 2112.9028,
              "y": 757.4463
            },
            {
              "x": 2086.1572,
              "y": 723.0591
            },
            {
              "x": 2070.874,
              "y": 719.2383
            },
            {
              "x": 2055.5908,
              "y": 730.7007
            },
            {
              "x": 2055.5908,
              "y": 757.4463
            },
            {
              "x": 2047.9492,
              "y": 765.0879
            },
            {
              "x": 2032.666,
              "y": 765.0879
            },
            {
              "x": 2025.0244,
              "y": 791.8335
            },
            {
              "x": 1971.5332,
              "y": 791.8335
            }
          ],
          "properties": [
            {
              "name": "material",
              "type": "string",
              "value": "land-tropical"
            },
            {
              "name": "elevation",
              "type": "float",
              "value": 27.9
            }
          ]
        },
        {
          "id": 23,
          "name": "archipelago-island-02",
          "class": "terrain",
          "x": 0.0,
          "y": 0.0,
          "polygon": [
            {
              "x": 450.8545,
              "y": 703.9551
            },
            {
              "x": 435.5713,
              "y": 696.3135
            },
            {
              "x": 416.4673,
              "y": 696.3135
            },
            {
              "x": 405.0049,
              "y": 681.0303
            },
            {
              "x": 393.5425,
              "y": 684.8511
            },
            {
              "x": 347.6929,
              "y": 684.8511
            },
            {
              "x": 332.4097,
              "y": 681.0303
            },
            {
              "x": 328.5889,
              "y": 700.1343
            },
            {
              "x": 309.4849,
              "y": 715.4175
            },
            {
              "x": 309.4849,
              "y": 723.0591
            },
            {
              "x": 301.8433,
              "y": 726.8799
            },
            {
              "x": 294.2017,
              "y": 745.9839
            },
            {
              "x": 248.3521,
              "y": 745.9839
            },
            {
              "x": 240.7104,
              "y": 738.3423
            },
            {
              "x": 233.0688,
              "y": 738.3423
            },
            {
              "x": 221.6064,
              "y": 749.8047
            },
            {
              "x": 221.6064,
              "y": 768.9087
            },
            {
              "x": 213.9648,
              "y": 780.3711
            },
            {
              "x": 213.9648,
              "y": 791.8335
            },
            {
              "x": 282.7393,
              "y": 795.6543
            },
            {
              "x": 290.3809,
              "y": 803.2959
            },
            {
              "x": 290.3809,
              "y": 826.2207
            },
            {
              "x": 305.6641,
              "y": 830.0415
            },
            {
              "x": 305.6641,
              "y": 818.5791
            },
            {
              "x": 317.1265,
              "y": 810.9375
            },
            {
              "x": 336.2305,
              "y": 810.9375
            },
            {
              "x": 351.5137,
              "y": 799.4751
            },
            {
              "x": 378.2593,
              "y": 799.4751
            },
            {
              "x": 378.2593,
              "y": 788.0127
            },
            {
              "x": 393.5425,
              "y": 776.5503
            },
            {
              "x": 393.5425,
              "y": 761.2671
            },
            {
              "x": 405.0049,
              "y": 757.4463
            },
            {
              "x": 408.8257,
              "y": 745.9839
            },
            {
              "x": 420.2881,
              "y": 734.5215
            },
            {
              "x": 439.3921,
              "y": 726.8799
            },
            {
              "x": 450.8545,
              "y": 715.4175
            }
          ],
          "properties": [
            {
              "name": "material",
              "type": "string",
              "value": "land-tropical"
            },
            {
              "name": "elevation",
              "type": "float",
              "value": 26.0
            }
          ]
        },
        {
          "id": 24,
          "name": "archipelago-island-03",
          "class": "terrain",
          "x": 0.0,
          "y": 0.0,
          "polygon": [
            {
              "x": 2292.4805,
              "y": 340.979
            },
            {
              "x": 2261.9141,
              "y": 340.979
            },
            {
              "x": 2261.9141,
              "y": 352.4414
            },
            {
              "x": 2246.6309,
              "y": 379.187
            },
            {
              "x": 2231.3477,
              "y": 394.4702
            },
            {
              "x": 2216.0645,
              "y": 394.4702
            },
            {
              "x": 2208.4229,
              "y": 421.2158
            },
            {
              "x": 2154.9316,
              "y": 421.2158
            },
            {
              "x": 2154.9316,
              "y": 459.4238
            },
            {
              "x": 2139.6484,
              "y": 463.2446
            },
            {
              "x": 2139.6484,
              "y": 474.707
            },
            {
              "x": 2120.5444,
              "y": 493.811
            },
            {
              "x": 2120.5444,
              "y": 509.0942
            },
            {
              "x": 2143.4692,
              "y": 524.3774
            },
            {
              "x": 2143.4692,
              "y": 604.6143
            },
            {
              "x": 2223.7061,
              "y": 612.2559
            },
            {
              "x": 2235.1685,
              "y": 608.4351
            },
            {
              "x": 2235.1685,
              "y": 562.5854
            },
            {
              "x": 2219.8853,
              "y": 558.7646
            },
            {
              "x": 2216.0645,
              "y": 547.3022
            },
            {
              "x": 2189.3188,
              "y": 524.3774
            },
            {
              "x": 2193.1396,
              "y": 455.603
            },
            {
              "x": 2238.9893,
              "y": 455.603
            },
            {
              "x": 2273.3765,
              "y": 470.8862
            },
            {
              "x": 2323.0469,
              "y": 463.2446
            },
            {
              "x": 2342.1509,
              "y": 447.9614
            },
            {
              "x": 2342.1509,
              "y": 440.3198
            },
            {
              "x": 2330.6885,
              "y": 432.6782
            },
            {
              "x": 2315.4053,
              "y": 405.9326
            },
            {
              "x": 2315.4053,
              "y": 390.6494
            }
          ],
          "properties": [
            {
              "name": "material",
              "type": "string",
              "value": "land-tropical"
            },
            {
              "name": "elevation",
              "type": "float",
              "value": 27.6
            }
          ]
        },
        {
          "id": 25,
          "name": "archipelago-island-04",
          "class": "terrain",
          "x": 0.0,
          "y": 0.0,
          "polygon": [
            {
              "x": 275.0977,
              "y": 203.4302
            },
            {
              "x": 267.4561,
              "y": 203.4302
            },
            {
              "x": 267.4561,
              "y": 230.1758
            },
            {
              "x": 259.8145,
              "y": 237.8174
            },
            {
              "x": 244.5312,
              "y": 237.8174
            },
            {
              "x": 236.8896,
              "y": 245.459
            },
            {
              "x": 225.4272,
              "y": 245.459
            },
            {
              "x": 221.6064,
              "y": 249.2798
            },
            {
              "x": 221.6064,
              "y": 268.3838
            },
            {
              "x": 225.4272,
              "y": 272.2046
            },
            {
              "x": 225.4272,
              "y": 298.9502
            },
            {
              "x": 252.1729,
              "y": 298.9502
            },
            {
              "x": 259.8145,
              "y": 306.5918
            },
            {
              "x": 259.8145,
              "y": 321.875
            },
            {
              "x": 267.4561,
              "y": 321.875
            },
            {
              "x": 271.2769,
              "y": 318.0542
            },
            {
              "x": 294.2017,
              "y": 318.0542
            },
            {
              "x": 294.2017,
              "y": 306.5918
            },
            {
              "x": 298.0225,
              "y": 302.771
            },
            {
              "x": 317.1265,
              "y": 295.1294
            },
            {
              "x": 317.1265,
              "y": 291.3086
            },
            {
              "x": 320.9473,
              "y": 287.4878
            },
            {
              "x": 324.7681,
              "y": 287.4878
            },
            {
              "x": 324.7681,
              "y": 279.8462
            },
            {
              "x": 328.5889,
              "y": 276.0254
            },
            {
              "x": 336.2305,
              "y": 276.0254
            },
            {
              "x": 336.2305,
              "y": 256.9214
            },
            {
              "x": 332.4097,
              "y": 253.1006
            },
            {
              "x": 328.5889,
              "y": 253.1006
            },
            {
              "x": 313.3057,
              "y": 237.8174
            },
            {
              "x": 298.0225,
              "y": 237.8174
            },
            {
              "x": 294.2017,
              "y": 233.9966
            },
            {
              "x": 290.3809,
              "y": 233.9966
            },
            {
              "x": 282.7393,
              "y": 226.355
            },
            {
              "x": 282.7393,
              "y": 211.0718
            }
          ],
          "properties": [
            {
              "name": "material",
              "type": "string",
              "value": "land-tropical"
            },
            {
              "name": "elevation",
              "type": "float",
              "value": 22.7
            }
          ]
        },
        {
          "id": 26,
          "name": "archipelago-island-05",
          "class": "terrain",
          "x": 0.0,
          "y": 0.0,
          "polygon": [
            {
              "x": 1902.7588,
              "y": -33.4595
            },
            {
              "x": 1895.1172,
              "y": -14.3555
            },
            {
              "x": 1837.8052,
              "y": -2.8931
            },
            {
              "x": 1799.5972,
              "y": 39.1357
            },
            {
              "x": 1749.9268,
              "y": 39.1357
            },
            {
              "x": 1742.2852,
              "y": 20.0317
            },
            {
              "x": 1684.9731,
              "y": 23.8525
            },
            {
              "x": 1662.0483,
              "y": 54.4189
            },
            {
              "x": 1612.3779,
              "y": 69.7021
            },
            {
              "x": 1589.4531,
              "y": 165.2222
            },
            {
              "x": 1704.0771,
              "y": 176.6846
            },
            {
              "x": 1711.7188,
              "y": 226.355
            },
            {
              "x": 1742.2852,
              "y": 230.1758
            },
            {
              "x": 1742.2852,
              "y": 295.1294
            },
            {
              "x": 1677.3315,
              "y": 314.2334
            },
            {
              "x": 1662.0483,
              "y": 356.2622
            },
            {
              "x": 1639.1235,
              "y": 360.083
            },
            {
              "x": 1673.5107,
              "y": 463.2446
            },
            {
              "x": 1696.4355,
              "y": 463.2446
            },
            {
              "x": 1700.2563,
              "y": 447.9614
            },
            {
              "x": 1784.314,
              "y": 459.4238
            },
            {
              "x": 1791.9556,
              "y": 520.5566
            },
            {
              "x": 1872.1924,
              "y": 554.9438
            },
            {
              "x": 1883.6548,
              "y": 589.3311
            },
            {
              "x": 1929.5044,
              "y": 616.0767
            },
            {
              "x": 1925.6836,
              "y": 509.0942
            },
            {
              "x": 1986.8164,
              "y": 505.2734
            },
            {
              "x": 2028.8452,
              "y": 413.5742
            },
            {
              "x": 2055.5908,
              "y": 405.9326
            },
            {
              "x": 2028.8452,
              "y": 375.3662
            },
            {
              "x": 2028.8452,
              "y": 321.875
            },
            {
              "x": 2158.7524,
              "y": 302.771
            },
            {
              "x": 2158.7524,
              "y": 226.355
            },
            {
              "x": 2200.7812,
              "y": 211.0718
            },
            {
              "x": 2200.7812,
              "y": 195.7886
            },
            {
              "x": 2170.2148,
              "y": 180.5054
            },
            {
              "x": 2158.7524,
              "y": 104.0894
            },
            {
              "x": 2112.9028,
              "y": 54.4189
            },
            {
              "x": 2032.666,
              "y": -2.8931
            },
            {
              "x": 1986.8164,
              "y": -2.8931
            },
            {
              "x": 1982.9956,
              "y": -21.9971
            }
          ],
          "properties": [
            {
              "name": "material",
              "type": "string",
              "value": "land-tropical"
            },
            {
              "name": "elevation",
              "type": "float",
              "value": 50.5
            }
          ]
        },
        {
          "id": 27,
          "name": "archipelago-island-06",
          "class": "terrain",
          "x": 0.0,
          "y": 0.0,
          "polygon": [
            {
              "x": 2216.0645,
              "y": 62.0605
            },
            {
              "x": 2216.0645,
              "y": 81.1646
            },
            {
              "x": 2223.7061,
              "y": 88.8062
            },
            {
              "x": 2227.5269,
              "y": 88.8062
            },
            {
              "x": 2231.3477,
              "y": 92.627
            },
            {
              "x": 2235.1685,
              "y": 92.627
            },
            {
              "x": 2238.9893,
              "y": 96.4478
            },
            {
              "x": 2261.9141,
              "y": 96.4478
            },
            {
              "x": 2265.7349,
              "y": 92.627
            },
            {
              "x": 2265.7349,
              "y": 77.3438
            },
            {
              "x": 2261.9141,
              "y": 73.5229
            },
            {
              "x": 2261.9141,
              "y": 58.2397
            },
            {
              "x": 2250.4517,
              "y": 46.7773
            },
            {
              "x": 2235.1685,
              "y": 46.7773
            },
            {
              "x": 2231.3477,
              "y": 50.5981
            },
            {
              "x": 2231.3477,
              "y": 54.4189
            },
            {
              "x": 2227.5269,
              "y": 58.2397
            },
            {
              "x": 2223.7061,
              "y": 58.2397
            },
            {
              "x": 2219.8853,
              "y": 62.0605
            }
          ],
          "properties": [
            {
              "name": "material",
              "type": "string",
              "value": "land-tropical"
            },
            {
              "name": "elevation",
              "type": "float",
              "value": 19.5
            }
          ]
        },
        {
          "id": 28,
          "name": "archipelago-island-07",
          "class": "terrain",
          "x": 0.0,
          "y": 0.0,
          "polygon": [
            {
              "x": 794.7266,
              "y": -453.7476
            },
            {
              "x": 741.2354,
              "y": -438.4644
            },
            {
              "x": 714.4897,
              "y": -407.8979
            },
            {
              "x": 683.9233,
              "y": -304.7363
            },
            {
              "x": 630.4321,
              "y": -300.9155
            },
            {
              "x": 538.7329,
              "y": -213.0371
            },
            {
              "x": 492.8833,
              "y": -41.1011
            },
            {
              "x": 447.0337,
              "y": -37.2803
            },
            {
              "x": 401.1841,
              "y": 35.3149
            },
            {
              "x": 355.3345,
              "y": 35.3149
            },
            {
              "x": 336.2305,
              "y": 16.2109
            },
            {
              "x": 282.7393,
              "y": 58.2397
            },
            {
              "x": 294.2017,
              "y": 88.8062
            },
            {
              "x": 351.5137,
              "y": 96.4478
            },
            {
              "x": 397.3633,
              "y": 130.835
            },
            {
              "x": 389.7217,
              "y": 214.8926
            },
            {
              "x": 447.0337,
              "y": 253.1006
            },
            {
              "x": 450.8545,
              "y": 295.1294
            },
            {
              "x": 508.1665,
              "y": 333.3374
            },
            {
              "x": 565.4785,
              "y": 337.1582
            },
            {
              "x": 565.4785,
              "y": 405.9326
            },
            {
              "x": 542.5537,
              "y": 436.499
            },
            {
              "x": 561.6577,
              "y": 467.0654
            },
            {
              "x": 599.8657,
              "y": 459.4238
            },
            {
              "x": 603.6865,
              "y": 367.7246
            },
            {
              "x": 695.3857,
              "y": 360.083
            },
            {
              "x": 699.2065,
              "y": 318.0542
            },
            {
              "x": 794.7266,
              "y": 302.771
            },
            {
              "x": 813.8306,
              "y": 211.0718
            },
            {
              "x": 981.9458,
              "y": 161.4014
            },
            {
              "x": 970.4834,
              "y": 54.4189
            },
            {
              "x": 1027.7954,
              "y": 50.5981
            },
            {
              "x": 1043.0786,
              "y": 31.4941
            },
            {
              "x": 1031.6162,
              "y": -33.4595
            },
            {
              "x": 997.229,
              "y": -83.1299
            },
            {
              "x": 951.3794,
              "y": -98.4131
            },
            {
              "x": 943.7378,
              "y": -144.2627
            },
            {
              "x": 905.5298,
              "y": -151.9043
            },
            {
              "x": 886.4258,
              "y": -266.5283
            },
            {
              "x": 928.4546,
              "y": -285.6323
            },
            {
              "x": 928.4546,
              "y": -342.9443
            },
            {
              "x": 863.501,
              "y": -415.5396
            },
            {
              "x": 832.9346,
              "y": -415.5396
            }
          ],
          "properties": [
            {
              "name": "material",
              "type": "string",
              "value": "land-tropical"
            },
            {
              "name": "elevation",
              "type": "float",
              "value": 58.5
            }
          ]
        },
        {
          "id": 29,
          "name": "archipelago-island-08",
          "class": "terrain",
          "x": 0.0,
          "y": 0.0,
          "polygon": [
            {
              "x": 1853.0884,
              "y": -270.3491
            },
            {
              "x": 1856.9092,
              "y": -255.0659
            },
            {
              "x": 1872.1924,
              "y": -239.7827
            },
            {
              "x": 1883.6548,
              "y": -235.9619
            },
            {
              "x": 1891.2964,
              "y": -224.4995
            },
            {
              "x": 1891.2964,
              "y": -190.1123
            },
            {
              "x": 1940.9668,
              "y": -190.1123
            },
            {
              "x": 1960.0708,
              "y": -174.8291
            },
            {
              "x": 1967.7124,
              "y": -174.8291
            },
            {
              "x": 1986.8164,
              "y": -155.7251
            },
            {
              "x": 1998.2788,
              "y": -155.7251
            },
            {
              "x": 2005.9204,
              "y": -148.0835
            },
            {
              "x": 2025.0244,
              "y": -148.0835
            },
            {
              "x": 2028.8452,
              "y": -140.4419
            },
            {
              "x": 2036.4868,
              "y": -140.4419
            },
            {
              "x": 2036.4868,
              "y": -148.0835
            },
            {
              "x": 2017.3828,
              "y": -148.0835
            },
            {
              "x": 2002.0996,
              "y": -167.1875
            },
            {
              "x": 2002.0996,
              "y": -174.8291
            },
            {
              "x": 1979.1748,
              "y": -174.8291
            },
            {
              "x": 1963.8916,
              "y": -190.1123
            },
            {
              "x": 1963.8916,
              "y": -235.9619
            },
            {
              "x": 1986.8164,
              "y": -258.8867
            },
            {
              "x": 2005.9204,
              "y": -258.8867
            },
            {
              "x": 2005.9204,
              "y": -274.1699
            },
            {
              "x": 1990.6372,
              "y": -274.1699
            },
            {
              "x": 1979.1748,
              "y": -258.8867
            },
            {
              "x": 1967.7124,
              "y": -255.0659
            },
            {
              "x": 1963.8916,
              "y": -247.4243
            },
            {
              "x": 1948.6084,
              "y": -239.7827
            },
            {
              "x": 1898.938,
              "y": -239.7827
            },
            {
              "x": 1891.2964,
              "y": -247.4243
            },
            {
              "x": 1879.834,
              "y": -247.4243
            },
            {
              "x": 1860.73,
              "y": -270.3491
            }
          ],
          "properties": [
            {
              "name": "material",
              "type": "string",
              "value": "land-tropical"
            },
            {
              "name": "elevation",
              "type": "float",
              "value": 22.1
            }
          ]
        },
        {
          "id": 30,
          "name": "archipelago-island-09",
          "class": "terrain",
          "x": 0.0,
          "y": 0.0,
          "polygon": [
            {
              "x": 1547.4243,
              "y": -251.2451
            },
            {
              "x": 1547.4243,
              "y": -247.4243
            },
            {
              "x": 1543.6035,
              "y": -243.6035
            },
            {
              "x": 1543.6035,
              "y": -216.8579
            },
            {
              "x": 1547.4243,
              "y": -213.0371
            },
            {
              "x": 1547.4243,
              "y": -209.2163
            },
            {
              "x": 1551.2451,
              "y": -205.3955
            },
            {
              "x": 1623.8403,
              "y": -205.3955
            },
            {
              "x": 1623.8403,
              "y": -216.8579
            },
            {
              "x": 1620.0195,
              "y": -220.6787
            },
            {
              "x": 1620.0195,
              "y": -239.7827
            },
            {
              "x": 1608.5571,
              "y": -251.2451
            },
            {
              "x": 1608.5571,
              "y": -255.0659
            },
            {
              "x": 1604.7363,
              "y": -255.0659
            },
            {
              "x": 1600.9155,
              "y": -258.8867
            },
            {
              "x": 1597.0947,
              "y": -258.8867
            },
            {
              "x": 1593.2739,
              "y": -262.7075
            },
            {
              "x": 1570.3491,
              "y": -262.7075
            },
            {
              "x": 1566.5283,
              "y": -258.8867
            },
            {
              "x": 1562.7075,
              "y": -258.8867
            },
            {
              "x": 1558.8867,
              "y": -255.0659
            },
            {
              "x": 1555.0659,
              "y": -255.0659
            },
            {
              "x": 1551.2451,
              "y": -251.2451
            }
          ],
          "properties": [
            {
              "name": "material",
              "type": "string",
              "value": "land-tropical"
            },
            {
              "name": "elevation",
              "type": "float",
              "value": 20.8
            }
          ]
        },
        {
          "id": 31,
          "name": "archipelago-island-10",
          "class": "terrain",
          "x": 0.0,
          "y": 0.0,
          "polygon": [
            {
              "x": 133.728,
              "y": -331.4819
            },
            {
              "x": 133.728,
              "y": -281.8115
            },
            {
              "x": 126.0864,
              "y": -255.0659
            },
            {
              "x": 137.5488,
              "y": -243.6035
            },
            {
              "x": 175.7568,
              "y": -239.7827
            },
            {
              "x": 187.2192,
              "y": -209.2163
            },
            {
              "x": 210.144,
              "y": -209.2163
            },
            {
              "x": 217.7856,
              "y": -171.0083
            },
            {
              "x": 240.7104,
              "y": -174.8291
            },
            {
              "x": 255.9937,
              "y": -186.2915
            },
            {
              "x": 301.8433,
              "y": -186.2915
            },
            {
              "x": 305.6641,
              "y": -178.6499
            },
            {
              "x": 320.9473,
              "y": -178.6499
            },
            {
              "x": 328.5889,
              "y": -186.2915
            },
            {
              "x": 328.5889,
              "y": -235.9619
            },
            {
              "x": 336.2305,
              "y": -239.7827
            },
            {
              "x": 336.2305,
              "y": -285.6323
            },
            {
              "x": 359.1553,
              "y": -308.5571
            },
            {
              "x": 359.1553,
              "y": -323.8403
            },
            {
              "x": 309.4849,
              "y": -316.1987
            },
            {
              "x": 301.8433,
              "y": -289.4531
            },
            {
              "x": 194.8608,
              "y": -285.6323
            },
            {
              "x": 179.5776,
              "y": -312.3779
            },
            {
              "x": 160.4736,
              "y": -312.3779
            },
            {
              "x": 156.6528,
              "y": -327.6611
            },
            {
              "x": 149.0112,
              "y": -335.3027
            }
          ],
          "properties": [
            {
              "name": "material",
              "type": "string",
              "value": "land-tropical"
            },
            {
              "name": "elevation",
              "type": "float",
              "value": 26.9
            }
          ]
        },
        {
          "id": 32,
          "name": "archipelago-island-11",
          "class": "terrain",
          "x": 0.0,
          "y": 0.0,
          "polygon": [
            {
              "x": 252.1729,
              "y": -713.562
            },
            {
              "x": 225.4272,
              "y": -644.7876
            },
            {
              "x": 282.7393,
              "y": -614.2212
            },
            {
              "x": 282.7393,
              "y": -568.3716
            },
            {
              "x": 252.1729,
              "y": -553.0884
            },
            {
              "x": 252.1729,
              "y": -533.9844
            },
            {
              "x": 271.2769,
              "y": -530.1636
            },
            {
              "x": 294.2017,
              "y": -503.418
            },
            {
              "x": 320.9473,
              "y": -495.7764
            },
            {
              "x": 359.1553,
              "y": -499.5972
            },
            {
              "x": 362.9761,
              "y": -514.8804
            },
            {
              "x": 385.9009,
              "y": -533.9844
            },
            {
              "x": 466.1377,
              "y": -526.3428
            },
            {
              "x": 481.4209,
              "y": -518.7012
            },
            {
              "x": 481.4209,
              "y": -476.6724
            },
            {
              "x": 489.0625,
              "y": -469.0308
            },
            {
              "x": 519.6289,
              "y": -461.3892
            },
            {
              "x": 550.1953,
              "y": -438.4644
            },
            {
              "x": 592.2241,
              "y": -438.4644
            },
            {
              "x": 592.2241,
              "y": -465.21
            },
            {
              "x": 622.7905,
              "y": -484.314
            },
            {
              "x": 630.4321,
              "y": -537.8052
            },
            {
              "x": 607.5073,
              "y": -541.626
            },
            {
              "x": 565.4785,
              "y": -583.6548
            },
            {
              "x": 565.4785,
              "y": -629.5044
            },
            {
              "x": 576.9409,
              "y": -637.146
            },
            {
              "x": 584.5825,
              "y": -667.7124
            },
            {
              "x": 557.8369,
              "y": -717.3828
            },
            {
              "x": 527.2705,
              "y": -725.0244
            },
            {
              "x": 496.7041,
              "y": -782.3364
            },
            {
              "x": 462.3169,
              "y": -797.6196
            },
            {
              "x": 405.0049,
              "y": -805.2612
            },
            {
              "x": 397.3633,
              "y": -786.1572
            },
            {
              "x": 378.2593,
              "y": -786.1572
            },
            {
              "x": 359.1553,
              "y": -767.0532
            },
            {
              "x": 336.2305,
              "y": -767.0532
            },
            {
              "x": 332.4097,
              "y": -747.9492
            },
            {
              "x": 298.0225,
              "y": -747.9492
            },
            {
              "x": 294.2017,
              "y": -728.8452
            }
          ],
          "properties": [
            {
              "name": "material",
              "type": "string",
              "value": "land-tropical"
            },
            {
              "name": "elevation",
              "type": "float",
              "value": 38.0
            }
          ]
        },
        {
          "id": 33,
          "name": "archipelago-island-12",
          "class": "terrain",
          "x": 0.0,
          "y": 0.0,
          "polygon": [
            {
              "x": 874.9634,
              "y": -637.146
            },
            {
              "x": 874.9634,
              "y": -625.6836
            },
            {
              "x": 871.1426,
              "y": -621.8628
            },
            {
              "x": 871.1426,
              "y": -606.5796
            },
            {
              "x": 882.605,
              "y": -595.1172
            },
            {
              "x": 897.8882,
              "y": -595.1172
            },
            {
              "x": 901.709,
              "y": -591.2964
            },
            {
              "x": 901.709,
              "y": -576.0132
            },
            {
              "x": 909.3506,
              "y": -576.0132
            },
            {
              "x": 909.3506,
              "y": -587.4756
            },
            {
              "x": 913.1714,
              "y": -591.2964
            },
            {
              "x": 974.3042,
              "y": -591.2964
            },
            {
              "x": 974.3042,
              "y": -595.1172
            },
            {
              "x": 978.125,
              "y": -598.938
            },
            {
              "x": 981.9458,
              "y": -598.938
            },
            {
              "x": 981.9458,
              "y": -606.5796
            },
            {
              "x": 978.125,
              "y": -610.4004
            },
            {
              "x": 978.125,
              "y": -648.6084
            },
            {
              "x": 974.3042,
              "y": -652.4292
            },
            {
              "x": 951.3794,
              "y": -652.4292
            },
            {
              "x": 932.2754,
              "y": -671.5332
            },
            {
              "x": 928.4546,
              "y": -682.9956
            },
            {
              "x": 916.9922,
              "y": -682.9956
            },
            {
              "x": 905.5298,
              "y": -667.7124
            },
            {
              "x": 905.5298,
              "y": -656.25
            },
            {
              "x": 894.0674,
              "y": -648.6084
            },
            {
              "x": 886.4258,
              "y": -648.6084
            }
          ],
          "properties": [
            {
              "name": "material",
              "type": "string",
              "value": "land-tropical"
            },
            {
              "name": "elevation",
              "type": "float",
              "value": 22.5
            }
          ]
        },
        {
          "id": 34,
          "name": "archipelago-island-13",
          "class": "terrain",
          "x": 0.0,
          "y": 0.0,
          "polygon": [
            {
              "x": 1604.7363,
              "y": -1099.4629
            },
            {
              "x": 1566.5283,
              "y": -1023.0469
            },
            {
              "x": 1524.4995,
              "y": -1000.1221
            },
            {
              "x": 1528.3203,
              "y": -916.0645
            },
            {
              "x": 1478.6499,
              "y": -866.394
            },
            {
              "x": 1566.5283,
              "y": -854.9316
            },
            {
              "x": 1581.8115,
              "y": -637.146
            },
            {
              "x": 1635.3027,
              "y": -629.5044
            },
            {
              "x": 1635.3027,
              "y": -572.1924
            },
            {
              "x": 1684.9731,
              "y": -564.5508
            },
            {
              "x": 1704.0771,
              "y": -499.5972
            },
            {
              "x": 1791.9556,
              "y": -469.0308
            },
            {
              "x": 1811.0596,
              "y": -362.0483
            },
            {
              "x": 1879.834,
              "y": -331.4819
            },
            {
              "x": 2017.3828,
              "y": -339.1235
            },
            {
              "x": 2032.666,
              "y": -281.8115
            },
            {
              "x": 2135.8276,
              "y": -274.1699
            },
            {
              "x": 2162.5732,
              "y": -220.6787
            },
            {
              "x": 2349.7925,
              "y": -197.7539
            },
            {
              "x": 2342.1509,
              "y": -270.3491
            },
            {
              "x": 2433.8501,
              "y": -281.8115
            },
            {
              "x": 2399.4629,
              "y": -396.4355
            },
            {
              "x": 2372.7173,
              "y": -407.8979
            },
            {
              "x": 2372.7173,
              "y": -453.7476
            },
            {
              "x": 2281.0181,
              "y": -587.4756
            },
            {
              "x": 2139.6484,
              "y": -667.7124
            },
            {
              "x": 2154.9316,
              "y": -751.77
            },
            {
              "x": 2200.7812,
              "y": -763.2324
            },
            {
              "x": 2174.0356,
              "y": -767.0532
            },
            {
              "x": 2174.0356,
              "y": -797.6196
            },
            {
              "x": 2120.5444,
              "y": -801.4404
            },
            {
              "x": 2120.5444,
              "y": -851.1108
            },
            {
              "x": 2170.2148,
              "y": -854.9316
            },
            {
              "x": 2177.8564,
              "y": -919.8853
            },
            {
              "x": 2273.3765,
              "y": -935.1685
            },
            {
              "x": 2219.8853,
              "y": -1042.1509
            },
            {
              "x": 2185.498,
              "y": -1057.4341
            },
            {
              "x": 2170.2148,
              "y": -996.3013
            },
            {
              "x": 2097.6196,
              "y": -1000.1221
            },
            {
              "x": 2047.9492,
              "y": -946.6309
            },
            {
              "x": 1994.458,
              "y": -946.6309
            },
            {
              "x": 1960.0708,
              "y": -1045.9717
            },
            {
              "x": 1948.6084,
              "y": -1015.4053
            },
            {
              "x": 1860.73,
              "y": -1015.4053
            },
            {
              "x": 1788.1348,
              "y": -1126.2085
            },
            {
              "x": 1684.9731,
              "y": -1137.6709
            },
            {
              "x": 1673.5107,
              "y": -1110.9253
            }
          ],
          "properties": [
            {
              "name": "material",
              "type": "string",
              "value": "land-tropical"
            },
            {
              "name": "elevation",
              "type": "float",
              "value": 66.8
            }
          ]
        },
        {
          "id": 35,
          "name": "archipelago-island-14",
          "class": "terrain",
          "x": 0.0,
          "y": 0.0,
          "polygon": [
            {
              "x": 680.1025,
              "y": -751.77
            },
            {
              "x": 664.8193,
              "y": -751.77
            },
            {
              "x": 653.3569,
              "y": -740.3076
            },
            {
              "x": 653.3569,
              "y": -736.4868
            },
            {
              "x": 649.5361,
              "y": -732.666
            },
            {
              "x": 641.8945,
              "y": -732.666
            },
            {
              "x": 641.8945,
              "y": -702.0996
            },
            {
              "x": 649.5361,
              "y": -702.0996
            },
            {
              "x": 653.3569,
              "y": -698.2788
            },
            {
              "x": 657.1777,
              "y": -698.2788
            },
            {
              "x": 660.9985,
              "y": -694.458
            },
            {
              "x": 660.9985,
              "y": -686.8164
            },
            {
              "x": 672.4609,
              "y": -686.8164
            },
            {
              "x": 683.9233,
              "y": -698.2788
            },
            {
              "x": 687.7441,
              "y": -698.2788
            },
            {
              "x": 687.7441,
              "y": -702.0996
            },
            {
              "x": 691.5649,
              "y": -705.9204
            },
            {
              "x": 710.6689,
              "y": -705.9204
            },
            {
              "x": 710.6689,
              "y": -713.562
            },
            {
              "x": 703.0273,
              "y": -721.2036
            },
            {
              "x": 703.0273,
              "y": -725.0244
            },
            {
              "x": 695.3857,
              "y": -732.666
            },
            {
              "x": 695.3857,
              "y": -740.3076
            },
            {
              "x": 687.7441,
              "y": -747.9492
            },
            {
              "x": 683.9233,
              "y": -747.9492
            }
          ],
          "properties": [
            {
              "name": "material",
              "type": "string",
              "value": "land-tropical"
            },
            {
              "name": "elevation",
              "type": "float",
              "value": 20.2
            }
          ]
        },
        {
          "id": 36,
          "name": "archipelago-island-15",
          "class": "terrain",
          "x": 0.0,
          "y": 0.0,
          "polygon": [
            {
              "x": 2388.0005,
              "y": -938.9893
            },
            {
              "x": 2380.3589,
              "y": -927.5269
            },
            {
              "x": 2380.3589,
              "y": -896.9604
            },
            {
              "x": 2376.5381,
              "y": -893.1396
            },
            {
              "x": 2376.5381,
              "y": -877.8564
            },
            {
              "x": 2368.8965,
              "y": -874.0356
            },
            {
              "x": 2368.8965,
              "y": -866.394
            },
            {
              "x": 2365.0757,
              "y": -862.5732
            },
            {
              "x": 2345.9717,
              "y": -858.7524
            },
            {
              "x": 2338.3301,
              "y": -839.6484
            },
            {
              "x": 2334.5093,
              "y": -835.8276
            },
            {
              "x": 2326.8677,
              "y": -835.8276
            },
            {
              "x": 2326.8677,
              "y": -816.7236
            },
            {
              "x": 2323.0469,
              "y": -809.082
            },
            {
              "x": 2315.4053,
              "y": -805.2612
            },
            {
              "x": 2319.2261,
              "y": -778.5156
            },
            {
              "x": 2326.8677,
              "y": -778.5156
            },
            {
              "x": 2330.6885,
              "y": -770.874
            },
            {
              "x": 2349.7925,
              "y": -770.874
            },
            {
              "x": 2361.2549,
              "y": -759.4116
            },
            {
              "x": 2372.7173,
              "y": -759.4116
            },
            {
              "x": 2384.1797,
              "y": -751.77
            },
            {
              "x": 2456.7749,
              "y": -751.77
            },
            {
              "x": 2456.7749,
              "y": -763.2324
            },
            {
              "x": 2452.9541,
              "y": -767.0532
            },
            {
              "x": 2449.1333,
              "y": -786.1572
            },
            {
              "x": 2433.8501,
              "y": -797.6196
            },
            {
              "x": 2433.8501,
              "y": -824.3652
            },
            {
              "x": 2430.0293,
              "y": -824.3652
            },
            {
              "x": 2403.2837,
              "y": -854.9316
            },
            {
              "x": 2399.4629,
              "y": -931.3477
            },
            {
              "x": 2395.6421,
              "y": -938.9893
            }
          ],
          "properties": [
            {
              "name": "material",
              "type": "string",
              "value": "land-tropical"
            },
            {
              "name": "elevation",
              "type": "float",
              "value": 24.6
            }
          ]
        },
        {
          "id": 37,
          "name": "archipelago-island-16",
          "class": "terrain",
          "x": 0.0,
          "y": 0.0,
          "polygon": [
            {
              "x": 2017.3828,
              "y": -1298.1445
            },
            {
              "x": 2017.3828,
              "y": -1290.5029
            },
            {
              "x": 2009.7412,
              "y": -1282.8613
            },
            {
              "x": 1998.2788,
              "y": -1282.8613
            },
            {
              "x": 1998.2788,
              "y": -1263.7573
            },
            {
              "x": 1994.458,
              "y": -1259.9365
            },
            {
              "x": 1986.8164,
              "y": -1259.9365
            },
            {
              "x": 1982.9956,
              "y": -1256.1157
            },
            {
              "x": 1982.9956,
              "y": -1248.4741
            },
            {
              "x": 1986.8164,
              "y": -1244.6533
            },
            {
              "x": 1986.8164,
              "y": -1240.8325
            },
            {
              "x": 1990.6372,
              "y": -1237.0117
            },
            {
              "x": 1990.6372,
              "y": -1233.1909
            },
            {
              "x": 1994.458,
              "y": -1233.1909
            },
            {
              "x": 1998.2788,
              "y": -1229.3701
            },
            {
              "x": 2002.0996,
              "y": -1229.3701
            },
            {
              "x": 2005.9204,
              "y": -1225.5493
            },
            {
              "x": 2009.7412,
              "y": -1225.5493
            },
            {
              "x": 2021.2036,
              "y": -1217.9077
            },
            {
              "x": 2032.666,
              "y": -1217.9077
            },
            {
              "x": 2036.4868,
              "y": -1221.7285
            },
            {
              "x": 2040.3076,
              "y": -1221.7285
            },
            {
              "x": 2044.1284,
              "y": -1225.5493
            },
            {
              "x": 2051.77,
              "y": -1225.5493
            },
            {
              "x": 2063.2324,
              "y": -1233.1909
            },
            {
              "x": 2063.2324,
              "y": -1259.9365
            },
            {
              "x": 2059.4116,
              "y": -1263.7573
            },
            {
              "x": 2055.5908,
              "y": -1263.7573
            },
            {
              "x": 2047.9492,
              "y": -1271.3989
            },
            {
              "x": 2047.9492,
              "y": -1279.0405
            },
            {
              "x": 2028.8452,
              "y": -1298.1445
            }
          ],
          "properties": [
            {
              "name": "material",
              "type": "string",
              "value": "land-tropical"
            },
            {
              "name": "elevation",
              "type": "float",
              "value": 21.0
            }
          ]
        },
        {
          "id": 38,
          "name": "archipelago-island-17",
          "class": "terrain",
          "x": 0.0,
          "y": 0.0,
          "polygon": [
            {
              "x": 1066.0034,
              "y": -1279.0405
            },
            {
              "x": 1066.0034,
              "y": -1271.3989
            },
            {
              "x": 1069.8242,
              "y": -1271.3989
            },
            {
              "x": 1073.645,
              "y": -1267.5781
            },
            {
              "x": 1073.645,
              "y": -1259.9365
            },
            {
              "x": 1096.5698,
              "y": -1259.9365
            },
            {
              "x": 1119.4946,
              "y": -1244.6533
            },
            {
              "x": 1134.7778,
              "y": -1244.6533
            },
            {
              "x": 1138.5986,
              "y": -1240.8325
            },
            {
              "x": 1142.4194,
              "y": -1240.8325
            },
            {
              "x": 1153.8818,
              "y": -1233.1909
            },
            {
              "x": 1165.3442,
              "y": -1233.1909
            },
            {
              "x": 1165.3442,
              "y": -1282.8613
            },
            {
              "x": 1169.165,
              "y": -1286.6821
            },
            {
              "x": 1169.165,
              "y": -1305.7861
            },
            {
              "x": 1123.3154,
              "y": -1305.7861
            },
            {
              "x": 1119.4946,
              "y": -1301.9653
            },
            {
              "x": 1092.749,
              "y": -1301.9653
            },
            {
              "x": 1092.749,
              "y": -1290.5029
            },
            {
              "x": 1088.9282,
              "y": -1286.6821
            },
            {
              "x": 1081.2866,
              "y": -1286.6821
            },
            {
              "x": 1077.4658,
              "y": -1282.8613
            },
            {
              "x": 1069.8242,
              "y": -1282.8613
            }
          ],
          "properties": [
            {
              "name": "material",
              "type": "string",
              "value": "land-tropical"
            },
            {
              "name": "elevation",
              "type": "float",
              "value": 21.5
            }
          ]
        },
        {
          "id": 495,
          "name": "civil-reclaimed-west",
          "class": "land",
          "x": 0.0,
          "y": 0.0,
          "polygon": [
            {
              "x": 770.0,
              "y": -2600.8392
            },
            {
              "x": 1070.0,
              "y": -2600.8392
            },
            {
              "x": 1090.0,
              "y": -2680.0
            },
            {
              "x": 1075.0,
              "y": -2760.0
            },
            {
              "x": 1100.0,
              "y": -2860.0
            },
            {
              "x": 1080.0,
              "y": -2988.3392
            },
            {
              "x": 790.0,
              "y": -2988.3392
            },
            {
              "x": 800.0,
              "y": -2920.0
            },
            {
              "x": 785.0,
              "y": -2850.0
            },
            {
              "x": 800.0,
              "y": -2750.0
            },
            {
              "x": 780.0,
              "y": -2680.0
            }
          ],
          "properties": [
            {
              "name": "material",
              "type": "string",
              "value": "land-tropical"
            },
            {
              "name": "district_id",
              "type": "string",
              "value": "civil-harbour"
            },
            {
              "name": "reclaimed",
              "type": "bool",
              "value": true
            }
          ]
        }
      ]
    },
    {
      "id": 3,
      "name": "Water Cutouts",
      "type": "objectgroup",
      "draworder": "topdown",
      "visible": true,
      "opacity": 1,
      "x": 0,
      "y": 0,
      "objects": [
        {
          "id": 46,
          "name": "civil-marina-west",
          "class": "water_cutout",
          "x": 0.0,
          "y": 0.0,
          "polygon": [
            {
              "x": 520.2524,
              "y": -2688.3392
            },
            {
              "x": 791.6885,
              "y": -2688.3392
            },
            {
              "x": 791.6885,
              "y": -2888.3392
            },
            {
              "x": 520.2524,
              "y": -2888.3392
            }
          ],
          "properties": [
            {
              "name": "material",
              "type": "string",
              "value": "water"
            },
            {
              "name": "kind",
              "type": "string",
              "value": "basin"
            }
          ]
        },
        {
          "id": 47,
          "name": "civil-marina-east",
          "class": "water_cutout",
          "x": 0.0,
          "y": 0.0,
          "polygon": [
            {
              "x": 1809.5737,
              "y": -2713.3392
            },
            {
              "x": 2092.3196,
              "y": -2713.3392
            },
            {
              "x": 2092.3196,
              "y": -2913.3392
            },
            {
              "x": 1809.5737,
              "y": -2913.3392
            }
          ],
          "properties": [
            {
              "name": "material",
              "type": "string",
              "value": "water"
            },
            {
              "name": "kind",
              "type": "string",
              "value": "basin"
            }
          ]
        },
        {
          "id": 48,
          "name": "industrial-basin-west",
          "class": "water_cutout",
          "x": 0.0,
          "y": 0.0,
          "polygon": [
            {
              "x": 463.7033,
              "y": -3106.3049
            },
            {
              "x": 814.3082,
              "y": -3106.3049
            },
            {
              "x": 814.3082,
              "y": -3406.3049
            },
            {
              "x": 463.7033,
              "y": -3406.3049
            }
          ],
          "properties": [
            {
              "name": "material",
              "type": "string",
              "value": "water"
            },
            {
              "name": "kind",
              "type": "string",
              "value": "basin"
            }
          ]
        },
        {
          "id": 49,
          "name": "industrial-basin-east",
          "class": "water_cutout",
          "x": 0.0,
          "y": 0.0,
          "polygon": [
            {
              "x": 1798.2639,
              "y": -3143.8049
            },
            {
              "x": 2148.8688,
              "y": -3143.8049
            },
            {
              "x": 2148.8688,
              "y": -3456.3049
            },
            {
              "x": 1798.2639,
              "y": -3456.3049
            }
          ],
          "properties": [
            {
              "name": "material",
              "type": "string",
              "value": "water"
            },
            {
              "name": "kind",
              "type": "string",
              "value": "basin"
            }
          ]
        },
        {
          "id": 50,
          "name": "naval-dry-dock-water",
          "class": "water_cutout",
          "x": 0.0,
          "y": 0.0,
          "polygon": [
            {
              "x": 655.9705,
              "y": -3569.4122
            },
            {
              "x": 995.2655,
              "y": -3569.4122
            },
            {
              "x": 995.2655,
              "y": -3869.4122
            },
            {
              "x": 655.9705,
              "y": -3869.4122
            }
          ],
          "properties": [
            {
              "name": "material",
              "type": "string",
              "value": "water"
            },
            {
              "name": "kind",
              "type": "string",
              "value": "dry-dock"
            }
          ]
        },
        {
          "id": 51,
          "name": "naval-basin-east",
          "class": "water_cutout",
          "x": 0.0,
          "y": 0.0,
          "polygon": [
            {
              "x": 1741.7147,
              "y": -3606.9122
            },
            {
              "x": 1990.5311,
              "y": -3606.9122
            },
            {
              "x": 1990.5311,
              "y": -3944.4122
            },
            {
              "x": 1741.7147,
              "y": -3944.4122
            }
          ],
          "properties": [
            {
              "name": "material",
              "type": "string",
              "value": "water"
            },
            {
              "name": "kind",
              "type": "string",
              "value": "basin"
            }
          ]
        }
      ]
    },
    {
      "id": 4,
      "name": "Concrete",
      "type": "objectgroup",
      "draworder": "topdown",
      "visible": true,
      "opacity": 1,
      "x": 0,
      "y": 0,
      "objects": [
        {
          "id": 52,
          "name": "outer-harbour-apron",
          "class": "concrete",
          "x": 0.0,
          "y": 0.0,
          "polygon": [
            {
              "x": 720.0,
              "y": -2600.8392
            },
            {
              "x": 1070.0,
              "y": -2600.8392
            },
            {
              "x": 1070.0,
              "y": -2988.3392
            },
            {
              "x": 720.0,
              "y": -2988.3392
            }
          ],
          "properties": [
            {
              "name": "material",
              "type": "string",
              "value": "concrete"
            }
          ]
        },
        {
          "id": 53,
          "name": "civil-east-apron",
          "class": "concrete",
          "x": 0.0,
          "y": 0.0,
          "polygon": [
            {
              "x": 1859.337,
              "y": -2613.3392
            },
            {
              "x": 2537.9271,
              "y": -2613.3392
            },
            {
              "x": 2537.9271,
              "y": -2988.3392
            },
            {
              "x": 1859.337,
              "y": -2988.3392
            }
          ],
          "properties": [
            {
              "name": "material",
              "type": "string",
              "value": "concrete"
            }
          ]
        },
        {
          "id": 54,
          "name": "cargo-terminal",
          "class": "concrete",
          "x": 0.0,
          "y": 0.0,
          "polygon": [
            {
              "x": 49.7633,
              "y": -3018.8049
            },
            {
              "x": 780.3787,
              "y": -3018.8049
            },
            {
              "x": 780.3787,
              "y": -3518.8049
            },
            {
              "x": 49.7633,
              "y": -3518.8049
            }
          ],
          "properties": [
            {
              "name": "material",
              "type": "string",
              "value": "concrete"
            }
          ]
        },
        {
          "id": 55,
          "name": "industrial-east-terminal",
          "class": "concrete",
          "x": 0.0,
          "y": 0.0,
          "polygon": [
            {
              "x": 1825.4075,
              "y": -3031.3049
            },
            {
              "x": 2556.0229,
              "y": -3031.3049
            },
            {
              "x": 2556.0229,
              "y": -3518.8049
            },
            {
              "x": 1825.4075,
              "y": -3518.8049
            }
          ],
          "properties": [
            {
              "name": "material",
              "type": "string",
              "value": "concrete"
            }
          ]
        },
        {
          "id": 56,
          "name": "naval-yard-apron",
          "class": "concrete",
          "x": 0.0,
          "y": 0.0,
          "polygon": [
            {
              "x": 40.7154,
              "y": -3481.9122
            },
            {
              "x": 825.618,
              "y": -3481.9122
            },
            {
              "x": 825.618,
              "y": -4006.9122
            },
            {
              "x": 40.7154,
              "y": -4006.9122
            }
          ],
          "properties": [
            {
              "name": "material",
              "type": "string",
              "value": "concrete"
            }
          ]
        },
        {
          "id": 57,
          "name": "naval-east-apron",
          "class": "concrete",
          "x": 0.0,
          "y": 0.0,
          "polygon": [
            {
              "x": 1780.1681,
              "y": -3481.9122
            },
            {
              "x": 2560.5468,
              "y": -3481.9122
            },
            {
              "x": 2560.5468,
              "y": -4006.9122
            },
            {
              "x": 1780.1681,
              "y": -4006.9122
            }
          ],
          "properties": [
            {
              "name": "material",
              "type": "string",
              "value": "concrete"
            }
          ]
        },
        {
          "id": 58,
          "name": "dam-west-service",
          "class": "concrete",
          "x": 0.0,
          "y": 0.0,
          "polygon": [
            {
              "x": 226.1967,
              "y": -5006.2805
            },
            {
              "x": 950.0262,
              "y": -5006.2805
            },
            {
              "x": 950.0262,
              "y": -5281.2805
            },
            {
              "x": 226.1967,
              "y": -5281.2805
            }
          ],
          "properties": [
            {
              "name": "material",
              "type": "string",
              "value": "concrete"
            }
          ]
        },
        {
          "id": 59,
          "name": "dam-east-service",
          "class": "concrete",
          "x": 0.0,
          "y": 0.0,
          "polygon": [
            {
              "x": 1655.7599,
              "y": -5006.2805
            },
            {
              "x": 2379.5894,
              "y": -5006.2805
            },
            {
              "x": 2379.5894,
              "y": -5281.2805
            },
            {
              "x": 1655.7599,
              "y": -5281.2805
            }
          ],
          "properties": [
            {
              "name": "material",
              "type": "string",
              "value": "concrete"
            }
          ]
        },
        {
          "id": 60,
          "name": "fortress-west-platform",
          "class": "concrete",
          "x": 0.0,
          "y": 0.0,
          "polygon": [
            {
              "x": 214.8869,
              "y": -5811.2671
            },
            {
              "x": 780.3787,
              "y": -5811.2671
            },
            {
              "x": 780.3787,
              "y": -6223.7671
            },
            {
              "x": 214.8869,
              "y": -6223.7671
            }
          ],
          "properties": [
            {
              "name": "material",
              "type": "string",
              "value": "concrete"
            }
          ]
        },
        {
          "id": 61,
          "name": "fortress-east-platform",
          "class": "concrete",
          "x": 0.0,
          "y": 0.0,
          "polygon": [
            {
              "x": 1825.4075,
              "y": -5811.2671
            },
            {
              "x": 2390.8993,
              "y": -5811.2671
            },
            {
              "x": 2390.8993,
              "y": -6223.7671
            },
            {
              "x": 1825.4075,
              "y": -6223.7671
            }
          ],
          "properties": [
            {
              "name": "material",
              "type": "string",
              "value": "concrete"
            }
          ]
        },
        {
          "id": 62,
          "name": "narrows-fort-island",
          "class": "concrete",
          "x": 0.0,
          "y": 0.0,
          "polygon": [
            {
              "x": 1382.8931,
              "y": -1848.0
            },
            {
              "x": 1372.1751,
              "y": -1822.0
            },
            {
              "x": 1342.8931,
              "y": -1802.9667
            },
            {
              "x": 1302.8931,
              "y": -1796.0
            },
            {
              "x": 1262.8931,
              "y": -1802.9667
            },
            {
              "x": 1233.6111,
              "y": -1822.0
            },
            {
              "x": 1222.8931,
              "y": -1848.0
            },
            {
              "x": 1233.6111,
              "y": -1874.0
            },
            {
              "x": 1262.8931,
              "y": -1893.0333
            },
            {
              "x": 1302.8931,
              "y": -1900.0
            },
            {
              "x": 1342.8931,
              "y": -1893.0333
            },
            {
              "x": 1372.1751,
              "y": -1874.0
            }
          ],
          "properties": [
            {
              "name": "material",
              "type": "string",
              "value": "concrete"
            }
          ]
        },
        {
          "id": 63,
          "name": "citadel-platform",
          "class": "concrete",
          "x": 0.0,
          "y": 0.0,
          "polygon": [
            {
              "x": 1779.3312,
              "y": -6392.7216
            },
            {
              "x": 1664.5138,
              "y": -6361.5391
            },
            {
              "x": 1512.6679,
              "y": -6338.4516
            },
            {
              "x": 1302.8931,
              "y": -6331.6766
            },
            {
              "x": 1118.2713,
              "y": -6344.9616
            },
            {
              "x": 1001.2371,
              "y": -6366.7091
            },
            {
              "x": 904.8321,
              "y": -6392.7216
            },
            {
              "x": 945.4796,
              "y": -6423.5416
            },
            {
              "x": 1077.8047,
              "y": -6450.9516
            },
            {
              "x": 1302.8931,
              "y": -6450.9741
            },
            {
              "x": 1541.4401,
              "y": -6454.4291
            },
            {
              "x": 1613.5516,
              "y": -6419.5091
            }
          ],
          "properties": [
            {
              "name": "material",
              "type": "string",
              "value": "concrete"
            }
          ]
        }
      ]
    },
    {
      "id": 5,
      "name": "Maritime Structures",
      "type": "objectgroup",
      "draworder": "topdown",
      "visible": true,
      "opacity": 1,
      "x": 0,
      "y": 0,
      "objects": [
        {
          "id": 64,
          "name": "west-breakwater",
          "class": "breakwater",
          "x": 0.0,
          "y": 0.0,
          "polygon": [
            {
              "x": 588.1115,
              "y": -2525.8392
            },
            {
              "x": 644.6606,
              "y": -2525.8392
            },
            {
              "x": 950.0262,
              "y": -2575.8392
            },
            {
              "x": 1006.5754,
              "y": -2600.8392
            },
            {
              "x": 916.0967,
              "y": -2608.3392
            },
            {
              "x": 814.3082,
              "y": -2585.8392
            },
            {
              "x": 554.1819,
              "y": -2545.8392
            }
          ],
          "properties": [
            {
              "name": "material",
              "type": "string",
              "value": "concrete"
            },
            {
              "name": "kind",
              "type": "string",
              "value": "breakwater"
            }
          ]
        },
        {
          "id": 65,
          "name": "east-breakwater",
          "class": "breakwater",
          "x": 0.0,
          "y": 0.0,
          "polygon": [
            {
              "x": 2017.6747,
              "y": -2525.8392
            },
            {
              "x": 1961.1255,
              "y": -2525.8392
            },
            {
              "x": 1655.7599,
              "y": -2575.8392
            },
            {
              "x": 1599.2108,
              "y": -2600.8392
            },
            {
              "x": 1689.6894,
              "y": -2608.3392
            },
            {
              "x": 1791.478,
              "y": -2585.8392
            },
            {
              "x": 2051.6042,
              "y": -2545.8392
            }
          ],
          "properties": [
            {
              "name": "material",
              "type": "string",
              "value": "concrete"
            },
            {
              "name": "kind",
              "type": "string",
              "value": "breakwater"
            }
          ]
        },
        {
          "id": 66,
          "name": "industrial-west-seawall",
          "class": "seawall",
          "x": 0.0,
          "y": 0.0,
          "polygon": [
            {
              "x": 757.759,
              "y": -3031.3049
            },
            {
              "x": 825.618,
              "y": -3031.3049
            },
            {
              "x": 825.618,
              "y": -3506.3049
            },
            {
              "x": 757.759,
              "y": -3506.3049
            }
          ],
          "properties": [
            {
              "name": "material",
              "type": "string",
              "value": "concrete"
            },
            {
              "name": "kind",
              "type": "string",
              "value": "seawall"
            }
          ]
        },
        {
          "id": 67,
          "name": "industrial-east-seawall",
          "class": "seawall",
          "x": 0.0,
          "y": 0.0,
          "polygon": [
            {
              "x": 1780.1681,
              "y": -3031.3049
            },
            {
              "x": 1848.0271,
              "y": -3031.3049
            },
            {
              "x": 1848.0271,
              "y": -3506.3049
            },
            {
              "x": 1780.1681,
              "y": -3506.3049
            }
          ],
          "properties": [
            {
              "name": "material",
              "type": "string",
              "value": "concrete"
            },
            {
              "name": "kind",
              "type": "string",
              "value": "seawall"
            }
          ]
        },
        {
          "id": 68,
          "name": "alpine-dam-wall",
          "class": "dam",
          "x": 0.0,
          "y": 0.0,
          "polygon": [
            {
              "x": 878.2087,
              "y": -5151.2805
            },
            {
              "x": 1729.8394,
              "y": -5151.2805
            },
            {
              "x": 1729.8394,
              "y": -5186.2805
            },
            {
              "x": 878.2087,
              "y": -5186.2805
            }
          ],
          "properties": [
            {
              "name": "material",
              "type": "string",
              "value": "concrete"
            },
            {
              "name": "kind",
              "type": "string",
              "value": "dam"
            }
          ]
        }
      ]
    },
    {
      "id": 6,
      "name": "Docks",
      "type": "objectgroup",
      "draworder": "topdown",
      "visible": true,
      "opacity": 1,
      "x": 0,
      "y": 0,
      "objects": [
        {
          "id": 69,
          "name": "civil-west-pier-a",
          "class": "dock",
          "x": 0.0,
          "y": 0.0,
          "polygon": [
            {
              "x": 678.5901,
              "y": -2700.8392
            },
            {
              "x": 1063.1246,
              "y": -2700.8392
            },
            {
              "x": 1063.1246,
              "y": -2725.8392
            },
            {
              "x": 678.5901,
              "y": -2725.8392
            }
          ],
          "properties": [
            {
              "name": "material",
              "type": "string",
              "value": "dock"
            }
          ]
        },
        {
          "id": 70,
          "name": "civil-west-pier-b",
          "class": "dock",
          "x": 0.0,
          "y": 0.0,
          "polygon": [
            {
              "x": 689.9,
              "y": -2838.3392
            },
            {
              "x": 1029.195,
              "y": -2838.3392
            },
            {
              "x": 1029.195,
              "y": -2858.3392
            },
            {
              "x": 689.9,
              "y": -2858.3392
            }
          ],
          "properties": [
            {
              "name": "material",
              "type": "string",
              "value": "dock"
            }
          ]
        },
        {
          "id": 71,
          "name": "civil-east-pier-a",
          "class": "dock",
          "x": 0.0,
          "y": 0.0,
          "polygon": [
            {
              "x": 1542.6616,
              "y": -2738.3392
            },
            {
              "x": 1922.6721,
              "y": -2738.3392
            },
            {
              "x": 1922.6721,
              "y": -2763.3392
            },
            {
              "x": 1542.6616,
              "y": -2763.3392
            }
          ],
          "properties": [
            {
              "name": "material",
              "type": "string",
              "value": "dock"
            }
          ]
        },
        {
          "id": 72,
          "name": "civil-east-pier-b",
          "class": "dock",
          "x": 0.0,
          "y": 0.0,
          "polygon": [
            {
              "x": 1583.377,
              "y": -2875.8392
            },
            {
              "x": 1911.3622,
              "y": -2875.8392
            },
            {
              "x": 1911.3622,
              "y": -2898.3392
            },
            {
              "x": 1583.377,
              "y": -2898.3392
            }
          ],
          "properties": [
            {
              "name": "material",
              "type": "string",
              "value": "dock"
            }
          ]
        },
        {
          "id": 73,
          "name": "industrial-west-pier",
          "class": "dock",
          "x": 0.0,
          "y": 0.0,
          "polygon": [
            {
              "x": 746.4492,
              "y": -3156.3049
            },
            {
              "x": 1130.9836,
              "y": -3156.3049
            },
            {
              "x": 1130.9836,
              "y": -3211.3049
            },
            {
              "x": 746.4492,
              "y": -3211.3049
            }
          ],
          "properties": [
            {
              "name": "material",
              "type": "string",
              "value": "dock"
            }
          ]
        },
        {
          "id": 74,
          "name": "industrial-east-pier",
          "class": "dock",
          "x": 0.0,
          "y": 0.0,
          "polygon": [
            {
              "x": 1474.8026,
              "y": -3256.3049
            },
            {
              "x": 1854.813,
              "y": -3256.3049
            },
            {
              "x": 1854.813,
              "y": -3311.3049
            },
            {
              "x": 1474.8026,
              "y": -3311.3049
            }
          ],
          "properties": [
            {
              "name": "material",
              "type": "string",
              "value": "dock"
            }
          ]
        },
        {
          "id": 75,
          "name": "naval-west-pier",
          "class": "dock",
          "x": 0.0,
          "y": 0.0,
          "polygon": [
            {
              "x": 791.6885,
              "y": -3594.4122
            },
            {
              "x": 1221.4622,
              "y": -3594.4122
            },
            {
              "x": 1221.4622,
              "y": -3664.4122
            },
            {
              "x": 791.6885,
              "y": -3664.4122
            }
          ],
          "properties": [
            {
              "name": "material",
              "type": "string",
              "value": "dock"
            }
          ]
        },
        {
          "id": 76,
          "name": "naval-east-pier",
          "class": "dock",
          "x": 0.0,
          "y": 0.0,
          "polygon": [
            {
              "x": 1384.3239,
              "y": -3694.4122
            },
            {
              "x": 1820.8835,
              "y": -3694.4122
            },
            {
              "x": 1820.8835,
              "y": -3764.4122
            },
            {
              "x": 1384.3239,
              "y": -3764.4122
            }
          ],
          "properties": [
            {
              "name": "material",
              "type": "string",
              "value": "dock"
            }
          ]
        },
        {
          "id": 77,
          "name": "naval-west-pier-b",
          "class": "dock",
          "x": 0.0,
          "y": 0.0,
          "polygon": [
            {
              "x": 791.6885,
              "y": -3819.4122
            },
            {
              "x": 1142.2934,
              "y": -3819.4122
            },
            {
              "x": 1142.2934,
              "y": -3876.9122
            },
            {
              "x": 791.6885,
              "y": -3876.9122
            }
          ],
          "properties": [
            {
              "name": "material",
              "type": "string",
              "value": "dock"
            }
          ]
        },
        {
          "id": 78,
          "name": "naval-east-pier-b",
          "class": "dock",
          "x": 0.0,
          "y": 0.0,
          "polygon": [
            {
              "x": 1463.4927,
              "y": -3881.9122
            },
            {
              "x": 1820.8835,
              "y": -3881.9122
            },
            {
              "x": 1820.8835,
              "y": -3939.4122
            },
            {
              "x": 1463.4927,
              "y": -3939.4122
            }
          ],
          "properties": [
            {
              "name": "material",
              "type": "string",
              "value": "dock"
            }
          ]
        }
      ]
    },
    {
      "id": 7,
      "name": "Roads",
      "type": "objectgroup",
      "draworder": "topdown",
      "visible": true,
      "opacity": 1,
      "x": 0,
      "y": 0,
      "objects": [
        {
          "id": 104,
          "name": "coastal-spine",
          "class": "road",
          "x": 0,
          "y": 0,
          "polyline": [
            {
              "x": 252.1728515625,
              "y": -1405.126953125
            },
            {
              "x": 267.4560546875,
              "y": -1481.54296875
            },
            {
              "x": 282.7392578125,
              "y": -1557.958984375
            },
            {
              "x": 320.947265625,
              "y": -1653.47900390625
            },
            {
              "x": 359.1552734375,
              "y": -1748.9990234375
            },
            {
              "x": 389.7216796875,
              "y": -1844.51904296875
            },
            {
              "x": 420.2880859375,
              "y": -1940.0390625
            },
            {
              "x": 450.8544921875,
              "y": -2035.55908203125
            },
            {
              "x": 481.4208984375,
              "y": -2131.0791015625
            },
            {
              "x": 500.52490234375,
              "y": -2226.59912109375
            },
            {
              "x": 519.62890625,
              "y": -2322.119140625
            },
            {
              "x": 538.73291015625,
              "y": -2417.63916015625
            },
            {
              "x": 328.5888671875,
              "y": -2513.1591796875
            },
            {
              "x": 345.782470703125,
              "y": -2608.67919921875
            },
            {
              "x": 362.97607421875,
              "y": -2704.19921875
            },
            {
              "x": 351.513671875,
              "y": -2799.71923828125
            },
            {
              "x": 340.05126953125,
              "y": -2895.2392578125
            },
            {
              "x": 357.244873046875,
              "y": -2990.75927734375
            },
            {
              "x": 336.23046875,
              "y": -3086.279296875
            },
            {
              "x": 359.1552734375,
              "y": -3181.79931640625
            },
            {
              "x": 382.080078125,
              "y": -3277.3193359375
            },
            {
              "x": 401.18408203125,
              "y": -3372.83935546875
            },
            {
              "x": 420.2880859375,
              "y": -3468.359375
            },
            {
              "x": 448.944091796875,
              "y": -3563.87939453125
            },
            {
              "x": 477.60009765625,
              "y": -3659.3994140625
            },
            {
              "x": 492.88330078125,
              "y": -3754.91943359375
            },
            {
              "x": 508.16650390625,
              "y": -3850.439453125
            },
            {
              "x": 521.539306640625,
              "y": -3945.95947265625
            },
            {
              "x": 710.6689453125,
              "y": -4041.4794921875
            },
            {
              "x": 716.400146484375,
              "y": -4136.99951171875
            },
            {
              "x": 722.13134765625,
              "y": -4232.51953125
            },
            {
              "x": 748.876953125,
              "y": -4328.03955078125
            },
            {
              "x": 775.62255859375,
              "y": -4423.5595703125
            },
            {
              "x": 788.995361328125,
              "y": -4519.07958984375
            },
            {
              "x": 802.3681640625,
              "y": -4614.599609375
            },
            {
              "x": 788.995361328125,
              "y": -4710.11962890625
            },
            {
              "x": 775.62255859375,
              "y": -4805.6396484375
            },
            {
              "x": 788.995361328125,
              "y": -4901.15966796875
            },
            {
              "x": 802.3681640625,
              "y": -4996.6796875
            },
            {
              "x": 779.443359375,
              "y": -5092.19970703125
            },
            {
              "x": 787.0849609375,
              "y": -5187.7197265625
            },
            {
              "x": 754.608154296875,
              "y": -5283.23974609375
            },
            {
              "x": 722.13134765625,
              "y": -5378.759765625
            },
            {
              "x": 676.28173828125,
              "y": -5455.17578125
            },
            {
              "x": 603.6865234375,
              "y": -5569.7998046875
            },
            {
              "x": 546.37451171875,
              "y": -5684.423828125
            },
            {
              "x": 513.897705078125,
              "y": -5760.83984375
            },
            {
              "x": 481.4208984375,
              "y": -5837.255859375
            },
            {
              "x": 458.49609375,
              "y": -5913.671875
            },
            {
              "x": 435.5712890625,
              "y": -5990.087890625
            },
            {
              "x": 443.212890625,
              "y": -6066.50390625
            },
            {
              "x": 450.8544921875,
              "y": -6142.919921875
            },
            {
              "x": 475.689697265625,
              "y": -6219.3359375
            },
            {
              "x": 500.52490234375,
              "y": -6295.751953125
            },
            {
              "x": 533.001708984375,
              "y": -6372.16796875
            },
            {
              "x": 565.478515625,
              "y": -6448.583984375
            }
          ],
          "properties": [
            {
              "name": "width",
              "type": "int",
              "value": 58
            },
            {
              "name": "material",
              "type": "string",
              "value": "road"
            },
            {
              "name": "road_class",
              "type": "string",
              "value": "primary"
            },
            {
              "name": "from_node",
              "type": "string",
              "value": "coast-entry"
            },
            {
              "name": "to_node",
              "type": "string",
              "value": "citadel-west-end"
            },
            {
              "name": "junction_nodes",
              "type": "string",
              "value": "bridge-west,civil-west,industrial-west,naval-west,canyon-west,dam-west,reservoir-west,fortress-west"
            }
          ]
        },
        {
          "id": 105,
          "name": "east-port-road",
          "class": "road",
          "x": 0,
          "y": 0,
          "polyline": [
            {
              "x": 2292.48046875,
              "y": -1405.126953125
            },
            {
              "x": 2281.01806640625,
              "y": -1481.54296875
            },
            {
              "x": 2269.5556640625,
              "y": -1557.958984375
            },
            {
              "x": 2244.720458984375,
              "y": -1653.47900390625
            },
            {
              "x": 2219.88525390625,
              "y": -1748.9990234375
            },
            {
              "x": 2195.050048828125,
              "y": -1844.51904296875
            },
            {
              "x": 2170.21484375,
              "y": -1940.0390625
            },
            {
              "x": 2145.379638671875,
              "y": -2035.55908203125
            },
            {
              "x": 2120.54443359375,
              "y": -2131.0791015625
            },
            {
              "x": 2105.26123046875,
              "y": -2226.59912109375
            },
            {
              "x": 2089.97802734375,
              "y": -2322.119140625
            },
            {
              "x": 2072.784423828125,
              "y": -2417.63916015625
            },
            {
              "x": 2284.8388671875,
              "y": -2513.1591796875
            },
            {
              "x": 2269.5556640625,
              "y": -2608.67919921875
            },
            {
              "x": 2254.2724609375,
              "y": -2704.19921875
            },
            {
              "x": 2269.5556640625,
              "y": -2799.71923828125
            },
            {
              "x": 2284.8388671875,
              "y": -2895.2392578125
            },
            {
              "x": 2261.9140625,
              "y": -2990.75927734375
            },
            {
              "x": 2277.197265625,
              "y": -3086.279296875
            },
            {
              "x": 2254.2724609375,
              "y": -3181.79931640625
            },
            {
              "x": 2231.34765625,
              "y": -3277.3193359375
            },
            {
              "x": 2212.24365234375,
              "y": -3372.83935546875
            },
            {
              "x": 2193.1396484375,
              "y": -3468.359375
            },
            {
              "x": 2172.125244140625,
              "y": -3563.87939453125
            },
            {
              "x": 2151.11083984375,
              "y": -3659.3994140625
            },
            {
              "x": 2133.917236328125,
              "y": -3754.91943359375
            },
            {
              "x": 2116.7236328125,
              "y": -3850.439453125
            },
            {
              "x": 2103.350830078125,
              "y": -3945.95947265625
            },
            {
              "x": 1914.22119140625,
              "y": -4041.4794921875
            },
            {
              "x": 1902.7587890625,
              "y": -4136.99951171875
            },
            {
              "x": 1891.29638671875,
              "y": -4232.51953125
            },
            {
              "x": 1864.55078125,
              "y": -4328.03955078125
            },
            {
              "x": 1837.80517578125,
              "y": -4423.5595703125
            },
            {
              "x": 1824.432373046875,
              "y": -4519.07958984375
            },
            {
              "x": 1811.0595703125,
              "y": -4614.599609375
            },
            {
              "x": 1822.52197265625,
              "y": -4710.11962890625
            },
            {
              "x": 1833.984375,
              "y": -4805.6396484375
            },
            {
              "x": 1818.701171875,
              "y": -4901.15966796875
            },
            {
              "x": 1803.41796875,
              "y": -4996.6796875
            },
            {
              "x": 1826.3427734375,
              "y": -5092.19970703125
            },
            {
              "x": 1818.701171875,
              "y": -5187.7197265625
            },
            {
              "x": 1851.177978515625,
              "y": -5283.23974609375
            },
            {
              "x": 1883.65478515625,
              "y": -5378.759765625
            },
            {
              "x": 1933.3251953125,
              "y": -5455.17578125
            },
            {
              "x": 2005.92041015625,
              "y": -5569.7998046875
            },
            {
              "x": 2063.232421875,
              "y": -5684.423828125
            },
            {
              "x": 2095.709228515625,
              "y": -5760.83984375
            },
            {
              "x": 2128.18603515625,
              "y": -5837.255859375
            },
            {
              "x": 2154.931640625,
              "y": -5913.671875
            },
            {
              "x": 2181.67724609375,
              "y": -5990.087890625
            },
            {
              "x": 2174.03564453125,
              "y": -6066.50390625
            },
            {
              "x": 2166.39404296875,
              "y": -6142.919921875
            },
            {
              "x": 2137.738037109375,
              "y": -6219.3359375
            },
            {
              "x": 2109.08203125,
              "y": -6295.751953125
            },
            {
              "x": 2078.515625,
              "y": -6372.16796875
            },
            {
              "x": 2047.94921875,
              "y": -6448.583984375
            }
          ],
          "properties": [
            {
              "name": "width",
              "type": "int",
              "value": 58
            },
            {
              "name": "material",
              "type": "string",
              "value": "road"
            },
            {
              "name": "road_class",
              "type": "string",
              "value": "primary"
            },
            {
              "name": "from_node",
              "type": "string",
              "value": "bridge-east"
            },
            {
              "name": "to_node",
              "type": "string",
              "value": "citadel-east-end"
            },
            {
              "name": "junction_nodes",
              "type": "string",
              "value": "civil-east,industrial-east,naval-east,canyon-east,dam-east,reservoir-east,fortress-east"
            }
          ]
        },
        {
          "id": 106,
          "name": "civil-west-loop",
          "class": "road",
          "x": 0.0,
          "y": 0.0,
          "polyline": [
            {
              "x": 386,
              "y": -2775.839
            },
            {
              "x": 386,
              "y": -2817.839
            },
            {
              "x": 386,
              "y": -2859.839
            },
            {
              "x": 386,
              "y": -2875.839
            }
          ],
          "properties": [
            {
              "name": "width",
              "type": "int",
              "value": 42
            },
            {
              "name": "material",
              "type": "string",
              "value": "road"
            },
            {
              "name": "road_class",
              "type": "string",
              "value": "service"
            },
            {
              "name": "from_node",
              "type": "string",
              "value": "civil-west"
            },
            {
              "name": "to_node",
              "type": "string",
              "value": "civil-west-loop-end"
            },
            {
              "name": "junction_nodes",
              "type": "string",
              "value": ""
            }
          ]
        },
        {
          "id": 107,
          "name": "industrial-west-loop",
          "class": "road",
          "x": 0.0,
          "y": 0.0,
          "polyline": [
            {
              "x": 422,
              "y": -3231.305
            },
            {
              "x": 422,
              "y": -3273.305
            },
            {
              "x": 422,
              "y": -3315.305
            },
            {
              "x": 422,
              "y": -3357.305
            },
            {
              "x": 422,
              "y": -3381.305
            }
          ],
          "properties": [
            {
              "name": "width",
              "type": "int",
              "value": 44
            },
            {
              "name": "material",
              "type": "string",
              "value": "road"
            },
            {
              "name": "road_class",
              "type": "string",
              "value": "service"
            },
            {
              "name": "from_node",
              "type": "string",
              "value": "industrial-west"
            },
            {
              "name": "to_node",
              "type": "string",
              "value": "industrial-west-loop-end"
            },
            {
              "name": "junction_nodes",
              "type": "string",
              "value": ""
            }
          ]
        },
        {
          "id": 108,
          "name": "naval-west-loop",
          "class": "road",
          "x": 0.0,
          "y": 0.0,
          "polyline": [
            {
              "x": 512,
              "y": -3769.412
            },
            {
              "x": 512,
              "y": -3811.412
            },
            {
              "x": 512,
              "y": -3853.412
            },
            {
              "x": 512,
              "y": -3894.412
            }
          ],
          "properties": [
            {
              "name": "width",
              "type": "int",
              "value": 46
            },
            {
              "name": "material",
              "type": "string",
              "value": "road"
            },
            {
              "name": "road_class",
              "type": "string",
              "value": "military"
            },
            {
              "name": "from_node",
              "type": "string",
              "value": "naval-west"
            },
            {
              "name": "to_node",
              "type": "string",
              "value": "naval-west-loop-end"
            },
            {
              "name": "junction_nodes",
              "type": "string",
              "value": ""
            }
          ]
        },
        {
          "id": 109,
          "name": "civil-east-loop",
          "class": "road",
          "x": 0.0,
          "y": 0.0,
          "polyline": [
            {
              "x": 2224.962,
              "y": -2775.839
            },
            {
              "x": 2215.905,
              "y": -2817.839
            },
            {
              "x": 2206.894,
              "y": -2859.839
            },
            {
              "x": 2212.366,
              "y": -2875.839
            }
          ],
          "properties": [
            {
              "name": "width",
              "type": "int",
              "value": 42
            },
            {
              "name": "material",
              "type": "string",
              "value": "road"
            },
            {
              "name": "road_class",
              "type": "string",
              "value": "service"
            },
            {
              "name": "from_node",
              "type": "string",
              "value": "civil-east"
            },
            {
              "name": "to_node",
              "type": "string",
              "value": "civil-east-loop-end"
            },
            {
              "name": "junction_nodes",
              "type": "string",
              "value": ""
            }
          ]
        },
        {
          "id": 110,
          "name": "industrial-east-loop",
          "class": "road",
          "x": 0.0,
          "y": 0.0,
          "polyline": [
            {
              "x": 2211.863,
              "y": -3231.305
            },
            {
              "x": 2207.692,
              "y": -3273.305
            },
            {
              "x": 2206.329,
              "y": -3315.305
            },
            {
              "x": 2194.253,
              "y": -3357.305
            },
            {
              "x": 2201.795,
              "y": -3381.305
            }
          ],
          "properties": [
            {
              "name": "width",
              "type": "int",
              "value": 44
            },
            {
              "name": "material",
              "type": "string",
              "value": "road"
            },
            {
              "name": "road_class",
              "type": "string",
              "value": "service"
            },
            {
              "name": "from_node",
              "type": "string",
              "value": "industrial-east"
            },
            {
              "name": "to_node",
              "type": "string",
              "value": "industrial-east-loop-end"
            },
            {
              "name": "junction_nodes",
              "type": "string",
              "value": ""
            }
          ]
        },
        {
          "id": 111,
          "name": "naval-east-loop",
          "class": "road",
          "x": 0.0,
          "y": 0.0,
          "polyline": [
            {
              "x": 2097.951,
              "y": -3769.412
            },
            {
              "x": 2091.283,
              "y": -3811.412
            },
            {
              "x": 2087.265,
              "y": -3853.412
            },
            {
              "x": 2078.587,
              "y": -3894.412
            }
          ],
          "properties": [
            {
              "name": "width",
              "type": "int",
              "value": 46
            },
            {
              "name": "material",
              "type": "string",
              "value": "road"
            },
            {
              "name": "road_class",
              "type": "string",
              "value": "military"
            },
            {
              "name": "from_node",
              "type": "string",
              "value": "naval-east"
            },
            {
              "name": "to_node",
              "type": "string",
              "value": "naval-east-loop-end"
            },
            {
              "name": "junction_nodes",
              "type": "string",
              "value": ""
            }
          ]
        }
      ]
    },
    {
      "id": 8,
      "name": "Road Nodes",
      "type": "objectgroup",
      "draworder": "topdown",
      "visible": true,
      "opacity": 1,
      "x": 0,
      "y": 0,
      "objects": [
        {
          "id": 79,
          "name": "coast-entry",
          "class": "road_node",
          "x": 404,
          "y": -787.6068,
          "point": true,
          "properties": [
            {
              "name": "node_id",
              "type": "string",
              "value": "coast-entry"
            }
          ]
        },
        {
          "id": 80,
          "name": "bridge-west",
          "class": "road_node",
          "x": 507.40234375000006,
          "y": -2260.986328125,
          "point": true,
          "properties": [
            {
              "name": "node_id",
              "type": "string",
              "value": "bridge-west"
            }
          ]
        },
        {
          "id": 81,
          "name": "civil-west",
          "class": "road_node",
          "x": 422.0,
          "y": -2775.8392,
          "point": true,
          "properties": [
            {
              "name": "node_id",
              "type": "string",
              "value": "civil-west"
            }
          ]
        },
        {
          "id": 82,
          "name": "industrial-west",
          "class": "road_node",
          "x": 404.0,
          "y": -3231.3049,
          "point": true,
          "properties": [
            {
              "name": "node_id",
              "type": "string",
              "value": "industrial-west"
            }
          ]
        },
        {
          "id": 83,
          "name": "naval-west",
          "class": "road_node",
          "x": 566.0,
          "y": -3769.4122,
          "point": true,
          "properties": [
            {
              "name": "node_id",
              "type": "string",
              "value": "naval-west"
            }
          ]
        },
        {
          "id": 84,
          "name": "canyon-west",
          "class": "road_node",
          "x": 422.0,
          "y": -4746.7468,
          "point": true,
          "properties": [
            {
              "name": "node_id",
              "type": "string",
              "value": "canyon-west"
            }
          ]
        },
        {
          "id": 85,
          "name": "dam-west",
          "class": "road_node",
          "x": 458.0,
          "y": -5143.7805,
          "point": true,
          "properties": [
            {
              "name": "node_id",
              "type": "string",
              "value": "dam-west"
            }
          ]
        },
        {
          "id": 86,
          "name": "reservoir-west",
          "class": "road_node",
          "x": 458.0,
          "y": -5484.787,
          "point": true,
          "properties": [
            {
              "name": "node_id",
              "type": "string",
              "value": "reservoir-west"
            }
          ]
        },
        {
          "id": 87,
          "name": "fortress-west",
          "class": "road_node",
          "x": 386.0,
          "y": -5986.2671,
          "point": true,
          "properties": [
            {
              "name": "node_id",
              "type": "string",
              "value": "fortress-west"
            }
          ]
        },
        {
          "id": 88,
          "name": "citadel-west-end",
          "class": "road_node",
          "x": 386,
          "y": -6580.2216,
          "point": true,
          "properties": [
            {
              "name": "node_id",
              "type": "string",
              "value": "citadel-west-end"
            }
          ]
        },
        {
          "id": 89,
          "name": "bridge-east",
          "class": "road_node",
          "x": 2099.75927734375,
          "y": -2260.986328125,
          "point": true,
          "properties": [
            {
              "name": "node_id",
              "type": "string",
              "value": "bridge-east"
            }
          ]
        },
        {
          "id": 90,
          "name": "civil-east",
          "class": "road_node",
          "x": 2178.347,
          "y": -2775.8392,
          "point": true,
          "properties": [
            {
              "name": "node_id",
              "type": "string",
              "value": "civil-east"
            }
          ]
        },
        {
          "id": 91,
          "name": "industrial-east",
          "class": "road_node",
          "x": 2207.902,
          "y": -3231.3049,
          "point": true,
          "properties": [
            {
              "name": "node_id",
              "type": "string",
              "value": "industrial-east"
            }
          ]
        },
        {
          "id": 92,
          "name": "naval-east",
          "class": "road_node",
          "x": 2051.156,
          "y": -3769.4122,
          "point": true,
          "properties": [
            {
              "name": "node_id",
              "type": "string",
              "value": "naval-east"
            }
          ]
        },
        {
          "id": 93,
          "name": "canyon-east",
          "class": "road_node",
          "x": 2195.786,
          "y": -4746.7468,
          "point": true,
          "properties": [
            {
              "name": "node_id",
              "type": "string",
              "value": "canyon-east"
            }
          ]
        },
        {
          "id": 94,
          "name": "dam-east",
          "class": "road_node",
          "x": 2128.617,
          "y": -5143.7805,
          "point": true,
          "properties": [
            {
              "name": "node_id",
              "type": "string",
              "value": "dam-east"
            }
          ]
        },
        {
          "id": 95,
          "name": "reservoir-east",
          "class": "road_node",
          "x": 2128.326,
          "y": -5484.787,
          "point": true,
          "properties": [
            {
              "name": "node_id",
              "type": "string",
              "value": "reservoir-east"
            }
          ]
        },
        {
          "id": 96,
          "name": "fortress-east",
          "class": "road_node",
          "x": 2226.749,
          "y": -5986.2671,
          "point": true,
          "properties": [
            {
              "name": "node_id",
              "type": "string",
              "value": "fortress-east"
            }
          ]
        },
        {
          "id": 97,
          "name": "citadel-east-end",
          "class": "road_node",
          "x": 2222.334,
          "y": -6580.2216,
          "point": true,
          "properties": [
            {
              "name": "node_id",
              "type": "string",
              "value": "citadel-east-end"
            }
          ]
        },
        {
          "id": 98,
          "name": "civil-west-loop-end",
          "class": "road_node",
          "x": 422.0,
          "y": -2875.8392,
          "point": true,
          "properties": [
            {
              "name": "node_id",
              "type": "string",
              "value": "civil-west-loop-end"
            }
          ]
        },
        {
          "id": 99,
          "name": "industrial-west-loop-end",
          "class": "road_node",
          "x": 404.0,
          "y": -3381.3049,
          "point": true,
          "properties": [
            {
              "name": "node_id",
              "type": "string",
              "value": "industrial-west-loop-end"
            }
          ]
        },
        {
          "id": 100,
          "name": "naval-west-loop-end",
          "class": "road_node",
          "x": 566.0,
          "y": -3894.4122,
          "point": true,
          "properties": [
            {
              "name": "node_id",
              "type": "string",
              "value": "naval-west-loop-end"
            }
          ]
        },
        {
          "id": 101,
          "name": "civil-east-loop-end",
          "class": "road_node",
          "x": 2175.103,
          "y": -2875.8392,
          "point": true,
          "properties": [
            {
              "name": "node_id",
              "type": "string",
              "value": "civil-east-loop-end"
            }
          ]
        },
        {
          "id": 102,
          "name": "industrial-east-loop-end",
          "class": "road_node",
          "x": 2201.882,
          "y": -3381.3049,
          "point": true,
          "properties": [
            {
              "name": "node_id",
              "type": "string",
              "value": "industrial-east-loop-end"
            }
          ]
        },
        {
          "id": 103,
          "name": "naval-east-loop-end",
          "class": "road_node",
          "x": 2046.56,
          "y": -3894.4122,
          "point": true,
          "properties": [
            {
              "name": "node_id",
              "type": "string",
              "value": "naval-east-loop-end"
            }
          ]
        }
      ]
    },
    {
      "id": 9,
      "name": "Shorelines",
      "type": "objectgroup",
      "draworder": "topdown",
      "visible": true,
      "opacity": 1,
      "x": 0,
      "y": 0,
      "objects": [
        {
          "id": 114,
          "name": "mainland-west-shore",
          "class": "shoreline",
          "x": 0.0,
          "y": 0.0,
          "polyline": [
            {
              "x": 450.8544921875,
              "y": -1405.126953125
            },
            {
              "x": 458.49609375,
              "y": -1443.3349609375
            },
            {
              "x": 466.1376953125,
              "y": -1481.54296875
            },
            {
              "x": 473.779296875,
              "y": -1519.7509765625
            },
            {
              "x": 481.4208984375,
              "y": -1557.958984375
            },
            {
              "x": 500.52490234375,
              "y": -1605.718994140625
            },
            {
              "x": 519.62890625,
              "y": -1653.47900390625
            },
            {
              "x": 538.73291015625,
              "y": -1701.239013671875
            },
            {
              "x": 557.8369140625,
              "y": -1748.9990234375
            },
            {
              "x": 573.1201171875,
              "y": -1796.759033203125
            },
            {
              "x": 588.4033203125,
              "y": -1844.51904296875
            },
            {
              "x": 603.6865234375,
              "y": -1892.279052734375
            },
            {
              "x": 618.9697265625,
              "y": -1940.0390625
            },
            {
              "x": 634.2529296875,
              "y": -1987.799072265625
            },
            {
              "x": 649.5361328125,
              "y": -2035.55908203125
            },
            {
              "x": 664.8193359375,
              "y": -2083.319091796875
            },
            {
              "x": 680.1025390625,
              "y": -2131.0791015625
            },
            {
              "x": 689.654541015625,
              "y": -2178.839111328125
            },
            {
              "x": 699.20654296875,
              "y": -2226.59912109375
            },
            {
              "x": 708.758544921875,
              "y": -2274.359130859375
            },
            {
              "x": 718.310546875,
              "y": -2322.119140625
            },
            {
              "x": 727.862548828125,
              "y": -2369.879150390625
            },
            {
              "x": 737.41455078125,
              "y": -2417.63916015625
            },
            {
              "x": 746.966552734375,
              "y": -2465.399169921875
            },
            {
              "x": 756.5185546875,
              "y": -2513.1591796875
            },
            {
              "x": 765.1153564453125,
              "y": -2560.919189453125
            },
            {
              "x": 773.712158203125,
              "y": -2608.67919921875
            },
            {
              "x": 782.3089599609375,
              "y": -2656.439208984375
            },
            {
              "x": 790.90576171875,
              "y": -2704.19921875
            },
            {
              "x": 785.174560546875,
              "y": -2751.959228515625
            },
            {
              "x": 779.443359375,
              "y": -2799.71923828125
            },
            {
              "x": 773.712158203125,
              "y": -2847.479248046875
            },
            {
              "x": 767.98095703125,
              "y": -2895.2392578125
            },
            {
              "x": 776.5777587890625,
              "y": -2942.999267578125
            },
            {
              "x": 785.174560546875,
              "y": -2990.75927734375
            },
            {
              "x": 793.7713623046875,
              "y": -3038.519287109375
            },
            {
              "x": 802.3681640625,
              "y": -3086.279296875
            },
            {
              "x": 813.83056640625,
              "y": -3134.039306640625
            },
            {
              "x": 825.29296875,
              "y": -3181.79931640625
            },
            {
              "x": 836.75537109375,
              "y": -3229.559326171875
            },
            {
              "x": 848.2177734375,
              "y": -3277.3193359375
            },
            {
              "x": 857.769775390625,
              "y": -3325.079345703125
            },
            {
              "x": 867.32177734375,
              "y": -3372.83935546875
            },
            {
              "x": 876.873779296875,
              "y": -3420.599365234375
            },
            {
              "x": 886.42578125,
              "y": -3468.359375
            },
            {
              "x": 900.7537841796875,
              "y": -3516.119384765625
            },
            {
              "x": 915.081787109375,
              "y": -3563.87939453125
            },
            {
              "x": 929.4097900390625,
              "y": -3611.639404296875
            },
            {
              "x": 943.73779296875,
              "y": -3659.3994140625
            },
            {
              "x": 951.37939453125,
              "y": -3707.159423828125
            },
            {
              "x": 959.02099609375,
              "y": -3754.91943359375
            },
            {
              "x": 966.66259765625,
              "y": -3802.679443359375
            },
            {
              "x": 974.30419921875,
              "y": -3850.439453125
            },
            {
              "x": 980.9906005859375,
              "y": -3898.199462890625
            },
            {
              "x": 987.677001953125,
              "y": -3945.95947265625
            },
            {
              "x": 994.3634033203125,
              "y": -3993.719482421875
            },
            {
              "x": 1001.0498046875,
              "y": -4041.4794921875
            },
            {
              "x": 1003.9154052734375,
              "y": -4089.239501953125
            },
            {
              "x": 1006.781005859375,
              "y": -4136.99951171875
            },
            {
              "x": 1009.6466064453125,
              "y": -4184.759521484375
            },
            {
              "x": 1012.51220703125,
              "y": -4232.51953125
            },
            {
              "x": 1025.885009765625,
              "y": -4280.279541015625
            },
            {
              "x": 1039.2578125,
              "y": -4328.03955078125
            },
            {
              "x": 1052.630615234375,
              "y": -4375.799560546875
            },
            {
              "x": 1066.00341796875,
              "y": -4423.5595703125
            },
            {
              "x": 1072.6898193359375,
              "y": -4471.319580078125
            },
            {
              "x": 1079.376220703125,
              "y": -4519.07958984375
            },
            {
              "x": 1086.0626220703125,
              "y": -4566.839599609375
            },
            {
              "x": 1092.7490234375,
              "y": -4614.599609375
            },
            {
              "x": 1086.0626220703125,
              "y": -4662.359619140625
            },
            {
              "x": 1079.376220703125,
              "y": -4710.11962890625
            },
            {
              "x": 1072.6898193359375,
              "y": -4757.879638671875
            },
            {
              "x": 1066.00341796875,
              "y": -4805.6396484375
            },
            {
              "x": 1072.6898193359375,
              "y": -4853.399658203125
            },
            {
              "x": 1079.376220703125,
              "y": -4901.15966796875
            },
            {
              "x": 1086.0626220703125,
              "y": -4948.919677734375
            },
            {
              "x": 1092.7490234375,
              "y": -4996.6796875
            },
            {
              "x": 1081.28662109375,
              "y": -5044.439697265625
            },
            {
              "x": 1069.82421875,
              "y": -5092.19970703125
            },
            {
              "x": 1058.36181640625,
              "y": -5139.959716796875
            },
            {
              "x": 1046.8994140625,
              "y": -5187.7197265625
            },
            {
              "x": 1030.6610107421875,
              "y": -5235.479736328125
            },
            {
              "x": 1014.422607421875,
              "y": -5283.23974609375
            },
            {
              "x": 998.1842041015625,
              "y": -5330.999755859375
            },
            {
              "x": 981.94580078125,
              "y": -5378.759765625
            },
            {
              "x": 959.02099609375,
              "y": -5416.9677734375
            },
            {
              "x": 936.09619140625,
              "y": -5455.17578125
            },
            {
              "x": 899.798583984375,
              "y": -5512.48779296875
            },
            {
              "x": 863.5009765625,
              "y": -5569.7998046875
            },
            {
              "x": 834.844970703125,
              "y": -5627.11181640625
            },
            {
              "x": 806.18896484375,
              "y": -5684.423828125
            },
            {
              "x": 789.9505615234375,
              "y": -5722.6318359375
            },
            {
              "x": 773.712158203125,
              "y": -5760.83984375
            },
            {
              "x": 757.4737548828125,
              "y": -5799.0478515625
            },
            {
              "x": 741.2353515625,
              "y": -5837.255859375
            },
            {
              "x": 729.77294921875,
              "y": -5875.4638671875
            },
            {
              "x": 718.310546875,
              "y": -5913.671875
            },
            {
              "x": 706.84814453125,
              "y": -5951.8798828125
            },
            {
              "x": 695.3857421875,
              "y": -5990.087890625
            },
            {
              "x": 699.20654296875,
              "y": -6028.2958984375
            },
            {
              "x": 703.02734375,
              "y": -6066.50390625
            },
            {
              "x": 706.84814453125,
              "y": -6104.7119140625
            },
            {
              "x": 710.6689453125,
              "y": -6142.919921875
            },
            {
              "x": 723.0865478515625,
              "y": -6181.1279296875
            },
            {
              "x": 735.504150390625,
              "y": -6219.3359375
            },
            {
              "x": 747.9217529296875,
              "y": -6257.5439453125
            },
            {
              "x": 760.33935546875,
              "y": -6295.751953125
            },
            {
              "x": 776.5777587890625,
              "y": -6333.9599609375
            },
            {
              "x": 792.816162109375,
              "y": -6372.16796875
            },
            {
              "x": 809.0545654296875,
              "y": -6410.3759765625
            },
            {
              "x": 825.29296875,
              "y": -6448.583984375
            },
            {
              "x": 844.39697265625,
              "y": -6486.7919921875
            },
            {
              "x": 863.5009765625,
              "y": -6525.0
            }
          ],
          "properties": [
            {
              "name": "district_id",
              "type": "string",
              "value": "multi-district"
            },
            {
              "name": "contact_kind",
              "type": "string",
              "value": "rock"
            },
            {
              "name": "water_side",
              "type": "string",
              "value": "right"
            },
            {
              "name": "height",
              "type": "float",
              "value": 50.0
            }
          ]
        },
        {
          "id": 115,
          "name": "mainland-east-shore",
          "class": "shoreline",
          "x": 0.0,
          "y": 0.0,
          "polyline": [
            {
              "x": 2093.798828125,
              "y": -1405.126953125
            },
            {
              "x": 2088.067626953125,
              "y": -1443.3349609375
            },
            {
              "x": 2082.33642578125,
              "y": -1481.54296875
            },
            {
              "x": 2076.605224609375,
              "y": -1519.7509765625
            },
            {
              "x": 2070.8740234375,
              "y": -1557.958984375
            },
            {
              "x": 2058.4564208984375,
              "y": -1605.718994140625
            },
            {
              "x": 2046.038818359375,
              "y": -1653.47900390625
            },
            {
              "x": 2033.6212158203125,
              "y": -1701.239013671875
            },
            {
              "x": 2021.20361328125,
              "y": -1748.9990234375
            },
            {
              "x": 2008.7860107421875,
              "y": -1796.759033203125
            },
            {
              "x": 1996.368408203125,
              "y": -1844.51904296875
            },
            {
              "x": 1983.9508056640625,
              "y": -1892.279052734375
            },
            {
              "x": 1971.533203125,
              "y": -1940.0390625
            },
            {
              "x": 1959.1156005859375,
              "y": -1987.799072265625
            },
            {
              "x": 1946.697998046875,
              "y": -2035.55908203125
            },
            {
              "x": 1934.2803955078125,
              "y": -2083.319091796875
            },
            {
              "x": 1921.86279296875,
              "y": -2131.0791015625
            },
            {
              "x": 1914.22119140625,
              "y": -2178.839111328125
            },
            {
              "x": 1906.57958984375,
              "y": -2226.59912109375
            },
            {
              "x": 1898.93798828125,
              "y": -2274.359130859375
            },
            {
              "x": 1891.29638671875,
              "y": -2322.119140625
            },
            {
              "x": 1882.6995849609375,
              "y": -2369.879150390625
            },
            {
              "x": 1874.102783203125,
              "y": -2417.63916015625
            },
            {
              "x": 1865.5059814453125,
              "y": -2465.399169921875
            },
            {
              "x": 1856.9091796875,
              "y": -2513.1591796875
            },
            {
              "x": 1849.267578125,
              "y": -2560.919189453125
            },
            {
              "x": 1841.6259765625,
              "y": -2608.67919921875
            },
            {
              "x": 1833.984375,
              "y": -2656.439208984375
            },
            {
              "x": 1826.3427734375,
              "y": -2704.19921875
            },
            {
              "x": 1833.984375,
              "y": -2751.959228515625
            },
            {
              "x": 1841.6259765625,
              "y": -2799.71923828125
            },
            {
              "x": 1849.267578125,
              "y": -2847.479248046875
            },
            {
              "x": 1856.9091796875,
              "y": -2895.2392578125
            },
            {
              "x": 1845.44677734375,
              "y": -2942.999267578125
            },
            {
              "x": 1833.984375,
              "y": -2990.75927734375
            },
            {
              "x": 1822.52197265625,
              "y": -3038.519287109375
            },
            {
              "x": 1811.0595703125,
              "y": -3086.279296875
            },
            {
              "x": 1799.59716796875,
              "y": -3134.039306640625
            },
            {
              "x": 1788.134765625,
              "y": -3181.79931640625
            },
            {
              "x": 1776.67236328125,
              "y": -3229.559326171875
            },
            {
              "x": 1765.2099609375,
              "y": -3277.3193359375
            },
            {
              "x": 1755.657958984375,
              "y": -3325.079345703125
            },
            {
              "x": 1746.10595703125,
              "y": -3372.83935546875
            },
            {
              "x": 1736.553955078125,
              "y": -3420.599365234375
            },
            {
              "x": 1727.001953125,
              "y": -3468.359375
            },
            {
              "x": 1716.4947509765625,
              "y": -3516.119384765625
            },
            {
              "x": 1705.987548828125,
              "y": -3563.87939453125
            },
            {
              "x": 1695.4803466796875,
              "y": -3611.639404296875
            },
            {
              "x": 1684.97314453125,
              "y": -3659.3994140625
            },
            {
              "x": 1676.3763427734375,
              "y": -3707.159423828125
            },
            {
              "x": 1667.779541015625,
              "y": -3754.91943359375
            },
            {
              "x": 1659.1827392578125,
              "y": -3802.679443359375
            },
            {
              "x": 1650.5859375,
              "y": -3850.439453125
            },
            {
              "x": 1643.8995361328125,
              "y": -3898.199462890625
            },
            {
              "x": 1637.213134765625,
              "y": -3945.95947265625
            },
            {
              "x": 1630.5267333984375,
              "y": -3993.719482421875
            },
            {
              "x": 1623.84033203125,
              "y": -4041.4794921875
            },
            {
              "x": 1618.109130859375,
              "y": -4089.239501953125
            },
            {
              "x": 1612.3779296875,
              "y": -4136.99951171875
            },
            {
              "x": 1606.646728515625,
              "y": -4184.759521484375
            },
            {
              "x": 1600.91552734375,
              "y": -4232.51953125
            },
            {
              "x": 1587.542724609375,
              "y": -4280.279541015625
            },
            {
              "x": 1574.169921875,
              "y": -4328.03955078125
            },
            {
              "x": 1560.797119140625,
              "y": -4375.799560546875
            },
            {
              "x": 1547.42431640625,
              "y": -4423.5595703125
            },
            {
              "x": 1540.7379150390625,
              "y": -4471.319580078125
            },
            {
              "x": 1534.051513671875,
              "y": -4519.07958984375
            },
            {
              "x": 1527.3651123046875,
              "y": -4566.839599609375
            },
            {
              "x": 1520.6787109375,
              "y": -4614.599609375
            },
            {
              "x": 1526.409912109375,
              "y": -4662.359619140625
            },
            {
              "x": 1532.14111328125,
              "y": -4710.11962890625
            },
            {
              "x": 1537.872314453125,
              "y": -4757.879638671875
            },
            {
              "x": 1543.603515625,
              "y": -4805.6396484375
            },
            {
              "x": 1535.9619140625,
              "y": -4853.399658203125
            },
            {
              "x": 1528.3203125,
              "y": -4901.15966796875
            },
            {
              "x": 1520.6787109375,
              "y": -4948.919677734375
            },
            {
              "x": 1513.037109375,
              "y": -4996.6796875
            },
            {
              "x": 1524.49951171875,
              "y": -5044.439697265625
            },
            {
              "x": 1535.9619140625,
              "y": -5092.19970703125
            },
            {
              "x": 1547.42431640625,
              "y": -5139.959716796875
            },
            {
              "x": 1558.88671875,
              "y": -5187.7197265625
            },
            {
              "x": 1575.1251220703125,
              "y": -5235.479736328125
            },
            {
              "x": 1591.363525390625,
              "y": -5283.23974609375
            },
            {
              "x": 1607.6019287109375,
              "y": -5330.999755859375
            },
            {
              "x": 1623.84033203125,
              "y": -5378.759765625
            },
            {
              "x": 1648.675537109375,
              "y": -5416.9677734375
            },
            {
              "x": 1673.5107421875,
              "y": -5455.17578125
            },
            {
              "x": 1709.808349609375,
              "y": -5512.48779296875
            },
            {
              "x": 1746.10595703125,
              "y": -5569.7998046875
            },
            {
              "x": 1774.761962890625,
              "y": -5627.11181640625
            },
            {
              "x": 1803.41796875,
              "y": -5684.423828125
            },
            {
              "x": 1819.6563720703125,
              "y": -5722.6318359375
            },
            {
              "x": 1835.894775390625,
              "y": -5760.83984375
            },
            {
              "x": 1852.1331787109375,
              "y": -5799.0478515625
            },
            {
              "x": 1868.37158203125,
              "y": -5837.255859375
            },
            {
              "x": 1881.744384765625,
              "y": -5875.4638671875
            },
            {
              "x": 1895.1171875,
              "y": -5913.671875
            },
            {
              "x": 1908.489990234375,
              "y": -5951.8798828125
            },
            {
              "x": 1921.86279296875,
              "y": -5990.087890625
            },
            {
              "x": 1918.0419921875,
              "y": -6028.2958984375
            },
            {
              "x": 1914.22119140625,
              "y": -6066.50390625
            },
            {
              "x": 1910.400390625,
              "y": -6104.7119140625
            },
            {
              "x": 1906.57958984375,
              "y": -6142.919921875
            },
            {
              "x": 1892.2515869140625,
              "y": -6181.1279296875
            },
            {
              "x": 1877.923583984375,
              "y": -6219.3359375
            },
            {
              "x": 1863.5955810546875,
              "y": -6257.5439453125
            },
            {
              "x": 1849.267578125,
              "y": -6295.751953125
            },
            {
              "x": 1833.984375,
              "y": -6333.9599609375
            },
            {
              "x": 1818.701171875,
              "y": -6372.16796875
            },
            {
              "x": 1803.41796875,
              "y": -6410.3759765625
            },
            {
              "x": 1788.134765625,
              "y": -6448.583984375
            },
            {
              "x": 1769.03076171875,
              "y": -6486.7919921875
            },
            {
              "x": 1749.9267578125,
              "y": -6525.0
            }
          ],
          "properties": [
            {
              "name": "district_id",
              "type": "string",
              "value": "multi-district"
            },
            {
              "name": "contact_kind",
              "type": "string",
              "value": "rock"
            },
            {
              "name": "water_side",
              "type": "string",
              "value": "left"
            },
            {
              "name": "height",
              "type": "float",
              "value": 50.0
            }
          ]
        },
        {
          "id": 136,
          "name": "bridge-fort-islet-shore",
          "class": "shoreline",
          "x": 0.0,
          "y": 0.0,
          "polyline": [
            {
              "x": 1445.4931,
              "y": -1848.0
            },
            {
              "x": 1437.3396,
              "y": -1814.4927
            },
            {
              "x": 1384.3347,
              "y": -1787.496
            },
            {
              "x": 1337.9698,
              "y": -1756.5143
            },
            {
              "x": 1274.5449,
              "y": -1772.8652
            },
            {
              "x": 1206.2156,
              "y": -1787.3689
            },
            {
              "x": 1181.0123,
              "y": -1807.2871
            },
            {
              "x": 1159.5115,
              "y": -1848.0
            },
            {
              "x": 1169.0908,
              "y": -1881.7189
            },
            {
              "x": 1221.1327,
              "y": -1921.3561
            },
            {
              "x": 1267.863,
              "y": -1922.8287
            },
            {
              "x": 1331.2118,
              "y": -1923.927
            },
            {
              "x": 1399.8506,
              "y": -1921.3476
            },
            {
              "x": 1424.1616,
              "y": -1881.2349
            },
            {
              "x": 1445.4931,
              "y": -1848.0
            }
          ],
          "properties": [
            {
              "name": "district_id",
              "type": "string",
              "value": "bridge-gateway"
            },
            {
              "name": "contact_kind",
              "type": "string",
              "value": "rock"
            },
            {
              "name": "water_side",
              "type": "string",
              "value": "left"
            },
            {
              "name": "height",
              "type": "float",
              "value": 50.0
            }
          ]
        },
        {
          "id": 137,
          "name": "reservoir-radar-island-shore",
          "class": "shoreline",
          "x": 0.0,
          "y": 0.0,
          "polyline": [
            {
              "x": 806.6202,
              "y": -5495.3249
            },
            {
              "x": 764.4119,
              "y": -5476.6049
            },
            {
              "x": 665.4056,
              "y": -5465.3399
            },
            {
              "x": 551.9905,
              "y": -5463.2299
            },
            {
              "x": 428.1026,
              "y": -5462.5724
            },
            {
              "x": 317.5376,
              "y": -5474.6649
            },
            {
              "x": 323.7128,
              "y": -5495.3249
            },
            {
              "x": 325.5676,
              "y": -5515.2774
            },
            {
              "x": 453.1878,
              "y": -5521.4424
            },
            {
              "x": 551.9905,
              "y": -5531.3624
            },
            {
              "x": 657.2625,
              "y": -5523.1549
            },
            {
              "x": 754.2104,
              "y": -5513.1449
            },
            {
              "x": 806.6202,
              "y": -5495.3249
            }
          ],
          "properties": [
            {
              "name": "district_id",
              "type": "string",
              "value": "alpine-reservoir"
            },
            {
              "name": "contact_kind",
              "type": "string",
              "value": "rock"
            },
            {
              "name": "water_side",
              "type": "string",
              "value": "right"
            },
            {
              "name": "height",
              "type": "float",
              "value": 50.0
            }
          ]
        },
        {
          "id": 138,
          "name": "frozen-gun-island-shore",
          "class": "shoreline",
          "x": 0.0,
          "y": 0.0,
          "polyline": [
            {
              "x": 1552.5079,
              "y": -5741.2356
            },
            {
              "x": 1560.1081,
              "y": -5721.0681
            },
            {
              "x": 1445.9467,
              "y": -5710.9756
            },
            {
              "x": 1328.5506,
              "y": -5714.7781
            },
            {
              "x": 1209.8199,
              "y": -5721.4481
            },
            {
              "x": 1181.0251,
              "y": -5741.2356
            },
            {
              "x": 1207.2639,
              "y": -5761.3156
            },
            {
              "x": 1320.4527,
              "y": -5771.6056
            },
            {
              "x": 1448.4348,
              "y": -5772.7006
            },
            {
              "x": 1556.5568,
              "y": -5760.9956
            },
            {
              "x": 1552.5079,
              "y": -5741.2356
            }
          ],
          "properties": [
            {
              "name": "district_id",
              "type": "string",
              "value": "fortress-approach"
            },
            {
              "name": "contact_kind",
              "type": "string",
              "value": "ice"
            },
            {
              "name": "water_side",
              "type": "string",
              "value": "right"
            },
            {
              "name": "height",
              "type": "float",
              "value": 0.0
            }
          ]
        },
        {
          "id": 139,
          "name": "citadel-island-shore",
          "class": "shoreline",
          "x": 0.0,
          "y": 0.0,
          "polyline": [
            {
              "x": 1803.6861,
              "y": -6431.4237
            },
            {
              "x": 1704.4084,
              "y": -6401.9812
            },
            {
              "x": 1633.8124,
              "y": -6368.0837
            },
            {
              "x": 1400.3548,
              "y": -6364.0537
            },
            {
              "x": 1182.369,
              "y": -6355.0612
            },
            {
              "x": 990.0792,
              "y": -6373.2787
            },
            {
              "x": 795.4143,
              "y": -6394.9837
            },
            {
              "x": 834.5915,
              "y": -6431.4237
            },
            {
              "x": 752.5952,
              "y": -6470.9662
            },
            {
              "x": 1018.4895,
              "y": -6484.2062
            },
            {
              "x": 1198.5421,
              "y": -6497.1262
            },
            {
              "x": 1421.5042,
              "y": -6512.7337
            },
            {
              "x": 1677.5815,
              "y": -6503.0237
            },
            {
              "x": 1827.0749,
              "y": -6469.7562
            },
            {
              "x": 1803.6861,
              "y": -6431.4237
            }
          ],
          "properties": [
            {
              "name": "district_id",
              "type": "string",
              "value": "citadel-basin"
            },
            {
              "name": "contact_kind",
              "type": "string",
              "value": "ice"
            },
            {
              "name": "water_side",
              "type": "string",
              "value": "right"
            },
            {
              "name": "height",
              "type": "float",
              "value": 0.0
            }
          ]
        },
        {
          "id": 116,
          "name": "archipelago-island-01-shore",
          "class": "shoreline",
          "x": 0.0,
          "y": 0.0,
          "polyline": [
            {
              "x": 1933.3252,
              "y": 780.3711
            },
            {
              "x": 1937.146,
              "y": 807.1167
            },
            {
              "x": 1952.4292,
              "y": 814.7583
            },
            {
              "x": 1982.9956,
              "y": 814.7583
            },
            {
              "x": 2009.7412,
              "y": 841.5039
            },
            {
              "x": 2021.2036,
              "y": 898.8159
            },
            {
              "x": 2082.3364,
              "y": 898.8159
            },
            {
              "x": 2086.1572,
              "y": 933.2031
            },
            {
              "x": 2124.3652,
              "y": 937.0239
            },
            {
              "x": 2132.0068,
              "y": 963.7695
            },
            {
              "x": 2151.1108,
              "y": 963.7695
            },
            {
              "x": 2174.0356,
              "y": 952.3071
            },
            {
              "x": 2174.0356,
              "y": 940.8447
            },
            {
              "x": 2139.6484,
              "y": 937.0239
            },
            {
              "x": 2139.6484,
              "y": 860.6079
            },
            {
              "x": 2193.1396,
              "y": 856.7871
            },
            {
              "x": 2193.1396,
              "y": 849.1455
            },
            {
              "x": 2166.394,
              "y": 830.0415
            },
            {
              "x": 2151.1108,
              "y": 826.2207
            },
            {
              "x": 2135.8276,
              "y": 810.9375
            },
            {
              "x": 2132.0068,
              "y": 791.8335
            },
            {
              "x": 2116.7236,
              "y": 772.7295
            },
            {
              "x": 2112.9028,
              "y": 757.4463
            },
            {
              "x": 2086.1572,
              "y": 723.0591
            },
            {
              "x": 2070.874,
              "y": 719.2383
            },
            {
              "x": 2055.5908,
              "y": 730.7007
            },
            {
              "x": 2055.5908,
              "y": 757.4463
            },
            {
              "x": 2047.9492,
              "y": 765.0879
            },
            {
              "x": 2032.666,
              "y": 765.0879
            },
            {
              "x": 2025.0244,
              "y": 791.8335
            },
            {
              "x": 1971.5332,
              "y": 791.8335
            },
            {
              "x": 1933.3252,
              "y": 780.3711
            }
          ],
          "properties": [
            {
              "name": "district_id",
              "type": "string",
              "value": "open-sea"
            },
            {
              "name": "contact_kind",
              "type": "string",
              "value": "beach"
            },
            {
              "name": "water_side",
              "type": "string",
              "value": "right"
            },
            {
              "name": "height",
              "type": "float",
              "value": 0.0
            }
          ]
        },
        {
          "id": 117,
          "name": "archipelago-island-02-shore",
          "class": "shoreline",
          "x": 0.0,
          "y": 0.0,
          "polyline": [
            {
              "x": 450.8545,
              "y": 703.9551
            },
            {
              "x": 435.5713,
              "y": 696.3135
            },
            {
              "x": 416.4673,
              "y": 696.3135
            },
            {
              "x": 405.0049,
              "y": 681.0303
            },
            {
              "x": 393.5425,
              "y": 684.8511
            },
            {
              "x": 347.6929,
              "y": 684.8511
            },
            {
              "x": 332.4097,
              "y": 681.0303
            },
            {
              "x": 328.5889,
              "y": 700.1343
            },
            {
              "x": 309.4849,
              "y": 715.4175
            },
            {
              "x": 309.4849,
              "y": 723.0591
            },
            {
              "x": 301.8433,
              "y": 726.8799
            },
            {
              "x": 294.2017,
              "y": 745.9839
            },
            {
              "x": 248.3521,
              "y": 745.9839
            },
            {
              "x": 240.7104,
              "y": 738.3423
            },
            {
              "x": 233.0688,
              "y": 738.3423
            },
            {
              "x": 221.6064,
              "y": 749.8047
            },
            {
              "x": 221.6064,
              "y": 768.9087
            },
            {
              "x": 213.9648,
              "y": 780.3711
            },
            {
              "x": 213.9648,
              "y": 791.8335
            },
            {
              "x": 282.7393,
              "y": 795.6543
            },
            {
              "x": 290.3809,
              "y": 803.2959
            },
            {
              "x": 290.3809,
              "y": 826.2207
            },
            {
              "x": 305.6641,
              "y": 830.0415
            },
            {
              "x": 305.6641,
              "y": 818.5791
            },
            {
              "x": 317.1265,
              "y": 810.9375
            },
            {
              "x": 336.2305,
              "y": 810.9375
            },
            {
              "x": 351.5137,
              "y": 799.4751
            },
            {
              "x": 378.2593,
              "y": 799.4751
            },
            {
              "x": 378.2593,
              "y": 788.0127
            },
            {
              "x": 393.5425,
              "y": 776.5503
            },
            {
              "x": 393.5425,
              "y": 761.2671
            },
            {
              "x": 405.0049,
              "y": 757.4463
            },
            {
              "x": 408.8257,
              "y": 745.9839
            },
            {
              "x": 420.2881,
              "y": 734.5215
            },
            {
              "x": 439.3921,
              "y": 726.8799
            },
            {
              "x": 450.8545,
              "y": 715.4175
            },
            {
              "x": 450.8545,
              "y": 703.9551
            }
          ],
          "properties": [
            {
              "name": "district_id",
              "type": "string",
              "value": "open-sea"
            },
            {
              "name": "contact_kind",
              "type": "string",
              "value": "beach"
            },
            {
              "name": "water_side",
              "type": "string",
              "value": "right"
            },
            {
              "name": "height",
              "type": "float",
              "value": 0.0
            }
          ]
        },
        {
          "id": 118,
          "name": "archipelago-island-03-shore",
          "class": "shoreline",
          "x": 0.0,
          "y": 0.0,
          "polyline": [
            {
              "x": 2292.4805,
              "y": 340.979
            },
            {
              "x": 2261.9141,
              "y": 340.979
            },
            {
              "x": 2261.9141,
              "y": 352.4414
            },
            {
              "x": 2246.6309,
              "y": 379.187
            },
            {
              "x": 2231.3477,
              "y": 394.4702
            },
            {
              "x": 2216.0645,
              "y": 394.4702
            },
            {
              "x": 2208.4229,
              "y": 421.2158
            },
            {
              "x": 2154.9316,
              "y": 421.2158
            },
            {
              "x": 2154.9316,
              "y": 459.4238
            },
            {
              "x": 2139.6484,
              "y": 463.2446
            },
            {
              "x": 2139.6484,
              "y": 474.707
            },
            {
              "x": 2120.5444,
              "y": 493.811
            },
            {
              "x": 2120.5444,
              "y": 509.0942
            },
            {
              "x": 2143.4692,
              "y": 524.3774
            },
            {
              "x": 2143.4692,
              "y": 604.6143
            },
            {
              "x": 2223.7061,
              "y": 612.2559
            },
            {
              "x": 2235.1685,
              "y": 608.4351
            },
            {
              "x": 2235.1685,
              "y": 562.5854
            },
            {
              "x": 2219.8853,
              "y": 558.7646
            },
            {
              "x": 2216.0645,
              "y": 547.3022
            },
            {
              "x": 2189.3188,
              "y": 524.3774
            },
            {
              "x": 2193.1396,
              "y": 455.603
            },
            {
              "x": 2238.9893,
              "y": 455.603
            },
            {
              "x": 2273.3765,
              "y": 470.8862
            },
            {
              "x": 2323.0469,
              "y": 463.2446
            },
            {
              "x": 2342.1509,
              "y": 447.9614
            },
            {
              "x": 2342.1509,
              "y": 440.3198
            },
            {
              "x": 2330.6885,
              "y": 432.6782
            },
            {
              "x": 2315.4053,
              "y": 405.9326
            },
            {
              "x": 2315.4053,
              "y": 390.6494
            },
            {
              "x": 2292.4805,
              "y": 340.979
            }
          ],
          "properties": [
            {
              "name": "district_id",
              "type": "string",
              "value": "outer-archipelago"
            },
            {
              "name": "contact_kind",
              "type": "string",
              "value": "beach"
            },
            {
              "name": "water_side",
              "type": "string",
              "value": "right"
            },
            {
              "name": "height",
              "type": "float",
              "value": 0.0
            }
          ]
        },
        {
          "id": 119,
          "name": "archipelago-island-04-shore",
          "class": "shoreline",
          "x": 0.0,
          "y": 0.0,
          "polyline": [
            {
              "x": 275.0977,
              "y": 203.4302
            },
            {
              "x": 267.4561,
              "y": 203.4302
            },
            {
              "x": 267.4561,
              "y": 230.1758
            },
            {
              "x": 259.8145,
              "y": 237.8174
            },
            {
              "x": 244.5312,
              "y": 237.8174
            },
            {
              "x": 236.8896,
              "y": 245.459
            },
            {
              "x": 225.4272,
              "y": 245.459
            },
            {
              "x": 221.6064,
              "y": 249.2798
            },
            {
              "x": 221.6064,
              "y": 268.3838
            },
            {
              "x": 225.4272,
              "y": 272.2046
            },
            {
              "x": 225.4272,
              "y": 298.9502
            },
            {
              "x": 252.1729,
              "y": 298.9502
            },
            {
              "x": 259.8145,
              "y": 306.5918
            },
            {
              "x": 259.8145,
              "y": 321.875
            },
            {
              "x": 267.4561,
              "y": 321.875
            },
            {
              "x": 271.2769,
              "y": 318.0542
            },
            {
              "x": 294.2017,
              "y": 318.0542
            },
            {
              "x": 294.2017,
              "y": 306.5918
            },
            {
              "x": 298.0225,
              "y": 302.771
            },
            {
              "x": 317.1265,
              "y": 295.1294
            },
            {
              "x": 317.1265,
              "y": 291.3086
            },
            {
              "x": 320.9473,
              "y": 287.4878
            },
            {
              "x": 324.7681,
              "y": 287.4878
            },
            {
              "x": 324.7681,
              "y": 279.8462
            },
            {
              "x": 328.5889,
              "y": 276.0254
            },
            {
              "x": 336.2305,
              "y": 276.0254
            },
            {
              "x": 336.2305,
              "y": 256.9214
            },
            {
              "x": 332.4097,
              "y": 253.1006
            },
            {
              "x": 328.5889,
              "y": 253.1006
            },
            {
              "x": 313.3057,
              "y": 237.8174
            },
            {
              "x": 298.0225,
              "y": 237.8174
            },
            {
              "x": 294.2017,
              "y": 233.9966
            },
            {
              "x": 290.3809,
              "y": 233.9966
            },
            {
              "x": 282.7393,
              "y": 226.355
            },
            {
              "x": 282.7393,
              "y": 211.0718
            },
            {
              "x": 275.0977,
              "y": 203.4302
            }
          ],
          "properties": [
            {
              "name": "district_id",
              "type": "string",
              "value": "outer-archipelago"
            },
            {
              "name": "contact_kind",
              "type": "string",
              "value": "beach"
            },
            {
              "name": "water_side",
              "type": "string",
              "value": "right"
            },
            {
              "name": "height",
              "type": "float",
              "value": 0.0
            }
          ]
        },
        {
          "id": 120,
          "name": "archipelago-island-05-shore",
          "class": "shoreline",
          "x": 0.0,
          "y": 0.0,
          "polyline": [
            {
              "x": 1902.7588,
              "y": -33.4595
            },
            {
              "x": 1895.1172,
              "y": -14.3555
            },
            {
              "x": 1837.8052,
              "y": -2.8931
            },
            {
              "x": 1799.5972,
              "y": 39.1357
            },
            {
              "x": 1749.9268,
              "y": 39.1357
            },
            {
              "x": 1742.2852,
              "y": 20.0317
            },
            {
              "x": 1684.9731,
              "y": 23.8525
            },
            {
              "x": 1662.0483,
              "y": 54.4189
            },
            {
              "x": 1612.3779,
              "y": 69.7021
            },
            {
              "x": 1589.4531,
              "y": 165.2222
            },
            {
              "x": 1704.0771,
              "y": 176.6846
            },
            {
              "x": 1711.7188,
              "y": 226.355
            },
            {
              "x": 1742.2852,
              "y": 230.1758
            },
            {
              "x": 1742.2852,
              "y": 295.1294
            },
            {
              "x": 1677.3315,
              "y": 314.2334
            },
            {
              "x": 1662.0483,
              "y": 356.2622
            },
            {
              "x": 1639.1235,
              "y": 360.083
            },
            {
              "x": 1673.5107,
              "y": 463.2446
            },
            {
              "x": 1696.4355,
              "y": 463.2446
            },
            {
              "x": 1700.2563,
              "y": 447.9614
            },
            {
              "x": 1784.314,
              "y": 459.4238
            },
            {
              "x": 1791.9556,
              "y": 520.5566
            },
            {
              "x": 1872.1924,
              "y": 554.9438
            },
            {
              "x": 1883.6548,
              "y": 589.3311
            },
            {
              "x": 1929.5044,
              "y": 616.0767
            },
            {
              "x": 1925.6836,
              "y": 509.0942
            },
            {
              "x": 1986.8164,
              "y": 505.2734
            },
            {
              "x": 2028.8452,
              "y": 413.5742
            },
            {
              "x": 2055.5908,
              "y": 405.9326
            },
            {
              "x": 2028.8452,
              "y": 375.3662
            },
            {
              "x": 2028.8452,
              "y": 321.875
            },
            {
              "x": 2158.7524,
              "y": 302.771
            },
            {
              "x": 2158.7524,
              "y": 226.355
            },
            {
              "x": 2200.7812,
              "y": 211.0718
            },
            {
              "x": 2200.7812,
              "y": 195.7886
            },
            {
              "x": 2170.2148,
              "y": 180.5054
            },
            {
              "x": 2158.7524,
              "y": 104.0894
            },
            {
              "x": 2112.9028,
              "y": 54.4189
            },
            {
              "x": 2032.666,
              "y": -2.8931
            },
            {
              "x": 1986.8164,
              "y": -2.8931
            },
            {
              "x": 1982.9956,
              "y": -21.9971
            },
            {
              "x": 1902.7588,
              "y": -33.4595
            }
          ],
          "properties": [
            {
              "name": "district_id",
              "type": "string",
              "value": "outer-archipelago"
            },
            {
              "name": "contact_kind",
              "type": "string",
              "value": "beach"
            },
            {
              "name": "water_side",
              "type": "string",
              "value": "right"
            },
            {
              "name": "height",
              "type": "float",
              "value": 0.0
            }
          ]
        },
        {
          "id": 121,
          "name": "archipelago-island-06-shore",
          "class": "shoreline",
          "x": 0.0,
          "y": 0.0,
          "polyline": [
            {
              "x": 2216.0645,
              "y": 62.0605
            },
            {
              "x": 2216.0645,
              "y": 81.1646
            },
            {
              "x": 2223.7061,
              "y": 88.8062
            },
            {
              "x": 2227.5269,
              "y": 88.8062
            },
            {
              "x": 2231.3477,
              "y": 92.627
            },
            {
              "x": 2235.1685,
              "y": 92.627
            },
            {
              "x": 2238.9893,
              "y": 96.4478
            },
            {
              "x": 2261.9141,
              "y": 96.4478
            },
            {
              "x": 2265.7349,
              "y": 92.627
            },
            {
              "x": 2265.7349,
              "y": 77.3438
            },
            {
              "x": 2261.9141,
              "y": 73.5229
            },
            {
              "x": 2261.9141,
              "y": 58.2397
            },
            {
              "x": 2250.4517,
              "y": 46.7773
            },
            {
              "x": 2235.1685,
              "y": 46.7773
            },
            {
              "x": 2231.3477,
              "y": 50.5981
            },
            {
              "x": 2231.3477,
              "y": 54.4189
            },
            {
              "x": 2227.5269,
              "y": 58.2397
            },
            {
              "x": 2223.7061,
              "y": 58.2397
            },
            {
              "x": 2219.8853,
              "y": 62.0605
            },
            {
              "x": 2216.0645,
              "y": 62.0605
            }
          ],
          "properties": [
            {
              "name": "district_id",
              "type": "string",
              "value": "outer-archipelago"
            },
            {
              "name": "contact_kind",
              "type": "string",
              "value": "beach"
            },
            {
              "name": "water_side",
              "type": "string",
              "value": "right"
            },
            {
              "name": "height",
              "type": "float",
              "value": 0.0
            }
          ]
        },
        {
          "id": 122,
          "name": "archipelago-island-07-shore",
          "class": "shoreline",
          "x": 0.0,
          "y": 0.0,
          "polyline": [
            {
              "x": 794.7266,
              "y": -453.7476
            },
            {
              "x": 741.2354,
              "y": -438.4644
            },
            {
              "x": 714.4897,
              "y": -407.8979
            },
            {
              "x": 683.9233,
              "y": -304.7363
            },
            {
              "x": 630.4321,
              "y": -300.9155
            },
            {
              "x": 538.7329,
              "y": -213.0371
            },
            {
              "x": 492.8833,
              "y": -41.1011
            },
            {
              "x": 447.0337,
              "y": -37.2803
            },
            {
              "x": 401.1841,
              "y": 35.3149
            },
            {
              "x": 355.3345,
              "y": 35.3149
            },
            {
              "x": 336.2305,
              "y": 16.2109
            },
            {
              "x": 282.7393,
              "y": 58.2397
            },
            {
              "x": 294.2017,
              "y": 88.8062
            },
            {
              "x": 351.5137,
              "y": 96.4478
            },
            {
              "x": 397.3633,
              "y": 130.835
            },
            {
              "x": 389.7217,
              "y": 214.8926
            },
            {
              "x": 447.0337,
              "y": 253.1006
            },
            {
              "x": 450.8545,
              "y": 295.1294
            },
            {
              "x": 508.1665,
              "y": 333.3374
            },
            {
              "x": 565.4785,
              "y": 337.1582
            },
            {
              "x": 565.4785,
              "y": 405.9326
            },
            {
              "x": 542.5537,
              "y": 436.499
            },
            {
              "x": 561.6577,
              "y": 467.0654
            },
            {
              "x": 599.8657,
              "y": 459.4238
            },
            {
              "x": 603.6865,
              "y": 367.7246
            },
            {
              "x": 695.3857,
              "y": 360.083
            },
            {
              "x": 699.2065,
              "y": 318.0542
            },
            {
              "x": 794.7266,
              "y": 302.771
            },
            {
              "x": 813.8306,
              "y": 211.0718
            },
            {
              "x": 981.9458,
              "y": 161.4014
            },
            {
              "x": 970.4834,
              "y": 54.4189
            },
            {
              "x": 1027.7954,
              "y": 50.5981
            },
            {
              "x": 1043.0786,
              "y": 31.4941
            },
            {
              "x": 1031.6162,
              "y": -33.4595
            },
            {
              "x": 997.229,
              "y": -83.1299
            },
            {
              "x": 951.3794,
              "y": -98.4131
            },
            {
              "x": 943.7378,
              "y": -144.2627
            },
            {
              "x": 905.5298,
              "y": -151.9043
            },
            {
              "x": 886.4258,
              "y": -266.5283
            },
            {
              "x": 928.4546,
              "y": -285.6323
            },
            {
              "x": 928.4546,
              "y": -342.9443
            },
            {
              "x": 863.501,
              "y": -415.5396
            },
            {
              "x": 832.9346,
              "y": -415.5396
            },
            {
              "x": 794.7266,
              "y": -453.7476
            }
          ],
          "properties": [
            {
              "name": "district_id",
              "type": "string",
              "value": "outer-archipelago"
            },
            {
              "name": "contact_kind",
              "type": "string",
              "value": "beach"
            },
            {
              "name": "water_side",
              "type": "string",
              "value": "right"
            },
            {
              "name": "height",
              "type": "float",
              "value": 0.0
            }
          ]
        },
        {
          "id": 123,
          "name": "archipelago-island-08-shore",
          "class": "shoreline",
          "x": 0.0,
          "y": 0.0,
          "polyline": [
            {
              "x": 1853.0884,
              "y": -270.3491
            },
            {
              "x": 1856.9092,
              "y": -255.0659
            },
            {
              "x": 1872.1924,
              "y": -239.7827
            },
            {
              "x": 1883.6548,
              "y": -235.9619
            },
            {
              "x": 1891.2964,
              "y": -224.4995
            },
            {
              "x": 1891.2964,
              "y": -190.1123
            },
            {
              "x": 1940.9668,
              "y": -190.1123
            },
            {
              "x": 1960.0708,
              "y": -174.8291
            },
            {
              "x": 1967.7124,
              "y": -174.8291
            },
            {
              "x": 1986.8164,
              "y": -155.7251
            },
            {
              "x": 1998.2788,
              "y": -155.7251
            },
            {
              "x": 2005.9204,
              "y": -148.0835
            },
            {
              "x": 2025.0244,
              "y": -148.0835
            },
            {
              "x": 2028.8452,
              "y": -140.4419
            },
            {
              "x": 2036.4868,
              "y": -140.4419
            },
            {
              "x": 2036.4868,
              "y": -148.0835
            },
            {
              "x": 2017.3828,
              "y": -148.0835
            },
            {
              "x": 2002.0996,
              "y": -167.1875
            },
            {
              "x": 2002.0996,
              "y": -174.8291
            },
            {
              "x": 1979.1748,
              "y": -174.8291
            },
            {
              "x": 1963.8916,
              "y": -190.1123
            },
            {
              "x": 1963.8916,
              "y": -235.9619
            },
            {
              "x": 1986.8164,
              "y": -258.8867
            },
            {
              "x": 2005.9204,
              "y": -258.8867
            },
            {
              "x": 2005.9204,
              "y": -274.1699
            },
            {
              "x": 1990.6372,
              "y": -274.1699
            },
            {
              "x": 1979.1748,
              "y": -258.8867
            },
            {
              "x": 1967.7124,
              "y": -255.0659
            },
            {
              "x": 1963.8916,
              "y": -247.4243
            },
            {
              "x": 1948.6084,
              "y": -239.7827
            },
            {
              "x": 1898.938,
              "y": -239.7827
            },
            {
              "x": 1891.2964,
              "y": -247.4243
            },
            {
              "x": 1879.834,
              "y": -247.4243
            },
            {
              "x": 1860.73,
              "y": -270.3491
            },
            {
              "x": 1853.0884,
              "y": -270.3491
            }
          ],
          "properties": [
            {
              "name": "district_id",
              "type": "string",
              "value": "outer-archipelago"
            },
            {
              "name": "contact_kind",
              "type": "string",
              "value": "beach"
            },
            {
              "name": "water_side",
              "type": "string",
              "value": "right"
            },
            {
              "name": "height",
              "type": "float",
              "value": 0.0
            }
          ]
        },
        {
          "id": 124,
          "name": "archipelago-island-09-shore",
          "class": "shoreline",
          "x": 0.0,
          "y": 0.0,
          "polyline": [
            {
              "x": 1547.4243,
              "y": -251.2451
            },
            {
              "x": 1547.4243,
              "y": -247.4243
            },
            {
              "x": 1543.6035,
              "y": -243.6035
            },
            {
              "x": 1543.6035,
              "y": -216.8579
            },
            {
              "x": 1547.4243,
              "y": -213.0371
            },
            {
              "x": 1547.4243,
              "y": -209.2163
            },
            {
              "x": 1551.2451,
              "y": -205.3955
            },
            {
              "x": 1623.8403,
              "y": -205.3955
            },
            {
              "x": 1623.8403,
              "y": -216.8579
            },
            {
              "x": 1620.0195,
              "y": -220.6787
            },
            {
              "x": 1620.0195,
              "y": -239.7827
            },
            {
              "x": 1608.5571,
              "y": -251.2451
            },
            {
              "x": 1608.5571,
              "y": -255.0659
            },
            {
              "x": 1604.7363,
              "y": -255.0659
            },
            {
              "x": 1600.9155,
              "y": -258.8867
            },
            {
              "x": 1597.0947,
              "y": -258.8867
            },
            {
              "x": 1593.2739,
              "y": -262.7075
            },
            {
              "x": 1570.3491,
              "y": -262.7075
            },
            {
              "x": 1566.5283,
              "y": -258.8867
            },
            {
              "x": 1562.7075,
              "y": -258.8867
            },
            {
              "x": 1558.8867,
              "y": -255.0659
            },
            {
              "x": 1555.0659,
              "y": -255.0659
            },
            {
              "x": 1551.2451,
              "y": -251.2451
            },
            {
              "x": 1547.4243,
              "y": -251.2451
            }
          ],
          "properties": [
            {
              "name": "district_id",
              "type": "string",
              "value": "outer-archipelago"
            },
            {
              "name": "contact_kind",
              "type": "string",
              "value": "beach"
            },
            {
              "name": "water_side",
              "type": "string",
              "value": "right"
            },
            {
              "name": "height",
              "type": "float",
              "value": 0.0
            }
          ]
        },
        {
          "id": 125,
          "name": "archipelago-island-10-shore",
          "class": "shoreline",
          "x": 0.0,
          "y": 0.0,
          "polyline": [
            {
              "x": 133.728,
              "y": -331.4819
            },
            {
              "x": 133.728,
              "y": -281.8115
            },
            {
              "x": 126.0864,
              "y": -255.0659
            },
            {
              "x": 137.5488,
              "y": -243.6035
            },
            {
              "x": 175.7568,
              "y": -239.7827
            },
            {
              "x": 187.2192,
              "y": -209.2163
            },
            {
              "x": 210.144,
              "y": -209.2163
            },
            {
              "x": 217.7856,
              "y": -171.0083
            },
            {
              "x": 240.7104,
              "y": -174.8291
            },
            {
              "x": 255.9937,
              "y": -186.2915
            },
            {
              "x": 301.8433,
              "y": -186.2915
            },
            {
              "x": 305.6641,
              "y": -178.6499
            },
            {
              "x": 320.9473,
              "y": -178.6499
            },
            {
              "x": 328.5889,
              "y": -186.2915
            },
            {
              "x": 328.5889,
              "y": -235.9619
            },
            {
              "x": 336.2305,
              "y": -239.7827
            },
            {
              "x": 336.2305,
              "y": -285.6323
            },
            {
              "x": 359.1553,
              "y": -308.5571
            },
            {
              "x": 359.1553,
              "y": -323.8403
            },
            {
              "x": 309.4849,
              "y": -316.1987
            },
            {
              "x": 301.8433,
              "y": -289.4531
            },
            {
              "x": 194.8608,
              "y": -285.6323
            },
            {
              "x": 179.5776,
              "y": -312.3779
            },
            {
              "x": 160.4736,
              "y": -312.3779
            },
            {
              "x": 156.6528,
              "y": -327.6611
            },
            {
              "x": 149.0112,
              "y": -335.3027
            },
            {
              "x": 133.728,
              "y": -331.4819
            }
          ],
          "properties": [
            {
              "name": "district_id",
              "type": "string",
              "value": "dense-archipelago"
            },
            {
              "name": "contact_kind",
              "type": "string",
              "value": "beach"
            },
            {
              "name": "water_side",
              "type": "string",
              "value": "right"
            },
            {
              "name": "height",
              "type": "float",
              "value": 0.0
            }
          ]
        },
        {
          "id": 126,
          "name": "archipelago-island-11-shore",
          "class": "shoreline",
          "x": 0.0,
          "y": 0.0,
          "polyline": [
            {
              "x": 252.1729,
              "y": -713.562
            },
            {
              "x": 225.4272,
              "y": -644.7876
            },
            {
              "x": 282.7393,
              "y": -614.2212
            },
            {
              "x": 282.7393,
              "y": -568.3716
            },
            {
              "x": 252.1729,
              "y": -553.0884
            },
            {
              "x": 252.1729,
              "y": -533.9844
            },
            {
              "x": 271.2769,
              "y": -530.1636
            },
            {
              "x": 294.2017,
              "y": -503.418
            },
            {
              "x": 320.9473,
              "y": -495.7764
            },
            {
              "x": 359.1553,
              "y": -499.5972
            },
            {
              "x": 362.9761,
              "y": -514.8804
            },
            {
              "x": 385.9009,
              "y": -533.9844
            },
            {
              "x": 466.1377,
              "y": -526.3428
            },
            {
              "x": 481.4209,
              "y": -518.7012
            },
            {
              "x": 481.4209,
              "y": -476.6724
            },
            {
              "x": 489.0625,
              "y": -469.0308
            },
            {
              "x": 519.6289,
              "y": -461.3892
            },
            {
              "x": 550.1953,
              "y": -438.4644
            },
            {
              "x": 592.2241,
              "y": -438.4644
            },
            {
              "x": 592.2241,
              "y": -465.21
            },
            {
              "x": 622.7905,
              "y": -484.314
            },
            {
              "x": 630.4321,
              "y": -537.8052
            },
            {
              "x": 607.5073,
              "y": -541.626
            },
            {
              "x": 565.4785,
              "y": -583.6548
            },
            {
              "x": 565.4785,
              "y": -629.5044
            },
            {
              "x": 576.9409,
              "y": -637.146
            },
            {
              "x": 584.5825,
              "y": -667.7124
            },
            {
              "x": 557.8369,
              "y": -717.3828
            },
            {
              "x": 527.2705,
              "y": -725.0244
            },
            {
              "x": 496.7041,
              "y": -782.3364
            },
            {
              "x": 462.3169,
              "y": -797.6196
            },
            {
              "x": 405.0049,
              "y": -805.2612
            },
            {
              "x": 397.3633,
              "y": -786.1572
            },
            {
              "x": 378.2593,
              "y": -786.1572
            },
            {
              "x": 359.1553,
              "y": -767.0532
            },
            {
              "x": 336.2305,
              "y": -767.0532
            },
            {
              "x": 332.4097,
              "y": -747.9492
            },
            {
              "x": 298.0225,
              "y": -747.9492
            },
            {
              "x": 294.2017,
              "y": -728.8452
            },
            {
              "x": 252.1729,
              "y": -713.562
            }
          ],
          "properties": [
            {
              "name": "district_id",
              "type": "string",
              "value": "dense-archipelago"
            },
            {
              "name": "contact_kind",
              "type": "string",
              "value": "beach"
            },
            {
              "name": "water_side",
              "type": "string",
              "value": "right"
            },
            {
              "name": "height",
              "type": "float",
              "value": 0.0
            }
          ]
        },
        {
          "id": 127,
          "name": "archipelago-island-12-shore",
          "class": "shoreline",
          "x": 0.0,
          "y": 0.0,
          "polyline": [
            {
              "x": 874.9634,
              "y": -637.146
            },
            {
              "x": 874.9634,
              "y": -625.6836
            },
            {
              "x": 871.1426,
              "y": -621.8628
            },
            {
              "x": 871.1426,
              "y": -606.5796
            },
            {
              "x": 882.605,
              "y": -595.1172
            },
            {
              "x": 897.8882,
              "y": -595.1172
            },
            {
              "x": 901.709,
              "y": -591.2964
            },
            {
              "x": 901.709,
              "y": -576.0132
            },
            {
              "x": 909.3506,
              "y": -576.0132
            },
            {
              "x": 909.3506,
              "y": -587.4756
            },
            {
              "x": 913.1714,
              "y": -591.2964
            },
            {
              "x": 974.3042,
              "y": -591.2964
            },
            {
              "x": 974.3042,
              "y": -595.1172
            },
            {
              "x": 978.125,
              "y": -598.938
            },
            {
              "x": 981.9458,
              "y": -598.938
            },
            {
              "x": 981.9458,
              "y": -606.5796
            },
            {
              "x": 978.125,
              "y": -610.4004
            },
            {
              "x": 978.125,
              "y": -648.6084
            },
            {
              "x": 974.3042,
              "y": -652.4292
            },
            {
              "x": 951.3794,
              "y": -652.4292
            },
            {
              "x": 932.2754,
              "y": -671.5332
            },
            {
              "x": 928.4546,
              "y": -682.9956
            },
            {
              "x": 916.9922,
              "y": -682.9956
            },
            {
              "x": 905.5298,
              "y": -667.7124
            },
            {
              "x": 905.5298,
              "y": -656.25
            },
            {
              "x": 894.0674,
              "y": -648.6084
            },
            {
              "x": 886.4258,
              "y": -648.6084
            },
            {
              "x": 874.9634,
              "y": -637.146
            }
          ],
          "properties": [
            {
              "name": "district_id",
              "type": "string",
              "value": "dense-archipelago"
            },
            {
              "name": "contact_kind",
              "type": "string",
              "value": "beach"
            },
            {
              "name": "water_side",
              "type": "string",
              "value": "right"
            },
            {
              "name": "height",
              "type": "float",
              "value": 0.0
            }
          ]
        },
        {
          "id": 128,
          "name": "archipelago-island-13-shore",
          "class": "shoreline",
          "x": 0.0,
          "y": 0.0,
          "polyline": [
            {
              "x": 1604.7363,
              "y": -1099.4629
            },
            {
              "x": 1566.5283,
              "y": -1023.0469
            },
            {
              "x": 1524.4995,
              "y": -1000.1221
            },
            {
              "x": 1528.3203,
              "y": -916.0645
            },
            {
              "x": 1478.6499,
              "y": -866.394
            },
            {
              "x": 1566.5283,
              "y": -854.9316
            },
            {
              "x": 1581.8115,
              "y": -637.146
            },
            {
              "x": 1635.3027,
              "y": -629.5044
            },
            {
              "x": 1635.3027,
              "y": -572.1924
            },
            {
              "x": 1684.9731,
              "y": -564.5508
            },
            {
              "x": 1704.0771,
              "y": -499.5972
            },
            {
              "x": 1791.9556,
              "y": -469.0308
            },
            {
              "x": 1811.0596,
              "y": -362.0483
            },
            {
              "x": 1879.834,
              "y": -331.4819
            },
            {
              "x": 2017.3828,
              "y": -339.1235
            },
            {
              "x": 2032.666,
              "y": -281.8115
            },
            {
              "x": 2135.8276,
              "y": -274.1699
            },
            {
              "x": 2162.5732,
              "y": -220.6787
            },
            {
              "x": 2349.7925,
              "y": -197.7539
            },
            {
              "x": 2342.1509,
              "y": -270.3491
            },
            {
              "x": 2433.8501,
              "y": -281.8115
            },
            {
              "x": 2399.4629,
              "y": -396.4355
            },
            {
              "x": 2372.7173,
              "y": -407.8979
            },
            {
              "x": 2372.7173,
              "y": -453.7476
            },
            {
              "x": 2281.0181,
              "y": -587.4756
            },
            {
              "x": 2139.6484,
              "y": -667.7124
            },
            {
              "x": 2154.9316,
              "y": -751.77
            },
            {
              "x": 2200.7812,
              "y": -763.2324
            },
            {
              "x": 2174.0356,
              "y": -767.0532
            },
            {
              "x": 2174.0356,
              "y": -797.6196
            },
            {
              "x": 2120.5444,
              "y": -801.4404
            },
            {
              "x": 2120.5444,
              "y": -851.1108
            },
            {
              "x": 2170.2148,
              "y": -854.9316
            },
            {
              "x": 2177.8564,
              "y": -919.8853
            },
            {
              "x": 2273.3765,
              "y": -935.1685
            },
            {
              "x": 2219.8853,
              "y": -1042.1509
            },
            {
              "x": 2185.498,
              "y": -1057.4341
            },
            {
              "x": 2170.2148,
              "y": -996.3013
            },
            {
              "x": 2097.6196,
              "y": -1000.1221
            },
            {
              "x": 2047.9492,
              "y": -946.6309
            },
            {
              "x": 1994.458,
              "y": -946.6309
            },
            {
              "x": 1960.0708,
              "y": -1045.9717
            },
            {
              "x": 1948.6084,
              "y": -1015.4053
            },
            {
              "x": 1860.73,
              "y": -1015.4053
            },
            {
              "x": 1788.1348,
              "y": -1126.2085
            },
            {
              "x": 1684.9731,
              "y": -1137.6709
            },
            {
              "x": 1673.5107,
              "y": -1110.9253
            },
            {
              "x": 1604.7363,
              "y": -1099.4629
            }
          ],
          "properties": [
            {
              "name": "district_id",
              "type": "string",
              "value": "dense-archipelago"
            },
            {
              "name": "contact_kind",
              "type": "string",
              "value": "beach"
            },
            {
              "name": "water_side",
              "type": "string",
              "value": "right"
            },
            {
              "name": "height",
              "type": "float",
              "value": 0.0
            }
          ]
        },
        {
          "id": 129,
          "name": "archipelago-island-14-shore",
          "class": "shoreline",
          "x": 0.0,
          "y": 0.0,
          "polyline": [
            {
              "x": 680.1025,
              "y": -751.77
            },
            {
              "x": 664.8193,
              "y": -751.77
            },
            {
              "x": 653.3569,
              "y": -740.3076
            },
            {
              "x": 653.3569,
              "y": -736.4868
            },
            {
              "x": 649.5361,
              "y": -732.666
            },
            {
              "x": 641.8945,
              "y": -732.666
            },
            {
              "x": 641.8945,
              "y": -702.0996
            },
            {
              "x": 649.5361,
              "y": -702.0996
            },
            {
              "x": 653.3569,
              "y": -698.2788
            },
            {
              "x": 657.1777,
              "y": -698.2788
            },
            {
              "x": 660.9985,
              "y": -694.458
            },
            {
              "x": 660.9985,
              "y": -686.8164
            },
            {
              "x": 672.4609,
              "y": -686.8164
            },
            {
              "x": 683.9233,
              "y": -698.2788
            },
            {
              "x": 687.7441,
              "y": -698.2788
            },
            {
              "x": 687.7441,
              "y": -702.0996
            },
            {
              "x": 691.5649,
              "y": -705.9204
            },
            {
              "x": 710.6689,
              "y": -705.9204
            },
            {
              "x": 710.6689,
              "y": -713.562
            },
            {
              "x": 703.0273,
              "y": -721.2036
            },
            {
              "x": 703.0273,
              "y": -725.0244
            },
            {
              "x": 695.3857,
              "y": -732.666
            },
            {
              "x": 695.3857,
              "y": -740.3076
            },
            {
              "x": 687.7441,
              "y": -747.9492
            },
            {
              "x": 683.9233,
              "y": -747.9492
            },
            {
              "x": 680.1025,
              "y": -751.77
            }
          ],
          "properties": [
            {
              "name": "district_id",
              "type": "string",
              "value": "dense-archipelago"
            },
            {
              "name": "contact_kind",
              "type": "string",
              "value": "beach"
            },
            {
              "name": "water_side",
              "type": "string",
              "value": "right"
            },
            {
              "name": "height",
              "type": "float",
              "value": 0.0
            }
          ]
        },
        {
          "id": 130,
          "name": "archipelago-island-15-shore",
          "class": "shoreline",
          "x": 0.0,
          "y": 0.0,
          "polyline": [
            {
              "x": 2388.0005,
              "y": -938.9893
            },
            {
              "x": 2380.3589,
              "y": -927.5269
            },
            {
              "x": 2380.3589,
              "y": -896.9604
            },
            {
              "x": 2376.5381,
              "y": -893.1396
            },
            {
              "x": 2376.5381,
              "y": -877.8564
            },
            {
              "x": 2368.8965,
              "y": -874.0356
            },
            {
              "x": 2368.8965,
              "y": -866.394
            },
            {
              "x": 2365.0757,
              "y": -862.5732
            },
            {
              "x": 2345.9717,
              "y": -858.7524
            },
            {
              "x": 2338.3301,
              "y": -839.6484
            },
            {
              "x": 2334.5093,
              "y": -835.8276
            },
            {
              "x": 2326.8677,
              "y": -835.8276
            },
            {
              "x": 2326.8677,
              "y": -816.7236
            },
            {
              "x": 2323.0469,
              "y": -809.082
            },
            {
              "x": 2315.4053,
              "y": -805.2612
            },
            {
              "x": 2319.2261,
              "y": -778.5156
            },
            {
              "x": 2326.8677,
              "y": -778.5156
            },
            {
              "x": 2330.6885,
              "y": -770.874
            },
            {
              "x": 2349.7925,
              "y": -770.874
            },
            {
              "x": 2361.2549,
              "y": -759.4116
            },
            {
              "x": 2372.7173,
              "y": -759.4116
            },
            {
              "x": 2384.1797,
              "y": -751.77
            },
            {
              "x": 2456.7749,
              "y": -751.77
            },
            {
              "x": 2456.7749,
              "y": -763.2324
            },
            {
              "x": 2452.9541,
              "y": -767.0532
            },
            {
              "x": 2449.1333,
              "y": -786.1572
            },
            {
              "x": 2433.8501,
              "y": -797.6196
            },
            {
              "x": 2433.8501,
              "y": -824.3652
            },
            {
              "x": 2430.0293,
              "y": -824.3652
            },
            {
              "x": 2403.2837,
              "y": -854.9316
            },
            {
              "x": 2399.4629,
              "y": -931.3477
            },
            {
              "x": 2395.6421,
              "y": -938.9893
            },
            {
              "x": 2388.0005,
              "y": -938.9893
            }
          ],
          "properties": [
            {
              "name": "district_id",
              "type": "string",
              "value": "dense-archipelago"
            },
            {
              "name": "contact_kind",
              "type": "string",
              "value": "beach"
            },
            {
              "name": "water_side",
              "type": "string",
              "value": "right"
            },
            {
              "name": "height",
              "type": "float",
              "value": 0.0
            }
          ]
        },
        {
          "id": 131,
          "name": "archipelago-island-16-shore",
          "class": "shoreline",
          "x": 0.0,
          "y": 0.0,
          "polyline": [
            {
              "x": 2017.3828,
              "y": -1298.1445
            },
            {
              "x": 2017.3828,
              "y": -1290.5029
            },
            {
              "x": 2009.7412,
              "y": -1282.8613
            },
            {
              "x": 1998.2788,
              "y": -1282.8613
            },
            {
              "x": 1998.2788,
              "y": -1263.7573
            },
            {
              "x": 1994.458,
              "y": -1259.9365
            },
            {
              "x": 1986.8164,
              "y": -1259.9365
            },
            {
              "x": 1982.9956,
              "y": -1256.1157
            },
            {
              "x": 1982.9956,
              "y": -1248.4741
            },
            {
              "x": 1986.8164,
              "y": -1244.6533
            },
            {
              "x": 1986.8164,
              "y": -1240.8325
            },
            {
              "x": 1990.6372,
              "y": -1237.0117
            },
            {
              "x": 1990.6372,
              "y": -1233.1909
            },
            {
              "x": 1994.458,
              "y": -1233.1909
            },
            {
              "x": 1998.2788,
              "y": -1229.3701
            },
            {
              "x": 2002.0996,
              "y": -1229.3701
            },
            {
              "x": 2005.9204,
              "y": -1225.5493
            },
            {
              "x": 2009.7412,
              "y": -1225.5493
            },
            {
              "x": 2021.2036,
              "y": -1217.9077
            },
            {
              "x": 2032.666,
              "y": -1217.9077
            },
            {
              "x": 2036.4868,
              "y": -1221.7285
            },
            {
              "x": 2040.3076,
              "y": -1221.7285
            },
            {
              "x": 2044.1284,
              "y": -1225.5493
            },
            {
              "x": 2051.77,
              "y": -1225.5493
            },
            {
              "x": 2063.2324,
              "y": -1233.1909
            },
            {
              "x": 2063.2324,
              "y": -1259.9365
            },
            {
              "x": 2059.4116,
              "y": -1263.7573
            },
            {
              "x": 2055.5908,
              "y": -1263.7573
            },
            {
              "x": 2047.9492,
              "y": -1271.3989
            },
            {
              "x": 2047.9492,
              "y": -1279.0405
            },
            {
              "x": 2028.8452,
              "y": -1298.1445
            },
            {
              "x": 2017.3828,
              "y": -1298.1445
            }
          ],
          "properties": [
            {
              "name": "district_id",
              "type": "string",
              "value": "coastal-narrows"
            },
            {
              "name": "contact_kind",
              "type": "string",
              "value": "beach"
            },
            {
              "name": "water_side",
              "type": "string",
              "value": "right"
            },
            {
              "name": "height",
              "type": "float",
              "value": 0.0
            }
          ]
        },
        {
          "id": 132,
          "name": "archipelago-island-17-shore",
          "class": "shoreline",
          "x": 0.0,
          "y": 0.0,
          "polyline": [
            {
              "x": 1066.0034,
              "y": -1279.0405
            },
            {
              "x": 1066.0034,
              "y": -1271.3989
            },
            {
              "x": 1069.8242,
              "y": -1271.3989
            },
            {
              "x": 1073.645,
              "y": -1267.5781
            },
            {
              "x": 1073.645,
              "y": -1259.9365
            },
            {
              "x": 1096.5698,
              "y": -1259.9365
            },
            {
              "x": 1119.4946,
              "y": -1244.6533
            },
            {
              "x": 1134.7778,
              "y": -1244.6533
            },
            {
              "x": 1138.5986,
              "y": -1240.8325
            },
            {
              "x": 1142.4194,
              "y": -1240.8325
            },
            {
              "x": 1153.8818,
              "y": -1233.1909
            },
            {
              "x": 1165.3442,
              "y": -1233.1909
            },
            {
              "x": 1165.3442,
              "y": -1282.8613
            },
            {
              "x": 1169.165,
              "y": -1286.6821
            },
            {
              "x": 1169.165,
              "y": -1305.7861
            },
            {
              "x": 1123.3154,
              "y": -1305.7861
            },
            {
              "x": 1119.4946,
              "y": -1301.9653
            },
            {
              "x": 1092.749,
              "y": -1301.9653
            },
            {
              "x": 1092.749,
              "y": -1290.5029
            },
            {
              "x": 1088.9282,
              "y": -1286.6821
            },
            {
              "x": 1081.2866,
              "y": -1286.6821
            },
            {
              "x": 1077.4658,
              "y": -1282.8613
            },
            {
              "x": 1069.8242,
              "y": -1282.8613
            },
            {
              "x": 1066.0034,
              "y": -1279.0405
            }
          ],
          "properties": [
            {
              "name": "district_id",
              "type": "string",
              "value": "coastal-narrows"
            },
            {
              "name": "contact_kind",
              "type": "string",
              "value": "beach"
            },
            {
              "name": "water_side",
              "type": "string",
              "value": "right"
            },
            {
              "name": "height",
              "type": "float",
              "value": 0.0
            }
          ]
        }
      ]
    },
    {
      "id": 10,
      "name": "Bridges",
      "type": "objectgroup",
      "draworder": "topdown",
      "visible": true,
      "opacity": 1,
      "x": 0,
      "y": 0,
      "objects": [
        {
          "id": 112,
          "name": "narrows-bridge",
          "class": "bridge",
          "x": 507.40234375000006,
          "y": -2260.986328125,
          "width": 1592.3569335937498,
          "height": 32.476806640625,
          "properties": [
            {
              "name": "elevation",
              "type": "int",
              "value": 92
            },
            {
              "name": "connects",
              "type": "string",
              "value": "coastal-spine,east-port-road"
            },
            {
              "name": "a_x",
              "type": "float",
              "value": 507.40234375000006
            },
            {
              "name": "a_y",
              "type": "float",
              "value": -2260.986328125
            },
            {
              "name": "b_x",
              "type": "float",
              "value": 2099.75927734375
            },
            {
              "name": "b_y",
              "type": "float",
              "value": -2260.986328125
            },
            {
              "name": "from_node",
              "type": "string",
              "value": "bridge-west"
            },
            {
              "name": "to_node",
              "type": "string",
              "value": "bridge-east"
            }
          ]
        },
        {
          "id": 113,
          "name": "canyon-bridge",
          "class": "bridge",
          "x": 530.546,
          "y": -4152.9995,
          "width": 1543.991,
          "height": 32.0,
          "properties": [
            {
              "name": "elevation",
              "type": "int",
              "value": 92
            },
            {
              "name": "connects",
              "type": "string",
              "value": "coastal-spine,east-port-road"
            },
            {
              "name": "a_x",
              "type": "float",
              "value": 552.546
            },
            {
              "name": "a_y",
              "type": "float",
              "value": -4136.999
            },
            {
              "name": "b_x",
              "type": "float",
              "value": 2052.537
            },
            {
              "name": "b_y",
              "type": "float",
              "value": -4136.999
            },
            {
              "name": "from_node",
              "type": "string",
              "value": "canyon-west"
            },
            {
              "name": "to_node",
              "type": "string",
              "value": "canyon-east"
            }
          ]
        }
      ]
    },
    {
      "id": 11,
      "name": "Landmarks",
      "type": "objectgroup",
      "draworder": "topdown",
      "visible": true,
      "opacity": 1,
      "x": 0,
      "y": 0,
      "objects": [
        {
          "id": 143,
          "name": "open-sea-lighthouse",
          "class": "landmark",
          "x": 1786.9540320502388,
          "y": 1006.0107,
          "width": 158.3376990424262,
          "height": 22.5,
          "properties": [
            {
              "name": "kind",
              "type": "string",
              "value": "semantic"
            },
            {
              "name": "landmark_type",
              "type": "string",
              "value": "navigation"
            },
            {
              "name": "elevation",
              "type": "int",
              "value": 65
            }
          ]
        },
        {
          "id": 144,
          "name": "archipelago-gateway",
          "class": "landmark",
          "x": 1130.9835645887588,
          "y": 299.2334,
          "width": 271.43605550130206,
          "height": 30.0,
          "properties": [
            {
              "name": "kind",
              "type": "string",
              "value": "semantic"
            },
            {
              "name": "landmark_type",
              "type": "string",
              "value": "islands"
            },
            {
              "name": "elevation",
              "type": "int",
              "value": 65
            }
          ]
        },
        {
          "id": 145,
          "name": "dense-island-fort",
          "class": "landmark",
          "x": 1176.222907172309,
          "y": -771.8408,
          "width": 248.81638420952692,
          "height": 32.5,
          "properties": [
            {
              "name": "kind",
              "type": "string",
              "value": "semantic"
            },
            {
              "name": "landmark_type",
              "type": "string",
              "value": "fort"
            },
            {
              "name": "elevation",
              "type": "int",
              "value": 65
            }
          ]
        },
        {
          "id": 146,
          "name": "narrows-cliffs",
          "class": "landmark",
          "x": 1017.8852081298828,
          "y": -1675.979,
          "width": 565.4917822943794,
          "height": 45.0,
          "properties": [
            {
              "name": "kind",
              "type": "string",
              "value": "semantic"
            },
            {
              "name": "landmark_type",
              "type": "string",
              "value": "cliffs"
            },
            {
              "name": "elevation",
              "type": "int",
              "value": 65
            }
          ]
        },
        {
          "id": 147,
          "name": "main-bridge-landmark",
          "class": "landmark",
          "x": 746.4491526285807,
          "y": -2266.9531,
          "width": 1108.3638932969836,
          "height": 42.5,
          "properties": [
            {
              "name": "kind",
              "type": "string",
              "value": "semantic"
            },
            {
              "name": "landmark_type",
              "type": "string",
              "value": "bridge"
            },
            {
              "name": "elevation",
              "type": "int",
              "value": 65
            }
          ]
        },
        {
          "id": 148,
          "name": "civil-harbour-core",
          "class": "landmark",
          "x": 769.068823920356,
          "y": -2856.3232,
          "width": 1063.124550713433,
          "height": 75.0,
          "properties": [
            {
              "name": "kind",
              "type": "string",
              "value": "semantic"
            },
            {
              "name": "landmark_type",
              "type": "string",
              "value": "harbour"
            },
            {
              "name": "elevation",
              "type": "int",
              "value": 65
            }
          ]
        },
        {
          "id": 149,
          "name": "industrial-terminal-core",
          "class": "landmark",
          "x": 701.2098100450304,
          "y": -3267.5073,
          "width": 1198.8425784640842,
          "height": 95.0,
          "properties": [
            {
              "name": "kind",
              "type": "string",
              "value": "semantic"
            },
            {
              "name": "landmark_type",
              "type": "string",
              "value": "industrial"
            },
            {
              "name": "elevation",
              "type": "int",
              "value": 65
            }
          ]
        },
        {
          "id": 150,
          "name": "naval-yard-core",
          "class": "landmark",
          "x": 678.5901387532552,
          "y": -3818.8818,
          "width": 1244.0819210476345,
          "height": 105.0,
          "properties": [
            {
              "name": "kind",
              "type": "string",
              "value": "semantic"
            },
            {
              "name": "landmark_type",
              "type": "string",
              "value": "naval"
            },
            {
              "name": "elevation",
              "type": "int",
              "value": 65
            }
          ]
        },
        {
          "id": 151,
          "name": "mountain-gate",
          "class": "landmark",
          "x": 972.6458655463325,
          "y": -4252.3779,
          "width": 655.9704674614801,
          "height": 55.0,
          "properties": [
            {
              "name": "kind",
              "type": "string",
              "value": "semantic"
            },
            {
              "name": "landmark_type",
              "type": "string",
              "value": "mountain"
            },
            {
              "name": "elevation",
              "type": "int",
              "value": 65
            }
          ]
        },
        {
          "id": 152,
          "name": "canyon-crossing",
          "class": "landmark",
          "x": 972.6458655463325,
          "y": -4705.874,
          "width": 655.9704674614801,
          "height": 45.0,
          "properties": [
            {
              "name": "kind",
              "type": "string",
              "value": "semantic"
            },
            {
              "name": "landmark_type",
              "type": "string",
              "value": "bridge"
            },
            {
              "name": "elevation",
              "type": "int",
              "value": 65
            }
          ]
        },
        {
          "id": 153,
          "name": "dam-landmark",
          "class": "landmark",
          "x": 791.6884952121311,
          "y": -5227.8613,
          "width": 1017.8852081298828,
          "height": 65.0,
          "properties": [
            {
              "name": "kind",
              "type": "string",
              "value": "semantic"
            },
            {
              "name": "landmark_type",
              "type": "string",
              "value": "dam"
            },
            {
              "name": "elevation",
              "type": "int",
              "value": 65
            }
          ]
        },
        {
          "id": 154,
          "name": "reservoir-radar",
          "class": "landmark",
          "x": 1142.2934002346462,
          "y": -5523.5254,
          "width": 339.2950693766276,
          "height": 45.0,
          "properties": [
            {
              "name": "kind",
              "type": "string",
              "value": "semantic"
            },
            {
              "name": "landmark_type",
              "type": "string",
              "value": "radar"
            },
            {
              "name": "elevation",
              "type": "int",
              "value": 65
            }
          ]
        },
        {
          "id": 155,
          "name": "frozen-falls",
          "class": "landmark",
          "x": 1017.8852081298828,
          "y": -5771.7358,
          "width": 565.4917822943794,
          "height": 60.0,
          "properties": [
            {
              "name": "kind",
              "type": "string",
              "value": "semantic"
            },
            {
              "name": "landmark_type",
              "type": "string",
              "value": "waterfall"
            },
            {
              "name": "elevation",
              "type": "int",
              "value": 65
            }
          ]
        },
        {
          "id": 156,
          "name": "fortress-gate",
          "class": "landmark",
          "x": 791.6884952121311,
          "y": -6019.9463,
          "width": 1017.8852081298828,
          "height": 75.0,
          "properties": [
            {
              "name": "kind",
              "type": "string",
              "value": "semantic"
            },
            {
              "name": "landmark_type",
              "type": "string",
              "value": "fortress"
            },
            {
              "name": "elevation",
              "type": "int",
              "value": 65
            }
          ]
        },
        {
          "id": 157,
          "name": "citadel-core",
          "class": "landmark",
          "x": 757.7589882744684,
          "y": -6290.9399,
          "width": 1085.7442220052083,
          "height": 105.0,
          "properties": [
            {
              "name": "kind",
              "type": "string",
              "value": "semantic"
            },
            {
              "name": "landmark_type",
              "type": "string",
              "value": "citadel"
            },
            {
              "name": "elevation",
              "type": "int",
              "value": 65
            }
          ]
        }
      ]
    },
    {
      "id": 12,
      "name": "Decorations",
      "type": "objectgroup",
      "draworder": "topdown",
      "visible": true,
      "opacity": 1,
      "x": 0,
      "y": 0,
      "objects": [
        {
          "id": 158,
          "name": "island-01-rock",
          "class": "decoration",
          "x": 332.50916798909503,
          "y": 1088.6235,
          "width": 124.40819210476346,
          "height": 12.0,
          "rotation": 17,
          "properties": [
            {
              "name": "asset",
              "type": "string",
              "value": "rock-cluster"
            },
            {
              "name": "alpha",
              "type": "float",
              "value": 0.95
            }
          ]
        },
        {
          "id": 159,
          "name": "island-02-rock",
          "class": "decoration",
          "x": 913.834720187717,
          "y": 1048.2735,
          "width": 124.40819210476346,
          "height": 12.0,
          "rotation": 34,
          "properties": [
            {
              "name": "asset",
              "type": "string",
              "value": "rock-cluster"
            },
            {
              "name": "alpha",
              "type": "float",
              "value": 0.95
            }
          ]
        },
        {
          "id": 160,
          "name": "island-02-palm",
          "class": "decoration",
          "x": 967.3981018066406,
          "y": 1054.0235,
          "width": 72.38294813368056,
          "height": 13.5,
          "rotation": 8,
          "properties": [
            {
              "name": "asset",
              "type": "string",
              "value": "palm"
            },
            {
              "name": "alpha",
              "type": "float",
              "value": 0.95
            }
          ]
        },
        {
          "id": 161,
          "name": "island-03-rock",
          "class": "decoration",
          "x": 1668.2007577684192,
          "y": 1065.3735,
          "width": 124.40819210476346,
          "height": 12.0,
          "rotation": 51,
          "properties": [
            {
              "name": "asset",
              "type": "string",
              "value": "rock-cluster"
            },
            {
              "name": "alpha",
              "type": "float",
              "value": 0.95
            }
          ]
        },
        {
          "id": 162,
          "name": "island-04-rock",
          "class": "decoration",
          "x": 2249.526309967041,
          "y": 983.4735,
          "width": 124.40819210476346,
          "height": 12.0,
          "rotation": 68,
          "properties": [
            {
              "name": "asset",
              "type": "string",
              "value": "rock-cluster"
            },
            {
              "name": "alpha",
              "type": "float",
              "value": 0.95
            }
          ]
        },
        {
          "id": 163,
          "name": "island-04-palm",
          "class": "decoration",
          "x": 2301.4158359103735,
          "y": 988.9735,
          "width": 72.38294813368056,
          "height": 13.5,
          "rotation": 6,
          "properties": [
            {
              "name": "asset",
              "type": "string",
              "value": "palm"
            },
            {
              "name": "alpha",
              "type": "float",
              "value": 0.95
            }
          ]
        },
        {
          "id": 164,
          "name": "island-05-rock",
          "class": "decoration",
          "x": 573.974159028795,
          "y": 849.6235,
          "width": 124.40819210476346,
          "height": 12.0,
          "rotation": 85,
          "properties": [
            {
              "name": "asset",
              "type": "string",
              "value": "rock-cluster"
            },
            {
              "name": "alpha",
              "type": "float",
              "value": 0.95
            }
          ]
        },
        {
          "id": 165,
          "name": "island-05-outpost",
          "class": "decoration",
          "x": 630.523337258233,
          "y": 853.7485,
          "width": 158.3376990424262,
          "height": 14.0,
          "rotation": -5,
          "properties": [
            {
              "name": "asset",
              "type": "string",
              "value": "service-building"
            },
            {
              "name": "alpha",
              "type": "float",
              "value": 0.92
            }
          ]
        },
        {
          "id": 166,
          "name": "island-06-rock",
          "class": "decoration",
          "x": 1326.0782294803196,
          "y": 869.8735,
          "width": 124.40819210476346,
          "height": 12.0,
          "rotation": 102,
          "properties": [
            {
              "name": "asset",
              "type": "string",
              "value": "rock-cluster"
            },
            {
              "name": "alpha",
              "type": "float",
              "value": 0.95
            }
          ]
        },
        {
          "id": 167,
          "name": "island-06-palm",
          "class": "decoration",
          "x": 1388.8478173149956,
          "y": 876.7485,
          "width": 72.38294813368056,
          "height": 13.5,
          "rotation": 4,
          "properties": [
            {
              "name": "asset",
              "type": "string",
              "value": "palm"
            },
            {
              "name": "alpha",
              "type": "float",
              "value": 0.95
            }
          ]
        },
        {
          "id": 168,
          "name": "island-07-rock",
          "class": "decoration",
          "x": 1972.4353366427952,
          "y": 781.7735,
          "width": 124.40819210476346,
          "height": 12.0,
          "rotation": 119,
          "properties": [
            {
              "name": "asset",
              "type": "string",
              "value": "rock-cluster"
            },
            {
              "name": "alpha",
              "type": "float",
              "value": 0.95
            }
          ]
        },
        {
          "id": 169,
          "name": "island-08-rock",
          "class": "decoration",
          "x": 222.80376222398547,
          "y": 411.7842,
          "width": 124.40819210476346,
          "height": 12.0,
          "rotation": 136,
          "properties": [
            {
              "name": "asset",
              "type": "string",
              "value": "rock-cluster"
            },
            {
              "name": "alpha",
              "type": "float",
              "value": 0.95
            }
          ]
        },
        {
          "id": 170,
          "name": "island-08-palm",
          "class": "decoration",
          "x": 288.08413357204864,
          "y": 418.9717,
          "width": 72.38294813368056,
          "height": 13.5,
          "rotation": 2,
          "properties": [
            {
              "name": "asset",
              "type": "string",
              "value": "palm"
            },
            {
              "name": "alpha",
              "type": "float",
              "value": 0.95
            }
          ]
        },
        {
          "id": 171,
          "name": "island-09-rock",
          "class": "decoration",
          "x": 914.4002119700115,
          "y": 374.0342,
          "width": 124.40819210476346,
          "height": 12.0,
          "rotation": 153,
          "properties": [
            {
              "name": "asset",
              "type": "string",
              "value": "rock-cluster"
            },
            {
              "name": "alpha",
              "type": "float",
              "value": 0.95
            }
          ]
        },
        {
          "id": 172,
          "name": "island-09-outpost",
          "class": "decoration",
          "x": 975.4733244578044,
          "y": 378.2842,
          "width": 158.3376990424262,
          "height": 14.0,
          "rotation": 3,
          "properties": [
            {
              "name": "asset",
              "type": "string",
              "value": "service-building"
            },
            {
              "name": "alpha",
              "type": "float",
              "value": 0.92
            }
          ]
        },
        {
          "id": 173,
          "name": "island-10-rock",
          "class": "decoration",
          "x": 1652.3669878641765,
          "y": 328.2842,
          "width": 124.40819210476346,
          "height": 12.0,
          "rotation": 170,
          "properties": [
            {
              "name": "asset",
              "type": "string",
              "value": "rock-cluster"
            },
            {
              "name": "alpha",
              "type": "float",
              "value": 0.95
            }
          ]
        },
        {
          "id": 174,
          "name": "island-10-palm",
          "class": "decoration",
          "x": 1734.3859159681533,
          "y": 336.7217,
          "width": 72.38294813368056,
          "height": 13.5,
          "properties": [
            {
              "name": "asset",
              "type": "string",
              "value": "palm"
            },
            {
              "name": "alpha",
              "type": "float",
              "value": 0.95
            }
          ]
        },
        {
          "id": 175,
          "name": "island-11-rock",
          "class": "decoration",
          "x": 2277.8008990817602,
          "y": 292.2842,
          "width": 124.40819210476346,
          "height": 12.0,
          "rotation": 187,
          "properties": [
            {
              "name": "asset",
              "type": "string",
              "value": "rock-cluster"
            },
            {
              "name": "alpha",
              "type": "float",
              "value": 0.95
            }
          ]
        },
        {
          "id": 176,
          "name": "island-12-rock",
          "class": "decoration",
          "x": 429.77375454372833,
          "y": 125.7842,
          "width": 124.40819210476346,
          "height": 12.0,
          "rotation": 204,
          "properties": [
            {
              "name": "asset",
              "type": "string",
              "value": "rock-cluster"
            },
            {
              "name": "alpha",
              "type": "float",
              "value": 0.95
            }
          ]
        },
        {
          "id": 177,
          "name": "island-12-palm",
          "class": "decoration",
          "x": 546.9436518351238,
          "y": 137.3467,
          "width": 72.38294813368056,
          "height": 13.5,
          "rotation": -2,
          "properties": [
            {
              "name": "asset",
              "type": "string",
              "value": "palm"
            },
            {
              "name": "alpha",
              "type": "float",
              "value": 0.95
            }
          ]
        },
        {
          "id": 178,
          "name": "island-12-outpost",
          "class": "decoration",
          "x": 493.1088341606988,
          "y": 130.4092,
          "width": 158.3376990424262,
          "height": 14.0,
          "rotation": -6,
          "properties": [
            {
              "name": "asset",
              "type": "string",
              "value": "service-building"
            },
            {
              "name": "alpha",
              "type": "float",
              "value": 0.92
            }
          ]
        },
        {
          "id": 179,
          "name": "island-13-rock",
          "class": "decoration",
          "x": 1220.3312661912707,
          "y": 146.2842,
          "width": 124.40819210476346,
          "height": 12.0,
          "rotation": 221,
          "properties": [
            {
              "name": "asset",
              "type": "string",
              "value": "rock-cluster"
            },
            {
              "name": "alpha",
              "type": "float",
              "value": 0.95
            }
          ]
        },
        {
          "id": 180,
          "name": "island-14-rock",
          "class": "decoration",
          "x": 1891.570011774699,
          "y": 68.1342,
          "width": 124.40819210476346,
          "height": 12.0,
          "rotation": 238,
          "properties": [
            {
              "name": "asset",
              "type": "string",
              "value": "rock-cluster"
            },
            {
              "name": "alpha",
              "type": "float",
              "value": 0.95
            }
          ]
        },
        {
          "id": 181,
          "name": "island-14-palm",
          "class": "decoration",
          "x": 2021.2938266330295,
          "y": 79.8842,
          "width": 72.38294813368056,
          "height": 13.5,
          "rotation": -4,
          "properties": [
            {
              "name": "asset",
              "type": "string",
              "value": "palm"
            },
            {
              "name": "alpha",
              "type": "float",
              "value": 0.95
            }
          ]
        },
        {
          "id": 182,
          "name": "island-14-outpost",
          "class": "decoration",
          "x": 1961.690992779202,
          "y": 72.8342,
          "width": 158.3376990424262,
          "height": 14.0,
          "rotation": 4,
          "properties": [
            {
              "name": "asset",
              "type": "string",
              "value": "service-building"
            },
            {
              "name": "alpha",
              "type": "float",
              "value": 0.92
            }
          ]
        },
        {
          "id": 183,
          "name": "island-15-rock",
          "class": "decoration",
          "x": 822.7905432383219,
          "y": -495.8568,
          "width": 124.40819210476346,
          "height": 12.0,
          "rotation": 255,
          "properties": [
            {
              "name": "asset",
              "type": "string",
              "value": "rock-cluster"
            },
            {
              "name": "alpha",
              "type": "float",
              "value": 0.95
            }
          ]
        },
        {
          "id": 184,
          "name": "island-16-rock",
          "class": "decoration",
          "x": 1539.2686314053005,
          "y": -529.1068,
          "width": 124.40819210476346,
          "height": 12.0,
          "rotation": 272,
          "properties": [
            {
              "name": "asset",
              "type": "string",
              "value": "rock-cluster"
            },
            {
              "name": "alpha",
              "type": "float",
              "value": 0.95
            }
          ]
        },
        {
          "id": 185,
          "name": "island-16-palm",
          "class": "decoration",
          "x": 1621.2875595092773,
          "y": -520.9818,
          "width": 72.38294813368056,
          "height": 13.5,
          "rotation": -6,
          "properties": [
            {
              "name": "asset",
              "type": "string",
              "value": "palm"
            },
            {
              "name": "alpha",
              "type": "float",
              "value": 0.95
            }
          ]
        },
        {
          "id": 186,
          "name": "island-17-rock",
          "class": "decoration",
          "x": 2181.6672960917153,
          "y": -548.6068,
          "width": 124.40819210476346,
          "height": 12.0,
          "rotation": 289,
          "properties": [
            {
              "name": "asset",
              "type": "string",
              "value": "rock-cluster"
            },
            {
              "name": "alpha",
              "type": "float",
              "value": 0.95
            }
          ]
        },
        {
          "id": 187,
          "name": "island-18-rock",
          "class": "decoration",
          "x": 308.19302135043677,
          "y": -707.8568,
          "width": 124.40819210476346,
          "height": 12.0,
          "rotation": 306,
          "properties": [
            {
              "name": "asset",
              "type": "string",
              "value": "rock-cluster"
            },
            {
              "name": "alpha",
              "type": "float",
              "value": 0.95
            }
          ]
        },
        {
          "id": 188,
          "name": "island-18-palm",
          "class": "decoration",
          "x": 404.4397226969401,
          "y": -698.1693,
          "width": 72.38294813368056,
          "height": 13.5,
          "rotation": -8,
          "properties": [
            {
              "name": "asset",
              "type": "string",
              "value": "palm"
            },
            {
              "name": "alpha",
              "type": "float",
              "value": 0.95
            }
          ]
        },
        {
          "id": 189,
          "name": "island-18-outpost",
          "class": "decoration",
          "x": 360.21826532151965,
          "y": -703.9818,
          "width": 158.3376990424262,
          "height": 14.0,
          "properties": [
            {
              "name": "asset",
              "type": "string",
              "value": "service-building"
            },
            {
              "name": "alpha",
              "type": "float",
              "value": 0.92
            }
          ]
        },
        {
          "id": 190,
          "name": "island-19-rock",
          "class": "decoration",
          "x": 1193.1876606411404,
          "y": -744.8568,
          "width": 124.40819210476346,
          "height": 12.0,
          "rotation": 323,
          "properties": [
            {
              "name": "asset",
              "type": "string",
              "value": "rock-cluster"
            },
            {
              "name": "alpha",
              "type": "float",
              "value": 0.95
            }
          ]
        },
        {
          "id": 191,
          "name": "island-20-rock",
          "class": "decoration",
          "x": 1799.394851260715,
          "y": -790.3568,
          "width": 124.40819210476346,
          "height": 12.0,
          "rotation": 340,
          "properties": [
            {
              "name": "asset",
              "type": "string",
              "value": "rock-cluster"
            },
            {
              "name": "alpha",
              "type": "float",
              "value": 0.95
            }
          ]
        },
        {
          "id": 192,
          "name": "island-20-palm",
          "class": "decoration",
          "x": 1898.1523361206055,
          "y": -780.6693,
          "width": 72.38294813368056,
          "height": 13.5,
          "rotation": -10,
          "properties": [
            {
              "name": "asset",
              "type": "string",
              "value": "palm"
            },
            {
              "name": "alpha",
              "type": "float",
              "value": 0.95
            }
          ]
        },
        {
          "id": 193,
          "name": "port-prop-01",
          "class": "decoration",
          "x": 147.02786339653863,
          "y": -2638.3392,
          "width": 271.43605550130206,
          "height": 19.5,
          "properties": [
            {
              "name": "asset",
              "type": "string",
              "value": "warehouse-a"
            },
            {
              "name": "alpha",
              "type": "float",
              "value": 0.96
            }
          ]
        },
        {
          "id": 194,
          "name": "port-prop-02",
          "class": "decoration",
          "x": 395.84424760606555,
          "y": -2658.3392,
          "width": 171.90950181749133,
          "height": 14.5,
          "rotation": 3,
          "properties": [
            {
              "name": "asset",
              "type": "string",
              "value": "service-building"
            },
            {
              "name": "alpha",
              "type": "float",
              "value": 0.96
            }
          ]
        },
        {
          "id": 195,
          "name": "port-prop-03",
          "class": "decoration",
          "x": 131.19409349229602,
          "y": -2895.8392,
          "width": 158.3376990424262,
          "height": 17.5,
          "rotation": -3,
          "properties": [
            {
              "name": "asset",
              "type": "string",
              "value": "tank-small"
            },
            {
              "name": "alpha",
              "type": "float",
              "value": 0.96
            }
          ]
        },
        {
          "id": 196,
          "name": "port-prop-04",
          "class": "decoration",
          "x": 395.84424760606555,
          "y": -2925.8392,
          "width": 171.90950181749133,
          "height": 12.0,
          "properties": [
            {
              "name": "asset",
              "type": "string",
              "value": "container-stack"
            },
            {
              "name": "alpha",
              "type": "float",
              "value": 0.96
            }
          ]
        },
        {
          "id": 197,
          "name": "port-prop-05",
          "class": "decoration",
          "x": 2092.3195944892036,
          "y": -2650.8392,
          "width": 289.53179253472223,
          "height": 20.5,
          "rotation": 3,
          "properties": [
            {
              "name": "asset",
              "type": "string",
              "value": "warehouse-a"
            },
            {
              "name": "alpha",
              "type": "float",
              "value": 0.96
            }
          ]
        },
        {
          "id": 198,
          "name": "port-prop-06",
          "class": "decoration",
          "x": 2194.108115302192,
          "y": -2858.3392,
          "width": 194.5291731092665,
          "height": 21.5,
          "rotation": -3,
          "properties": [
            {
              "name": "asset",
              "type": "string",
              "value": "helipad-mark"
            },
            {
              "name": "alpha",
              "type": "float",
              "value": 0.96
            }
          ]
        },
        {
          "id": 199,
          "name": "port-prop-07",
          "class": "decoration",
          "x": 1922.6720598008899,
          "y": -2925.8392,
          "width": 167.3855675591363,
          "height": 14.0,
          "properties": [
            {
              "name": "asset",
              "type": "string",
              "value": "service-building"
            },
            {
              "name": "alpha",
              "type": "float",
              "value": 0.96
            }
          ]
        },
        {
          "id": 200,
          "name": "port-prop-08",
          "class": "decoration",
          "x": 113.09835645887587,
          "y": -3061.3049,
          "width": 305.36556243896484,
          "height": 21.0,
          "rotation": 3,
          "properties": [
            {
              "name": "asset",
              "type": "string",
              "value": "warehouse-a"
            },
            {
              "name": "alpha",
              "type": "float",
              "value": 0.96
            }
          ]
        },
        {
          "id": 201,
          "name": "port-prop-09",
          "class": "decoration",
          "x": 418.4639188978407,
          "y": -3081.3049,
          "width": 271.43605550130206,
          "height": 19.5,
          "rotation": -3,
          "properties": [
            {
              "name": "asset",
              "type": "string",
              "value": "warehouse-a"
            },
            {
              "name": "alpha",
              "type": "float",
              "value": 0.96
            }
          ]
        },
        {
          "id": 202,
          "name": "port-prop-10",
          "class": "decoration",
          "x": 124.40819210476346,
          "y": -3418.8049,
          "width": 162.86163330078125,
          "height": 18.0,
          "properties": [
            {
              "name": "asset",
              "type": "string",
              "value": "tank-small"
            },
            {
              "name": "alpha",
              "type": "float",
              "value": 0.96
            }
          ]
        },
        {
          "id": 203,
          "name": "port-prop-11",
          "class": "decoration",
          "x": 429.77375454372833,
          "y": -3456.3049,
          "width": 180.95737033420139,
          "height": 12.5,
          "rotation": 3,
          "properties": [
            {
              "name": "asset",
              "type": "string",
              "value": "container-stack"
            },
            {
              "name": "alpha",
              "type": "float",
              "value": 0.96
            }
          ]
        },
        {
          "id": 204,
          "name": "port-prop-12",
          "class": "decoration",
          "x": 2114.939265780979,
          "y": -3061.3049,
          "width": 305.36556243896484,
          "height": 21.0,
          "rotation": -3,
          "properties": [
            {
              "name": "asset",
              "type": "string",
              "value": "warehouse-a"
            },
            {
              "name": "alpha",
              "type": "float",
              "value": 0.96
            }
          ]
        },
        {
          "id": 205,
          "name": "port-prop-13",
          "class": "decoration",
          "x": 1911.3622241550022,
          "y": -3371.3049,
          "width": 169.6475346883138,
          "height": 18.75,
          "properties": [
            {
              "name": "asset",
              "type": "string",
              "value": "tank-small"
            },
            {
              "name": "alpha",
              "type": "float",
              "value": 0.96
            }
          ]
        },
        {
          "id": 206,
          "name": "port-prop-14",
          "class": "decoration",
          "x": 2137.558937072754,
          "y": -3431.3049,
          "width": 185.48130459255643,
          "height": 13.0,
          "rotation": 3,
          "properties": [
            {
              "name": "asset",
              "type": "string",
              "value": "container-stack"
            },
            {
              "name": "alpha",
              "type": "float",
              "value": 0.96
            }
          ]
        },
        {
          "id": 207,
          "name": "port-prop-15",
          "class": "decoration",
          "x": 124.40819210476346,
          "y": -3531.9122,
          "width": 185.48130459255643,
          "height": 15.5,
          "rotation": -3,
          "properties": [
            {
              "name": "asset",
              "type": "string",
              "value": "service-building"
            },
            {
              "name": "alpha",
              "type": "float",
              "value": 0.96
            }
          ]
        },
        {
          "id": 208,
          "name": "port-prop-16",
          "class": "decoration",
          "x": 350.6049050225152,
          "y": -3551.9122,
          "width": 298.5796610514323,
          "height": 20.5,
          "properties": [
            {
              "name": "asset",
              "type": "string",
              "value": "warehouse-a"
            },
            {
              "name": "alpha",
              "type": "float",
              "value": 0.96
            }
          ]
        },
        {
          "id": 209,
          "name": "port-prop-17",
          "class": "decoration",
          "x": 147.02786339653863,
          "y": -3851.9122,
          "width": 208.1009758843316,
          "height": 23.0,
          "rotation": 3,
          "properties": [
            {
              "name": "asset",
              "type": "string",
              "value": "helipad-mark"
            },
            {
              "name": "alpha",
              "type": "float",
              "value": 0.96
            }
          ]
        },
        {
          "id": 210,
          "name": "port-prop-18",
          "class": "decoration",
          "x": 429.77375454372833,
          "y": -3931.9122,
          "width": 169.6475346883138,
          "height": 18.75,
          "rotation": -3,
          "properties": [
            {
              "name": "asset",
              "type": "string",
              "value": "tank-small"
            },
            {
              "name": "alpha",
              "type": "float",
              "value": 0.96
            }
          ]
        },
        {
          "id": 211,
          "name": "port-prop-19",
          "class": "decoration",
          "x": 2114.939265780979,
          "y": -3539.4122,
          "width": 185.48130459255643,
          "height": 15.5,
          "properties": [
            {
              "name": "asset",
              "type": "string",
              "value": "service-building"
            },
            {
              "name": "alpha",
              "type": "float",
              "value": 0.96
            }
          ]
        },
        {
          "id": 212,
          "name": "port-prop-20",
          "class": "decoration",
          "x": 1854.8130459255642,
          "y": -3569.4122,
          "width": 298.5796610514323,
          "height": 20.5,
          "rotation": 3,
          "properties": [
            {
              "name": "asset",
              "type": "string",
              "value": "warehouse-a"
            },
            {
              "name": "alpha",
              "type": "float",
              "value": 0.96
            }
          ]
        },
        {
          "id": 213,
          "name": "port-prop-21",
          "class": "decoration",
          "x": 2148.8687727186416,
          "y": -3824.4122,
          "width": 208.1009758843316,
          "height": 23.0,
          "rotation": -3,
          "properties": [
            {
              "name": "asset",
              "type": "string",
              "value": "helipad-mark"
            },
            {
              "name": "alpha",
              "type": "float",
              "value": 0.96
            }
          ]
        },
        {
          "id": 214,
          "name": "port-prop-22",
          "class": "decoration",
          "x": 1888.742552863227,
          "y": -3924.4122,
          "width": 180.95737033420139,
          "height": 12.5,
          "properties": [
            {
              "name": "asset",
              "type": "string",
              "value": "container-stack"
            },
            {
              "name": "alpha",
              "type": "float",
              "value": 0.96
            }
          ]
        },
        {
          "id": 215,
          "name": "alpine-rock-left-1",
          "class": "decoration",
          "x": 315.23596445719403,
          "y": -4034.8779,
          "width": 169.6475346883138,
          "height": 15.5,
          "rotation": -2,
          "properties": [
            {
              "name": "asset",
              "type": "string",
              "value": "rock-cluster"
            },
            {
              "name": "alpha",
              "type": "float",
              "value": 0.95
            }
          ]
        },
        {
          "id": 216,
          "name": "alpine-outpost-right-1",
          "class": "decoration",
          "x": 2083.2717259724936,
          "y": -4029.8779,
          "width": 162.86163330078125,
          "height": 14.0,
          "properties": [
            {
              "name": "asset",
              "type": "string",
              "value": "service-building"
            },
            {
              "name": "alpha",
              "type": "float",
              "value": 0.92
            }
          ]
        },
        {
          "id": 217,
          "name": "alpine-rock-left-2",
          "class": "decoration",
          "x": 365.6161414252387,
          "y": -4209.8779,
          "width": 169.6475346883138,
          "height": 15.5,
          "rotation": 11,
          "properties": [
            {
              "name": "asset",
              "type": "string",
              "value": "rock-cluster"
            },
            {
              "name": "alpha",
              "type": "float",
              "value": 0.95
            }
          ]
        },
        {
          "id": 218,
          "name": "alpine-outpost-right-2",
          "class": "decoration",
          "x": 2035.7704162597656,
          "y": -4204.8779,
          "width": 162.86163330078125,
          "height": 14.0,
          "rotation": 5,
          "properties": [
            {
              "name": "asset",
              "type": "string",
              "value": "service-building"
            },
            {
              "name": "alpha",
              "type": "float",
              "value": 0.92
            }
          ]
        },
        {
          "id": 219,
          "name": "alpine-rock-left-3",
          "class": "decoration",
          "x": 415.9963183932835,
          "y": -4384.8779,
          "width": 169.6475346883138,
          "height": 15.5,
          "rotation": -6,
          "properties": [
            {
              "name": "asset",
              "type": "string",
              "value": "rock-cluster"
            },
            {
              "name": "alpha",
              "type": "float",
              "value": 0.95
            }
          ]
        },
        {
          "id": 220,
          "name": "alpine-outpost-right-3",
          "class": "decoration",
          "x": 1986.2127727932402,
          "y": -4379.8779,
          "width": 162.86163330078125,
          "height": 14.0,
          "rotation": -5,
          "properties": [
            {
              "name": "asset",
              "type": "string",
              "value": "service-building"
            },
            {
              "name": "alpha",
              "type": "float",
              "value": 0.92
            }
          ]
        },
        {
          "id": 221,
          "name": "alpine-rock-left-4",
          "class": "decoration",
          "x": 464.83424504597986,
          "y": -4481.7468,
          "width": 169.6475346883138,
          "height": 15.5,
          "rotation": 7,
          "properties": [
            {
              "name": "asset",
              "type": "string",
              "value": "rock-cluster"
            },
            {
              "name": "alpha",
              "type": "float",
              "value": 0.95
            }
          ]
        },
        {
          "id": 222,
          "name": "alpine-outpost-right-4",
          "class": "decoration",
          "x": 1937.3748461405437,
          "y": -4476.7468,
          "width": 162.86163330078125,
          "height": 14.0,
          "properties": [
            {
              "name": "asset",
              "type": "string",
              "value": "service-building"
            },
            {
              "name": "alpha",
              "type": "float",
              "value": 0.92
            }
          ]
        },
        {
          "id": 223,
          "name": "alpine-rock-left-5",
          "class": "decoration",
          "x": 504.41866980658637,
          "y": -4656.7468,
          "width": 169.6475346883138,
          "height": 15.5,
          "rotation": -10,
          "properties": [
            {
              "name": "asset",
              "type": "string",
              "value": "rock-cluster"
            },
            {
              "name": "alpha",
              "type": "float",
              "value": 0.95
            }
          ]
        },
        {
          "id": 224,
          "name": "alpine-outpost-right-5",
          "class": "decoration",
          "x": 1897.790421379937,
          "y": -4651.7468,
          "width": 162.86163330078125,
          "height": 14.0,
          "rotation": 5,
          "properties": [
            {
              "name": "asset",
              "type": "string",
              "value": "service-building"
            },
            {
              "name": "alpha",
              "type": "float",
              "value": 0.92
            }
          ]
        },
        {
          "id": 225,
          "name": "alpine-rock-left-6",
          "class": "decoration",
          "x": 535.1814227634006,
          "y": -4831.7468,
          "width": 169.6475346883138,
          "height": 15.5,
          "rotation": 3,
          "properties": [
            {
              "name": "asset",
              "type": "string",
              "value": "rock-cluster"
            },
            {
              "name": "alpha",
              "type": "float",
              "value": 0.95
            }
          ]
        },
        {
          "id": 226,
          "name": "alpine-outpost-right-6",
          "class": "decoration",
          "x": 1867.0276684231228,
          "y": -4826.7468,
          "width": 162.86163330078125,
          "height": 14.0,
          "rotation": -5,
          "properties": [
            {
              "name": "asset",
              "type": "string",
              "value": "service-building"
            },
            {
              "name": "alpha",
              "type": "float",
              "value": 0.92
            }
          ]
        },
        {
          "id": 227,
          "name": "alpine-rock-left-7",
          "class": "decoration",
          "x": 554.1819466484918,
          "y": -4953.7805,
          "width": 169.6475346883138,
          "height": 15.5,
          "rotation": -14,
          "properties": [
            {
              "name": "asset",
              "type": "string",
              "value": "rock-cluster"
            },
            {
              "name": "alpha",
              "type": "float",
              "value": 0.95
            }
          ]
        },
        {
          "id": 228,
          "name": "alpine-outpost-right-7",
          "class": "decoration",
          "x": 1848.0271445380317,
          "y": -4948.7805,
          "width": 162.86163330078125,
          "height": 14.0,
          "properties": [
            {
              "name": "asset",
              "type": "string",
              "value": "service-building"
            },
            {
              "name": "alpha",
              "type": "float",
              "value": 0.92
            }
          ]
        },
        {
          "id": 229,
          "name": "alpine-rock-left-8",
          "class": "decoration",
          "x": 520.5351856019762,
          "y": -5128.7805,
          "width": 169.6475346883138,
          "height": 15.5,
          "rotation": -1,
          "properties": [
            {
              "name": "asset",
              "type": "string",
              "value": "rock-cluster"
            },
            {
              "name": "alpha",
              "type": "float",
              "value": 0.95
            }
          ]
        },
        {
          "id": 230,
          "name": "alpine-outpost-right-8",
          "class": "decoration",
          "x": 1883.6531268225776,
          "y": -5123.7805,
          "width": 162.86163330078125,
          "height": 14.0,
          "rotation": 5,
          "properties": [
            {
              "name": "asset",
              "type": "string",
              "value": "service-building"
            },
            {
              "name": "alpha",
              "type": "float",
              "value": 0.92
            }
          ]
        },
        {
          "id": 231,
          "name": "alpine-rock-left-9",
          "class": "decoration",
          "x": 261.25720342000324,
          "y": -5303.7805,
          "width": 169.6475346883138,
          "height": 15.5,
          "rotation": 12,
          "properties": [
            {
              "name": "asset",
              "type": "string",
              "value": "rock-cluster"
            },
            {
              "name": "alpha",
              "type": "float",
              "value": 0.95
            }
          ]
        },
        {
          "id": 232,
          "name": "alpine-outpost-right-9",
          "class": "decoration",
          "x": 2143.2138548956978,
          "y": -5298.7805,
          "width": 162.86163330078125,
          "height": 14.0,
          "rotation": -5,
          "properties": [
            {
              "name": "asset",
              "type": "string",
              "value": "service-building"
            },
            {
              "name": "alpha",
              "type": "float",
              "value": 0.92
            }
          ]
        },
        {
          "id": 233,
          "name": "alpine-rock-left-10",
          "class": "decoration",
          "x": 148.15884696112738,
          "y": -5369.787,
          "width": 169.6475346883138,
          "height": 15.5,
          "rotation": -5,
          "properties": [
            {
              "name": "asset",
              "type": "string",
              "value": "rock-cluster"
            },
            {
              "name": "alpha",
              "type": "float",
              "value": 0.95
            }
          ]
        },
        {
          "id": 234,
          "name": "alpine-outpost-right-10",
          "class": "decoration",
          "x": 2255.181227789985,
          "y": -5364.787,
          "width": 162.86163330078125,
          "height": 14.0,
          "properties": [
            {
              "name": "asset",
              "type": "string",
              "value": "service-building"
            },
            {
              "name": "alpha",
              "type": "float",
              "value": 0.92
            }
          ]
        },
        {
          "id": 235,
          "name": "alpine-rock-left-11",
          "class": "decoration",
          "x": 140.24196200900607,
          "y": -5544.787,
          "width": 169.6475346883138,
          "height": 15.5,
          "rotation": 8,
          "properties": [
            {
              "name": "asset",
              "type": "string",
              "value": "rock-cluster"
            },
            {
              "name": "alpha",
              "type": "float",
              "value": 0.95
            }
          ]
        },
        {
          "id": 236,
          "name": "alpine-outpost-right-11",
          "class": "decoration",
          "x": 2261.0623423258467,
          "y": -5539.787,
          "width": 162.86163330078125,
          "height": 14.0,
          "rotation": 5,
          "properties": [
            {
              "name": "asset",
              "type": "string",
              "value": "service-building"
            },
            {
              "name": "alpha",
              "type": "float",
              "value": 0.92
            }
          ]
        },
        {
          "id": 237,
          "name": "snow-rock-left-1",
          "class": "decoration",
          "x": 228.45868004692926,
          "y": -5541.7358,
          "width": 185.48130459255643,
          "height": 17.0,
          "rotation": -4,
          "properties": [
            {
              "name": "asset",
              "type": "string",
              "value": "rock-cluster"
            },
            {
              "name": "alpha",
              "type": "float",
              "value": 0.88
            }
          ]
        },
        {
          "id": 238,
          "name": "snow-utility-right-1",
          "class": "decoration",
          "x": 2142.082871331109,
          "y": -5551.7358,
          "width": 203.57704162597656,
          "height": 17.5,
          "properties": [
            {
              "name": "asset",
              "type": "string",
              "value": "utility-block"
            },
            {
              "name": "alpha",
              "type": "float",
              "value": 0.94
            }
          ]
        },
        {
          "id": 239,
          "name": "snow-rock-left-2",
          "class": "decoration",
          "x": 287.26982540554474,
          "y": -5704.2358,
          "width": 185.48130459255643,
          "height": 17.0,
          "rotation": 7,
          "properties": [
            {
              "name": "asset",
              "type": "string",
              "value": "rock-cluster"
            },
            {
              "name": "alpha",
              "type": "float",
              "value": 0.88
            }
          ]
        },
        {
          "id": 240,
          "name": "snow-rock-left-3",
          "class": "decoration",
          "x": 329.1162172953288,
          "y": -5866.7358,
          "width": 185.48130459255643,
          "height": 17.0,
          "rotation": -12,
          "properties": [
            {
              "name": "asset",
              "type": "string",
              "value": "rock-cluster"
            },
            {
              "name": "alpha",
              "type": "float",
              "value": 0.88
            }
          ]
        },
        {
          "id": 241,
          "name": "snow-utility-right-3",
          "class": "decoration",
          "x": 2041.4253340827095,
          "y": -5876.7358,
          "width": 203.57704162597656,
          "height": 17.5,
          "rotation": -4,
          "properties": [
            {
              "name": "asset",
              "type": "string",
              "value": "utility-block"
            },
            {
              "name": "alpha",
              "type": "float",
              "value": 0.94
            }
          ]
        },
        {
          "id": 242,
          "name": "snow-rock-left-4",
          "class": "decoration",
          "x": 348.13730451795794,
          "y": -5748.7671,
          "width": 185.48130459255643,
          "height": 17.0,
          "rotation": -1,
          "properties": [
            {
              "name": "asset",
              "type": "string",
              "value": "rock-cluster"
            },
            {
              "name": "alpha",
              "type": "float",
              "value": 0.88
            }
          ]
        },
        {
          "id": 243,
          "name": "snow-rock-left-5",
          "class": "decoration",
          "x": 308.0387963189019,
          "y": -5911.2671,
          "width": 185.48130459255643,
          "height": 17.0,
          "rotation": 10,
          "properties": [
            {
              "name": "asset",
              "type": "string",
              "value": "rock-cluster"
            },
            {
              "name": "alpha",
              "type": "float",
              "value": 0.88
            }
          ]
        },
        {
          "id": 244,
          "name": "snow-utility-right-5",
          "class": "decoration",
          "x": 2062.5027550591362,
          "y": -5921.2671,
          "width": 203.57704162597656,
          "height": 17.5,
          "rotation": 4,
          "properties": [
            {
              "name": "asset",
              "type": "string",
              "value": "utility-block"
            },
            {
              "name": "alpha",
              "type": "float",
              "value": 0.94
            }
          ]
        },
        {
          "id": 245,
          "name": "snow-rock-left-6",
          "class": "decoration",
          "x": 237.71218193901905,
          "y": -6073.7671,
          "width": 185.48130459255643,
          "height": 17.0,
          "rotation": -9,
          "properties": [
            {
              "name": "asset",
              "type": "string",
              "value": "rock-cluster"
            },
            {
              "name": "alpha",
              "type": "float",
              "value": 0.88
            }
          ]
        },
        {
          "id": 246,
          "name": "snow-rock-left-7",
          "class": "decoration",
          "x": 141.47576226128476,
          "y": -6236.2671,
          "width": 185.48130459255643,
          "height": 17.0,
          "rotation": 2,
          "properties": [
            {
              "name": "asset",
              "type": "string",
              "value": "rock-cluster"
            },
            {
              "name": "alpha",
              "type": "float",
              "value": 0.88
            }
          ]
        },
        {
          "id": 247,
          "name": "snow-utility-right-7",
          "class": "decoration",
          "x": 2229.0657891167534,
          "y": -6246.2671,
          "width": 203.57704162597656,
          "height": 17.5,
          "properties": [
            {
              "name": "asset",
              "type": "string",
              "value": "utility-block"
            },
            {
              "name": "alpha",
              "type": "float",
              "value": 0.94
            }
          ]
        },
        {
          "id": 248,
          "name": "snow-rock-left-8",
          "class": "decoration",
          "x": 97.64158107616281,
          "y": -6155.2216,
          "width": 185.48130459255643,
          "height": 17.0,
          "rotation": 13,
          "properties": [
            {
              "name": "asset",
              "type": "string",
              "value": "rock-cluster"
            },
            {
              "name": "alpha",
              "type": "float",
              "value": 0.88
            }
          ]
        },
        {
          "id": 249,
          "name": "snow-rock-left-9",
          "class": "decoration",
          "x": 63.33507961697049,
          "y": -6317.7216,
          "width": 185.48130459255643,
          "height": 17.0,
          "rotation": -6,
          "properties": [
            {
              "name": "asset",
              "type": "string",
              "value": "rock-cluster"
            },
            {
              "name": "alpha",
              "type": "float",
              "value": 0.88
            }
          ]
        },
        {
          "id": 250,
          "name": "snow-utility-right-9",
          "class": "decoration",
          "x": 2284.5868004692925,
          "y": -6327.7216,
          "width": 203.57704162597656,
          "height": 17.5,
          "rotation": -4,
          "properties": [
            {
              "name": "asset",
              "type": "string",
              "value": "utility-block"
            },
            {
              "name": "alpha",
              "type": "float",
              "value": 0.94
            }
          ]
        },
        {
          "id": 251,
          "name": "snow-rock-left-10",
          "class": "decoration",
          "x": 149.1013332649514,
          "y": -6480.2216,
          "width": 185.48130459255643,
          "height": 17.0,
          "rotation": 5,
          "properties": [
            {
              "name": "asset",
              "type": "string",
              "value": "rock-cluster"
            },
            {
              "name": "alpha",
              "type": "float",
              "value": 0.88
            }
          ]
        },
        {
          "id": 252,
          "name": "dam-tower-1",
          "class": "decoration",
          "x": 384.534411960178,
          "y": -5223.7805,
          "width": 185.48130459255643,
          "height": 19.5,
          "properties": [
            {
              "name": "asset",
              "type": "string",
              "value": "utility-block"
            },
            {
              "name": "alpha",
              "type": "float",
              "value": 0.98
            }
          ]
        },
        {
          "id": 253,
          "name": "dam-tower-2",
          "class": "decoration",
          "x": 588.1114535861545,
          "y": -5223.7805,
          "width": 185.48130459255643,
          "height": 19.5,
          "properties": [
            {
              "name": "asset",
              "type": "string",
              "value": "utility-block"
            },
            {
              "name": "alpha",
              "type": "float",
              "value": 0.98
            }
          ]
        },
        {
          "id": 254,
          "name": "dam-tower-3",
          "class": "decoration",
          "x": 1786.9540320502388,
          "y": -5223.7805,
          "width": 185.48130459255643,
          "height": 19.5,
          "properties": [
            {
              "name": "asset",
              "type": "string",
              "value": "utility-block"
            },
            {
              "name": "alpha",
              "type": "float",
              "value": 0.98
            }
          ]
        },
        {
          "id": 255,
          "name": "dam-tower-4",
          "class": "decoration",
          "x": 1990.5310736762153,
          "y": -5223.7805,
          "width": 185.48130459255643,
          "height": 19.5,
          "properties": [
            {
              "name": "asset",
              "type": "string",
              "value": "utility-block"
            },
            {
              "name": "alpha",
              "type": "float",
              "value": 0.98
            }
          ]
        },
        {
          "id": 256,
          "name": "citadel-building-1",
          "class": "decoration",
          "x": 972.6458655463325,
          "y": -6317.7216,
          "width": 199.05310736762152,
          "height": 17.0,
          "properties": [
            {
              "name": "asset",
              "type": "string",
              "value": "service-building"
            },
            {
              "name": "alpha",
              "type": "float",
              "value": 0.98
            }
          ]
        },
        {
          "id": 257,
          "name": "citadel-building-2",
          "class": "decoration",
          "x": 1470.2786339653862,
          "y": -6325.2216,
          "width": 199.05310736762152,
          "height": 17.0,
          "rotation": 4,
          "properties": [
            {
              "name": "asset",
              "type": "string",
              "value": "service-building"
            },
            {
              "name": "alpha",
              "type": "float",
              "value": 0.98
            }
          ]
        },
        {
          "id": 258,
          "name": "citadel-building-3",
          "class": "decoration",
          "x": 870.8573447333442,
          "y": -6447.7216,
          "width": 199.05310736762152,
          "height": 17.0,
          "rotation": -4,
          "properties": [
            {
              "name": "asset",
              "type": "string",
              "value": "service-building"
            },
            {
              "name": "alpha",
              "type": "float",
              "value": 0.98
            }
          ]
        },
        {
          "id": 259,
          "name": "citadel-building-4",
          "class": "decoration",
          "x": 1560.757319132487,
          "y": -6455.2216,
          "width": 199.05310736762152,
          "height": 17.0,
          "properties": [
            {
              "name": "asset",
              "type": "string",
              "value": "service-building"
            },
            {
              "name": "alpha",
              "type": "float",
              "value": 0.98
            }
          ]
        },
        {
          "id": 260,
          "name": "citadel-building-5",
          "class": "decoration",
          "x": 1130.9835645887588,
          "y": -6522.7216,
          "width": 199.05310736762152,
          "height": 17.0,
          "rotation": 4,
          "properties": [
            {
              "name": "asset",
              "type": "string",
              "value": "service-building"
            },
            {
              "name": "alpha",
              "type": "float",
              "value": 0.98
            }
          ]
        },
        {
          "id": 261,
          "name": "citadel-building-6",
          "class": "decoration",
          "x": 1379.7999487982856,
          "y": -6517.7216,
          "width": 199.05310736762152,
          "height": 17.0,
          "rotation": -4,
          "properties": [
            {
              "name": "asset",
              "type": "string",
              "value": "service-building"
            },
            {
              "name": "alpha",
              "type": "float",
              "value": 0.98
            }
          ]
        },
        {
          "id": 262,
          "name": "citadel-utility-1",
          "class": "decoration",
          "x": 1029.1950437757705,
          "y": -6347.7216,
          "width": 180.95737033420139,
          "height": 18.0,
          "properties": [
            {
              "name": "asset",
              "type": "string",
              "value": "utility-block"
            },
            {
              "name": "alpha",
              "type": "float",
              "value": 0.98
            }
          ]
        },
        {
          "id": 263,
          "name": "citadel-utility-2",
          "class": "decoration",
          "x": 1470.2786339653862,
          "y": -6370.2216,
          "width": 180.95737033420139,
          "height": 18.0,
          "properties": [
            {
              "name": "asset",
              "type": "string",
              "value": "utility-block"
            },
            {
              "name": "alpha",
              "type": "float",
              "value": 0.98
            }
          ]
        },
        {
          "id": 264,
          "name": "citadel-utility-3",
          "class": "decoration",
          "x": 1153.603235880534,
          "y": -6472.7216,
          "width": 180.95737033420139,
          "height": 18.0,
          "properties": [
            {
              "name": "asset",
              "type": "string",
              "value": "utility-block"
            },
            {
              "name": "alpha",
              "type": "float",
              "value": 0.98
            }
          ]
        },
        {
          "id": 265,
          "name": "citadel-utility-4",
          "class": "decoration",
          "x": 1402.4196200900608,
          "y": -6497.7216,
          "width": 180.95737033420139,
          "height": 18.0,
          "properties": [
            {
              "name": "asset",
              "type": "string",
              "value": "utility-block"
            },
            {
              "name": "alpha",
              "type": "float",
              "value": 0.98
            }
          ]
        },
        {
          "id": 266,
          "name": "harbour-light-1",
          "class": "decoration",
          "x": 373.22457631429035,
          "y": -2675.8392,
          "width": 54.28721110026042,
          "height": 12.0,
          "properties": [
            {
              "name": "asset",
              "type": "string",
              "value": "street-lamp"
            },
            {
              "name": "alpha",
              "type": "float",
              "value": 0.9
            }
          ]
        },
        {
          "id": 267,
          "name": "harbour-light-2",
          "class": "decoration",
          "x": 2137.558937072754,
          "y": -2783.3392,
          "width": 54.28721110026042,
          "height": 12.0,
          "properties": [
            {
              "name": "asset",
              "type": "string",
              "value": "street-lamp"
            },
            {
              "name": "alpha",
              "type": "float",
              "value": 0.9
            }
          ]
        },
        {
          "id": 268,
          "name": "harbour-light-3",
          "class": "decoration",
          "x": 373.22457631429035,
          "y": -2890.8392,
          "width": 54.28721110026042,
          "height": 12.0,
          "properties": [
            {
              "name": "asset",
              "type": "string",
              "value": "street-lamp"
            },
            {
              "name": "alpha",
              "type": "float",
              "value": 0.9
            }
          ]
        },
        {
          "id": 269,
          "name": "harbour-light-4",
          "class": "decoration",
          "x": 2137.558937072754,
          "y": -2998.3392,
          "width": 54.28721110026042,
          "height": 12.0,
          "properties": [
            {
              "name": "asset",
              "type": "string",
              "value": "street-lamp"
            },
            {
              "name": "alpha",
              "type": "float",
              "value": 0.9
            }
          ]
        },
        {
          "id": 270,
          "name": "harbour-light-5",
          "class": "decoration",
          "x": 373.22457631429035,
          "y": -3061.3049,
          "width": 54.28721110026042,
          "height": 12.0,
          "properties": [
            {
              "name": "asset",
              "type": "string",
              "value": "street-lamp"
            },
            {
              "name": "alpha",
              "type": "float",
              "value": 0.9
            }
          ]
        },
        {
          "id": 271,
          "name": "harbour-light-6",
          "class": "decoration",
          "x": 2137.558937072754,
          "y": -3168.8049,
          "width": 54.28721110026042,
          "height": 12.0,
          "properties": [
            {
              "name": "asset",
              "type": "string",
              "value": "street-lamp"
            },
            {
              "name": "alpha",
              "type": "float",
              "value": 0.9
            }
          ]
        },
        {
          "id": 272,
          "name": "harbour-light-7",
          "class": "decoration",
          "x": 373.22457631429035,
          "y": -3276.3049,
          "width": 54.28721110026042,
          "height": 12.0,
          "properties": [
            {
              "name": "asset",
              "type": "string",
              "value": "street-lamp"
            },
            {
              "name": "alpha",
              "type": "float",
              "value": 0.9
            }
          ]
        },
        {
          "id": 273,
          "name": "harbour-light-8",
          "class": "decoration",
          "x": 2137.558937072754,
          "y": -3383.8049,
          "width": 54.28721110026042,
          "height": 12.0,
          "properties": [
            {
              "name": "asset",
              "type": "string",
              "value": "street-lamp"
            },
            {
              "name": "alpha",
              "type": "float",
              "value": 0.9
            }
          ]
        },
        {
          "id": 274,
          "name": "harbour-light-9",
          "class": "decoration",
          "x": 373.22457631429035,
          "y": -3491.3049,
          "width": 54.28721110026042,
          "height": 12.0,
          "properties": [
            {
              "name": "asset",
              "type": "string",
              "value": "street-lamp"
            },
            {
              "name": "alpha",
              "type": "float",
              "value": 0.9
            }
          ]
        },
        {
          "id": 275,
          "name": "harbour-light-10",
          "class": "decoration",
          "x": 2137.558937072754,
          "y": -3536.9122,
          "width": 54.28721110026042,
          "height": 12.0,
          "properties": [
            {
              "name": "asset",
              "type": "string",
              "value": "street-lamp"
            },
            {
              "name": "alpha",
              "type": "float",
              "value": 0.9
            }
          ]
        },
        {
          "id": 276,
          "name": "harbour-light-11",
          "class": "decoration",
          "x": 373.22457631429035,
          "y": -3644.4122,
          "width": 54.28721110026042,
          "height": 12.0,
          "properties": [
            {
              "name": "asset",
              "type": "string",
              "value": "street-lamp"
            },
            {
              "name": "alpha",
              "type": "float",
              "value": 0.9
            }
          ]
        },
        {
          "id": 277,
          "name": "harbour-light-12",
          "class": "decoration",
          "x": 2137.558937072754,
          "y": -3751.9122,
          "width": 54.28721110026042,
          "height": 12.0,
          "properties": [
            {
              "name": "asset",
              "type": "string",
              "value": "street-lamp"
            },
            {
              "name": "alpha",
              "type": "float",
              "value": 0.9
            }
          ]
        }
      ]
    },
    {
      "id": 13,
      "name": "Sockets",
      "type": "objectgroup",
      "draworder": "topdown",
      "visible": true,
      "opacity": 1,
      "x": 0,
      "y": 0,
      "objects": [
        {
          "id": 285,
          "name": "road-01",
          "class": "socket",
          "x": 267.4560546875,
          "y": -1481.54296875,
          "point": true,
          "properties": [
            {
              "name": "role",
              "type": "string",
              "value": "road_vehicle"
            },
            {
              "name": "anchor_id",
              "type": "string",
              "value": "road-01"
            },
            {
              "name": "district",
              "type": "string",
              "value": "coastal-narrows"
            }
          ]
        },
        {
          "id": 286,
          "name": "road-02",
          "class": "socket",
          "x": 365.2685546875,
          "y": -1768.10302734375,
          "point": true,
          "properties": [
            {
              "name": "role",
              "type": "string",
              "value": "road_vehicle"
            },
            {
              "name": "anchor_id",
              "type": "string",
              "value": "road-02"
            },
            {
              "name": "district",
              "type": "string",
              "value": "coastal-narrows"
            }
          ]
        },
        {
          "id": 287,
          "name": "road-03",
          "class": "socket",
          "x": 469.1943359375,
          "y": -2092.87109375,
          "point": true,
          "properties": [
            {
              "name": "role",
              "type": "string",
              "value": "road_vehicle"
            },
            {
              "name": "anchor_id",
              "type": "string",
              "value": "road-03"
            },
            {
              "name": "district",
              "type": "string",
              "value": "bridge-gateway"
            }
          ]
        },
        {
          "id": 288,
          "name": "road-04",
          "class": "socket",
          "x": 534.912109375,
          "y": -2398.53515625,
          "point": true,
          "properties": [
            {
              "name": "role",
              "type": "string",
              "value": "road_vehicle"
            },
            {
              "name": "anchor_id",
              "type": "string",
              "value": "road-04"
            },
            {
              "name": "district",
              "type": "string",
              "value": "bridge-gateway"
            }
          ]
        },
        {
          "id": 289,
          "name": "road-05",
          "class": "socket",
          "x": 362.97607421875,
          "y": -2704.19921875,
          "point": true,
          "properties": [
            {
              "name": "role",
              "type": "string",
              "value": "road_vehicle"
            },
            {
              "name": "anchor_id",
              "type": "string",
              "value": "road-05"
            },
            {
              "name": "district",
              "type": "string",
              "value": "civil-harbour"
            }
          ]
        },
        {
          "id": 290,
          "name": "road-06",
          "class": "socket",
          "x": 344.63623046875,
          "y": -3048.0712890625,
          "point": true,
          "properties": [
            {
              "name": "role",
              "type": "string",
              "value": "road_vehicle"
            },
            {
              "name": "anchor_id",
              "type": "string",
              "value": "road-06"
            },
            {
              "name": "district",
              "type": "string",
              "value": "industrial-harbour"
            }
          ]
        },
        {
          "id": 291,
          "name": "road-07",
          "class": "socket",
          "x": 412.646484375,
          "y": -3430.1513671875,
          "point": true,
          "properties": [
            {
              "name": "role",
              "type": "string",
              "value": "road_vehicle"
            },
            {
              "name": "anchor_id",
              "type": "string",
              "value": "road-07"
            },
            {
              "name": "district",
              "type": "string",
              "value": "industrial-harbour"
            }
          ]
        },
        {
          "id": 292,
          "name": "road-08",
          "class": "socket",
          "x": 502.05322265625,
          "y": -3812.2314453125,
          "point": true,
          "properties": [
            {
              "name": "role",
              "type": "string",
              "value": "road_vehicle"
            },
            {
              "name": "anchor_id",
              "type": "string",
              "value": "road-08"
            },
            {
              "name": "district",
              "type": "string",
              "value": "naval-yard"
            }
          ]
        },
        {
          "id": 293,
          "name": "road-09",
          "class": "socket",
          "x": 732.82958984375,
          "y": -4270.7275390625,
          "point": true,
          "properties": [
            {
              "name": "role",
              "type": "string",
              "value": "road_vehicle"
            },
            {
              "name": "anchor_id",
              "type": "string",
              "value": "road-09"
            },
            {
              "name": "district",
              "type": "string",
              "value": "mountain-transition"
            }
          ]
        },
        {
          "id": 294,
          "name": "road-10",
          "class": "socket",
          "x": 786.32080078125,
          "y": -4729.2236328125,
          "point": true,
          "properties": [
            {
              "name": "role",
              "type": "string",
              "value": "road_vehicle"
            },
            {
              "name": "anchor_id",
              "type": "string",
              "value": "road-10"
            },
            {
              "name": "district",
              "type": "string",
              "value": "river-canyon"
            }
          ]
        },
        {
          "id": 295,
          "name": "road-11",
          "class": "socket",
          "x": 761.103515625,
          "y": -5264.1357421875,
          "point": true,
          "properties": [
            {
              "name": "role",
              "type": "string",
              "value": "road_vehicle"
            },
            {
              "name": "anchor_id",
              "type": "string",
              "value": "road-11"
            },
            {
              "name": "district",
              "type": "string",
              "value": "lower-dam"
            }
          ]
        },
        {
          "id": 296,
          "name": "road-12",
          "class": "socket",
          "x": 497.6593017578125,
          "y": -5799.0478515625,
          "point": true,
          "properties": [
            {
              "name": "role",
              "type": "string",
              "value": "road_vehicle"
            },
            {
              "name": "anchor_id",
              "type": "string",
              "value": "road-12"
            },
            {
              "name": "district",
              "type": "string",
              "value": "frozen-valley"
            }
          ]
        },
        {
          "id": 297,
          "name": "aa-cliff-main",
          "class": "socket",
          "x": 696.926,
          "y": 2.521,
          "point": true,
          "properties": [
            {
              "name": "role",
              "type": "string",
              "value": "aa_pad"
            },
            {
              "name": "anchor_id",
              "type": "string",
              "value": "aa-cliff-main"
            },
            {
              "name": "district",
              "type": "string",
              "value": "outer-archipelago"
            }
          ]
        },
        {
          "id": 298,
          "name": "aa-cliff-offshore",
          "class": "socket",
          "x": 1893.463,
          "y": 240.289,
          "point": true,
          "properties": [
            {
              "name": "role",
              "type": "string",
              "value": "aa_pad"
            },
            {
              "name": "anchor_id",
              "type": "string",
              "value": "aa-cliff-offshore"
            },
            {
              "name": "district",
              "type": "string",
              "value": "outer-archipelago"
            }
          ]
        },
        {
          "id": 299,
          "name": "fuel-cliff",
          "class": "socket",
          "x": 276.387,
          "y": 268.929,
          "point": true,
          "properties": [
            {
              "name": "role",
              "type": "string",
              "value": "prop_pad"
            },
            {
              "name": "anchor_id",
              "type": "string",
              "value": "fuel-cliff"
            },
            {
              "name": "district",
              "type": "string",
              "value": "outer-archipelago"
            }
          ]
        },
        {
          "id": 300,
          "name": "water-outer-1",
          "class": "socket",
          "x": 1300.6310992770725,
          "y": -1727.063,
          "point": true,
          "properties": [
            {
              "name": "role",
              "type": "string",
              "value": "water_lane"
            },
            {
              "name": "anchor_id",
              "type": "string",
              "value": "water-outer-1"
            },
            {
              "name": "district",
              "type": "string",
              "value": "coastal-narrows"
            }
          ]
        },
        {
          "id": 301,
          "name": "water-outer-2",
          "class": "socket",
          "x": 1300.6310992770725,
          "y": -2340.9271,
          "point": true,
          "properties": [
            {
              "name": "role",
              "type": "string",
              "value": "water_lane"
            },
            {
              "name": "anchor_id",
              "type": "string",
              "value": "water-outer-2"
            },
            {
              "name": "district",
              "type": "string",
              "value": "bridge-gateway"
            }
          ]
        },
        {
          "id": 302,
          "name": "rescue-alpha",
          "class": "socket",
          "x": 373.22457631429035,
          "y": -700.1068,
          "point": true,
          "properties": [
            {
              "name": "role",
              "type": "string",
              "value": "rescue_zone"
            },
            {
              "name": "anchor_id",
              "type": "string",
              "value": "rescue-alpha"
            },
            {
              "name": "district",
              "type": "string",
              "value": "dense-archipelago"
            }
          ]
        },
        {
          "id": 303,
          "name": "fuel-narrows",
          "class": "socket",
          "x": 294.05572679307727,
          "y": -3231.3049,
          "point": true,
          "properties": [
            {
              "name": "role",
              "type": "string",
              "value": "prop_pad"
            },
            {
              "name": "anchor_id",
              "type": "string",
              "value": "fuel-narrows"
            },
            {
              "name": "district",
              "type": "string",
              "value": "industrial-harbour"
            }
          ]
        },
        {
          "id": 304,
          "name": "missile-narrows",
          "class": "socket",
          "x": 2261.9671291775176,
          "y": -3519.4122,
          "point": true,
          "properties": [
            {
              "name": "role",
              "type": "string",
              "value": "missile_pad"
            },
            {
              "name": "anchor_id",
              "type": "string",
              "value": "missile-narrows"
            },
            {
              "name": "district",
              "type": "string",
              "value": "naval-yard"
            }
          ]
        },
        {
          "id": 305,
          "name": "rescue-bravo",
          "class": "socket",
          "x": 2329.826143052843,
          "y": -3981.9122,
          "point": true,
          "properties": [
            {
              "name": "role",
              "type": "string",
              "value": "rescue_zone"
            },
            {
              "name": "anchor_id",
              "type": "string",
              "value": "rescue-bravo"
            },
            {
              "name": "district",
              "type": "string",
              "value": "naval-yard"
            }
          ]
        },
        {
          "id": 306,
          "name": "fuel-military",
          "class": "socket",
          "x": 361.91474066840277,
          "y": -5459.787,
          "point": true,
          "properties": [
            {
              "name": "role",
              "type": "string",
              "value": "prop_pad"
            },
            {
              "name": "anchor_id",
              "type": "string",
              "value": "fuel-military"
            },
            {
              "name": "district",
              "type": "string",
              "value": "alpine-reservoir"
            }
          ]
        },
        {
          "id": 307,
          "name": "rescue-charlie",
          "class": "socket",
          "x": 2329.826143052843,
          "y": -6086.2671,
          "point": true,
          "properties": [
            {
              "name": "role",
              "type": "string",
              "value": "rescue_zone"
            },
            {
              "name": "anchor_id",
              "type": "string",
              "value": "rescue-charlie"
            },
            {
              "name": "district",
              "type": "string",
              "value": "fortress-approach"
            }
          ]
        },
        {
          "id": 308,
          "name": "aa-outer-a",
          "class": "socket",
          "x": 294.05572679307727,
          "y": -2575.8392,
          "point": true,
          "properties": [
            {
              "name": "role",
              "type": "string",
              "value": "aa_pad"
            },
            {
              "name": "anchor_id",
              "type": "string",
              "value": "aa-outer-a"
            },
            {
              "name": "district",
              "type": "string",
              "value": "civil-harbour"
            }
          ]
        },
        {
          "id": 309,
          "name": "aa-outer-b",
          "class": "socket",
          "x": 2295.89663611518,
          "y": -2625.8392,
          "point": true,
          "properties": [
            {
              "name": "role",
              "type": "string",
              "value": "aa_pad"
            },
            {
              "name": "anchor_id",
              "type": "string",
              "value": "aa-outer-b"
            },
            {
              "name": "district",
              "type": "string",
              "value": "civil-harbour"
            }
          ]
        },
        {
          "id": 310,
          "name": "aa-narrows",
          "class": "socket",
          "x": 384.534411960178,
          "y": -2315.9271,
          "point": true,
          "properties": [
            {
              "name": "role",
              "type": "string",
              "value": "aa_pad"
            },
            {
              "name": "anchor_id",
              "type": "string",
              "value": "aa-narrows"
            },
            {
              "name": "district",
              "type": "string",
              "value": "bridge-gateway"
            }
          ]
        },
        {
          "id": 311,
          "name": "aa-cargo-a",
          "class": "socket",
          "x": 282.7458911471897,
          "y": -3131.3049,
          "point": true,
          "properties": [
            {
              "name": "role",
              "type": "string",
              "value": "aa_pad"
            },
            {
              "name": "anchor_id",
              "type": "string",
              "value": "aa-cargo-a"
            },
            {
              "name": "district",
              "type": "string",
              "value": "industrial-harbour"
            }
          ]
        },
        {
          "id": 312,
          "name": "aa-cargo-b",
          "class": "socket",
          "x": 2307.206471761068,
          "y": -3181.3049,
          "point": true,
          "properties": [
            {
              "name": "role",
              "type": "string",
              "value": "aa_pad"
            },
            {
              "name": "anchor_id",
              "type": "string",
              "value": "aa-cargo-b"
            },
            {
              "name": "district",
              "type": "string",
              "value": "industrial-harbour"
            }
          ]
        },
        {
          "id": 313,
          "name": "aa-corridor",
          "class": "socket",
          "x": 339.2950693766276,
          "y": -3544.4122,
          "point": true,
          "properties": [
            {
              "name": "role",
              "type": "string",
              "value": "aa_pad"
            },
            {
              "name": "anchor_id",
              "type": "string",
              "value": "aa-corridor"
            },
            {
              "name": "district",
              "type": "string",
              "value": "naval-yard"
            }
          ]
        },
        {
          "id": 314,
          "name": "aa-breakwater",
          "class": "socket",
          "x": 2250.65729353163,
          "y": -3919.4122,
          "point": true,
          "properties": [
            {
              "name": "role",
              "type": "string",
              "value": "aa_pad"
            },
            {
              "name": "anchor_id",
              "type": "string",
              "value": "aa-breakwater"
            },
            {
              "name": "district",
              "type": "string",
              "value": "naval-yard"
            }
          ]
        },
        {
          "id": 315,
          "name": "aa-yard-a",
          "class": "socket",
          "x": 339.2950693766276,
          "y": -4099.8779,
          "point": true,
          "properties": [
            {
              "name": "role",
              "type": "string",
              "value": "aa_pad"
            },
            {
              "name": "anchor_id",
              "type": "string",
              "value": "aa-yard-a"
            },
            {
              "name": "district",
              "type": "string",
              "value": "mountain-transition"
            }
          ]
        },
        {
          "id": 316,
          "name": "aa-yard-b",
          "class": "socket",
          "x": 2273.276964823405,
          "y": -4274.8779,
          "point": true,
          "properties": [
            {
              "name": "role",
              "type": "string",
              "value": "aa_pad"
            },
            {
              "name": "anchor_id",
              "type": "string",
              "value": "aa-yard-b"
            },
            {
              "name": "district",
              "type": "string",
              "value": "mountain-transition"
            }
          ]
        },
        {
          "id": 317,
          "name": "aa-dam-west",
          "class": "socket",
          "x": 407.1540832519531,
          "y": -5093.7805,
          "point": true,
          "properties": [
            {
              "name": "role",
              "type": "string",
              "value": "aa_pad"
            },
            {
              "name": "anchor_id",
              "type": "string",
              "value": "aa-dam-west"
            },
            {
              "name": "district",
              "type": "string",
              "value": "lower-dam"
            }
          ]
        },
        {
          "id": 318,
          "name": "aa-dam-east",
          "class": "socket",
          "x": 2148.8687727186416,
          "y": -5106.2805,
          "point": true,
          "properties": [
            {
              "name": "role",
              "type": "string",
              "value": "aa_pad"
            },
            {
              "name": "anchor_id",
              "type": "string",
              "value": "aa-dam-east"
            },
            {
              "name": "district",
              "type": "string",
              "value": "lower-dam"
            }
          ]
        },
        {
          "id": 319,
          "name": "aa-fortress",
          "class": "socket",
          "x": 2148.8687727186416,
          "y": -5961.2671,
          "point": true,
          "properties": [
            {
              "name": "role",
              "type": "string",
              "value": "aa_pad"
            },
            {
              "name": "anchor_id",
              "type": "string",
              "value": "aa-fortress"
            },
            {
              "name": "district",
              "type": "string",
              "value": "fortress-approach"
            }
          ]
        },
        {
          "id": 320,
          "name": "missile-outer",
          "class": "socket",
          "x": 226.19671291775174,
          "y": -2850.8392,
          "point": true,
          "properties": [
            {
              "name": "role",
              "type": "string",
              "value": "missile_pad"
            },
            {
              "name": "anchor_id",
              "type": "string",
              "value": "missile-outer"
            },
            {
              "name": "district",
              "type": "string",
              "value": "civil-harbour"
            }
          ]
        },
        {
          "id": 321,
          "name": "missile-cargo",
          "class": "socket",
          "x": 226.19671291775174,
          "y": -3431.3049,
          "point": true,
          "properties": [
            {
              "name": "role",
              "type": "string",
              "value": "missile_pad"
            },
            {
              "name": "anchor_id",
              "type": "string",
              "value": "missile-cargo"
            },
            {
              "name": "district",
              "type": "string",
              "value": "industrial-harbour"
            }
          ]
        },
        {
          "id": 322,
          "name": "missile-corridor",
          "class": "socket",
          "x": 2352.445814344618,
          "y": -3794.4122,
          "point": true,
          "properties": [
            {
              "name": "role",
              "type": "string",
              "value": "missile_pad"
            },
            {
              "name": "anchor_id",
              "type": "string",
              "value": "missile-corridor"
            },
            {
              "name": "district",
              "type": "string",
              "value": "naval-yard"
            }
          ]
        },
        {
          "id": 323,
          "name": "missile-breakwater",
          "class": "socket",
          "x": 282.7458911471897,
          "y": -4324.8779,
          "point": true,
          "properties": [
            {
              "name": "role",
              "type": "string",
              "value": "missile_pad"
            },
            {
              "name": "anchor_id",
              "type": "string",
              "value": "missile-breakwater"
            },
            {
              "name": "district",
              "type": "string",
              "value": "mountain-transition"
            }
          ]
        },
        {
          "id": 324,
          "name": "missile-yard",
          "class": "socket",
          "x": 2261.9671291775176,
          "y": -4596.7468,
          "point": true,
          "properties": [
            {
              "name": "role",
              "type": "string",
              "value": "missile_pad"
            },
            {
              "name": "anchor_id",
              "type": "string",
              "value": "missile-yard"
            },
            {
              "name": "district",
              "type": "string",
              "value": "river-canyon"
            }
          ]
        },
        {
          "id": 325,
          "name": "missile-dam",
          "class": "socket",
          "x": 407.1540832519531,
          "y": -5243.7805,
          "point": true,
          "properties": [
            {
              "name": "role",
              "type": "string",
              "value": "missile_pad"
            },
            {
              "name": "anchor_id",
              "type": "string",
              "value": "missile-dam"
            },
            {
              "name": "district",
              "type": "string",
              "value": "lower-dam"
            }
          ]
        },
        {
          "id": 326,
          "name": "missile-fortress",
          "class": "socket",
          "x": 2239.347457885742,
          "y": -6111.2671,
          "point": true,
          "properties": [
            {
              "name": "role",
              "type": "string",
              "value": "missile_pad"
            },
            {
              "name": "anchor_id",
              "type": "string",
              "value": "missile-fortress"
            },
            {
              "name": "district",
              "type": "string",
              "value": "fortress-approach"
            }
          ]
        },
        {
          "id": 327,
          "name": "dock-outer-a",
          "class": "socket",
          "x": 927.4065229627821,
          "y": -2713.3392,
          "point": true,
          "properties": [
            {
              "name": "role",
              "type": "string",
              "value": "dock"
            },
            {
              "name": "anchor_id",
              "type": "string",
              "value": "dock-outer-a"
            },
            {
              "name": "district",
              "type": "string",
              "value": "civil-harbour"
            }
          ]
        },
        {
          "id": 328,
          "name": "dock-outer-b",
          "class": "socket",
          "x": 1673.8556755913628,
          "y": -2750.8392,
          "point": true,
          "properties": [
            {
              "name": "role",
              "type": "string",
              "value": "dock"
            },
            {
              "name": "anchor_id",
              "type": "string",
              "value": "dock-outer-b"
            },
            {
              "name": "district",
              "type": "string",
              "value": "civil-harbour"
            }
          ]
        },
        {
          "id": 329,
          "name": "dock-cargo-a",
          "class": "socket",
          "x": 995.2655368381077,
          "y": -3181.3049,
          "point": true,
          "properties": [
            {
              "name": "role",
              "type": "string",
              "value": "dock"
            },
            {
              "name": "anchor_id",
              "type": "string",
              "value": "dock-cargo-a"
            },
            {
              "name": "district",
              "type": "string",
              "value": "industrial-harbour"
            }
          ]
        },
        {
          "id": 330,
          "name": "dock-cargo-b",
          "class": "socket",
          "x": 1605.9966617160374,
          "y": -3281.3049,
          "point": true,
          "properties": [
            {
              "name": "role",
              "type": "string",
              "value": "dock"
            },
            {
              "name": "anchor_id",
              "type": "string",
              "value": "dock-cargo-b"
            },
            {
              "name": "district",
              "type": "string",
              "value": "industrial-harbour"
            }
          ]
        },
        {
          "id": 331,
          "name": "dock-yard-a",
          "class": "socket",
          "x": 1063.124550713433,
          "y": -3624.4122,
          "point": true,
          "properties": [
            {
              "name": "role",
              "type": "string",
              "value": "dock"
            },
            {
              "name": "anchor_id",
              "type": "string",
              "value": "dock-yard-a"
            },
            {
              "name": "district",
              "type": "string",
              "value": "naval-yard"
            }
          ]
        },
        {
          "id": 332,
          "name": "dock-yard-b",
          "class": "socket",
          "x": 1560.757319132487,
          "y": -3724.4122,
          "point": true,
          "properties": [
            {
              "name": "role",
              "type": "string",
              "value": "dock"
            },
            {
              "name": "anchor_id",
              "type": "string",
              "value": "dock-yard-b"
            },
            {
              "name": "district",
              "type": "string",
              "value": "naval-yard"
            }
          ]
        },
        {
          "id": 333,
          "name": "dock-yard-c",
          "class": "socket",
          "x": 972.6458655463325,
          "y": -3849.4122,
          "point": true,
          "properties": [
            {
              "name": "role",
              "type": "string",
              "value": "dock"
            },
            {
              "name": "anchor_id",
              "type": "string",
              "value": "dock-yard-c"
            },
            {
              "name": "district",
              "type": "string",
              "value": "naval-yard"
            }
          ]
        },
        {
          "id": 334,
          "name": "dock-yard-d",
          "class": "socket",
          "x": 1583.3769904242622,
          "y": -3909.4122,
          "point": true,
          "properties": [
            {
              "name": "role",
              "type": "string",
              "value": "dock"
            },
            {
              "name": "anchor_id",
              "type": "string",
              "value": "dock-yard-d"
            },
            {
              "name": "district",
              "type": "string",
              "value": "naval-yard"
            }
          ]
        },
        {
          "id": 335,
          "name": "water-narrows",
          "class": "socket",
          "x": 1300.6310992770725,
          "y": -2265.9271,
          "point": true,
          "properties": [
            {
              "name": "role",
              "type": "string",
              "value": "water_lane"
            },
            {
              "name": "anchor_id",
              "type": "string",
              "value": "water-narrows"
            },
            {
              "name": "district",
              "type": "string",
              "value": "bridge-gateway"
            }
          ]
        },
        {
          "id": 336,
          "name": "water-cargo-1",
          "class": "socket",
          "x": 1300.6310992770725,
          "y": -2975.8392,
          "point": true,
          "properties": [
            {
              "name": "role",
              "type": "string",
              "value": "water_lane"
            },
            {
              "name": "anchor_id",
              "type": "string",
              "value": "water-cargo-1"
            },
            {
              "name": "district",
              "type": "string",
              "value": "civil-harbour"
            }
          ]
        },
        {
          "id": 337,
          "name": "water-cargo-2",
          "class": "socket",
          "x": 1300.6310992770725,
          "y": -3381.3049,
          "point": true,
          "properties": [
            {
              "name": "role",
              "type": "string",
              "value": "water_lane"
            },
            {
              "name": "anchor_id",
              "type": "string",
              "value": "water-cargo-2"
            },
            {
              "name": "district",
              "type": "string",
              "value": "industrial-harbour"
            }
          ]
        },
        {
          "id": 338,
          "name": "water-breakwater",
          "class": "socket",
          "x": 1300.6310992770725,
          "y": -3919.4122,
          "point": true,
          "properties": [
            {
              "name": "role",
              "type": "string",
              "value": "water_lane"
            },
            {
              "name": "anchor_id",
              "type": "string",
              "value": "water-breakwater"
            },
            {
              "name": "district",
              "type": "string",
              "value": "naval-yard"
            }
          ]
        },
        {
          "id": 339,
          "name": "water-yard",
          "class": "socket",
          "x": 1300.6310992770725,
          "y": -4374.8779,
          "point": true,
          "properties": [
            {
              "name": "role",
              "type": "string",
              "value": "water_lane"
            },
            {
              "name": "anchor_id",
              "type": "string",
              "value": "water-yard"
            },
            {
              "name": "district",
              "type": "string",
              "value": "mountain-transition"
            }
          ]
        },
        {
          "id": 340,
          "name": "water-basin",
          "class": "socket",
          "x": 1300.6310992770725,
          "y": -4546.7468,
          "point": true,
          "properties": [
            {
              "name": "role",
              "type": "string",
              "value": "water_lane"
            },
            {
              "name": "anchor_id",
              "type": "string",
              "value": "water-basin"
            },
            {
              "name": "district",
              "type": "string",
              "value": "river-canyon"
            }
          ]
        },
        {
          "id": 341,
          "name": "water-reservoir",
          "class": "socket",
          "x": 1300.6310992770725,
          "y": -5384.787,
          "point": true,
          "properties": [
            {
              "name": "role",
              "type": "string",
              "value": "water_lane"
            },
            {
              "name": "anchor_id",
              "type": "string",
              "value": "water-reservoir"
            },
            {
              "name": "district",
              "type": "string",
              "value": "alpine-reservoir"
            }
          ]
        },
        {
          "id": 342,
          "name": "water-frozen",
          "class": "socket",
          "x": 1300.6310992770725,
          "y": -5841.7358,
          "point": true,
          "properties": [
            {
              "name": "role",
              "type": "string",
              "value": "water_lane"
            },
            {
              "name": "anchor_id",
              "type": "string",
              "value": "water-frozen"
            },
            {
              "name": "district",
              "type": "string",
              "value": "frozen-valley"
            }
          ]
        },
        {
          "id": 343,
          "name": "water-citadel",
          "class": "socket",
          "x": 1300.6310992770725,
          "y": -6117.7216,
          "point": true,
          "properties": [
            {
              "name": "role",
              "type": "string",
              "value": "water_lane"
            },
            {
              "name": "anchor_id",
              "type": "string",
              "value": "water-citadel"
            },
            {
              "name": "district",
              "type": "string",
              "value": "citadel-basin"
            }
          ]
        },
        {
          "id": 344,
          "name": "boss-anchor-mid",
          "class": "socket",
          "x": 1300.6310992770725,
          "y": -4324.8779,
          "point": true,
          "properties": [
            {
              "name": "role",
              "type": "string",
              "value": "boss_anchor"
            },
            {
              "name": "anchor_id",
              "type": "string",
              "value": "boss-anchor-mid"
            },
            {
              "name": "district",
              "type": "string",
              "value": "mountain-transition"
            }
          ]
        },
        {
          "id": 345,
          "name": "boss-anchor-final",
          "class": "socket",
          "x": 1300.6310992770725,
          "y": -6167.7216,
          "point": true,
          "properties": [
            {
              "name": "role",
              "type": "string",
              "value": "boss_anchor"
            },
            {
              "name": "anchor_id",
              "type": "string",
              "value": "boss-anchor-final"
            },
            {
              "name": "district",
              "type": "string",
              "value": "citadel-basin"
            }
          ]
        },
        {
          "id": 346,
          "name": "rescue-dam",
          "class": "socket",
          "x": 407.1540832519531,
          "y": -5118.7805,
          "point": true,
          "properties": [
            {
              "name": "role",
              "type": "string",
              "value": "rescue_zone"
            },
            {
              "name": "anchor_id",
              "type": "string",
              "value": "rescue-dam"
            },
            {
              "name": "district",
              "type": "string",
              "value": "lower-dam"
            }
          ]
        },
        {
          "id": 347,
          "name": "rescue-fortress",
          "class": "socket",
          "x": 2329.826143052843,
          "y": -6011.2671,
          "point": true,
          "properties": [
            {
              "name": "role",
              "type": "string",
              "value": "rescue_zone"
            },
            {
              "name": "anchor_id",
              "type": "string",
              "value": "rescue-fortress"
            },
            {
              "name": "district",
              "type": "string",
              "value": "fortress-approach"
            }
          ]
        },
        {
          "id": 348,
          "name": "fuel-alpine",
          "class": "socket",
          "x": 361.91474066840277,
          "y": -5384.787,
          "point": true,
          "properties": [
            {
              "name": "role",
              "type": "string",
              "value": "prop_pad"
            },
            {
              "name": "anchor_id",
              "type": "string",
              "value": "fuel-alpine"
            },
            {
              "name": "district",
              "type": "string",
              "value": "alpine-reservoir"
            }
          ]
        },
        {
          "id": 349,
          "name": "aa-coastal-gate",
          "class": "socket",
          "x": 418.4639188978407,
          "y": -1452.063,
          "point": true,
          "properties": [
            {
              "name": "role",
              "type": "string",
              "value": "aa_pad"
            },
            {
              "name": "anchor_id",
              "type": "string",
              "value": "aa-coastal-gate"
            },
            {
              "name": "district",
              "type": "string",
              "value": "coastal-narrows"
            }
          ]
        },
        {
          "id": 350,
          "name": "water-coastal-gate",
          "class": "socket",
          "x": 1300.6310992770725,
          "y": -1452.063,
          "point": true,
          "properties": [
            {
              "name": "role",
              "type": "string",
              "value": "water_lane"
            },
            {
              "name": "anchor_id",
              "type": "string",
              "value": "water-coastal-gate"
            },
            {
              "name": "district",
              "type": "string",
              "value": "coastal-narrows"
            }
          ]
        },
        {
          "id": 355,
          "name": "boss-breakwater-arena",
          "type": "",
          "class": "",
          "x": 1302.89306640625,
          "y": -4958.7805,
          "width": 0,
          "height": 0,
          "rotation": 0,
          "visible": true,
          "properties": [
            {
              "name": "anchor_id",
              "type": "string",
              "value": "boss-breakwater-arena"
            },
            {
              "name": "district",
              "type": "string",
              "value": "lower-dam"
            },
            {
              "name": "role",
              "type": "string",
              "value": "boss_zone"
            }
          ]
        },
        {
          "id": 356,
          "name": "boss-citadel-arena",
          "type": "",
          "class": "",
          "x": 1302.89306640625,
          "y": -6232.7216,
          "width": 0,
          "height": 0,
          "rotation": 0,
          "visible": true,
          "properties": [
            {
              "name": "anchor_id",
              "type": "string",
              "value": "boss-citadel-arena"
            },
            {
              "name": "district",
              "type": "string",
              "value": "citadel-basin"
            },
            {
              "name": "role",
              "type": "string",
              "value": "boss_zone"
            }
          ]
        }
      ]
    },
    {
      "id": 14,
      "name": "Reference Trace",
      "type": "objectgroup",
      "draworder": "topdown",
      "visible": true,
      "opacity": 1,
      "x": 0,
      "y": 0,
      "objects": [
        {
          "id": 140,
          "name": "west-reference-bank",
          "class": "reference",
          "x": 0.0,
          "y": 0.0,
          "polyline": [
            {
              "x": 450.8544921875,
              "y": -1405.126953125
            },
            {
              "x": 466.1376953125,
              "y": -1481.54296875
            },
            {
              "x": 481.4208984375,
              "y": -1557.958984375
            },
            {
              "x": 519.62890625,
              "y": -1653.47900390625
            },
            {
              "x": 557.8369140625,
              "y": -1748.9990234375
            },
            {
              "x": 588.4033203125,
              "y": -1844.51904296875
            },
            {
              "x": 618.9697265625,
              "y": -1940.0390625
            },
            {
              "x": 649.5361328125,
              "y": -2035.55908203125
            },
            {
              "x": 680.1025390625,
              "y": -2131.0791015625
            },
            {
              "x": 699.20654296875,
              "y": -2226.59912109375
            },
            {
              "x": 718.310546875,
              "y": -2322.119140625
            },
            {
              "x": 737.41455078125,
              "y": -2417.63916015625
            },
            {
              "x": 756.5185546875,
              "y": -2513.1591796875
            },
            {
              "x": 773.712158203125,
              "y": -2608.67919921875
            },
            {
              "x": 790.90576171875,
              "y": -2704.19921875
            },
            {
              "x": 779.443359375,
              "y": -2799.71923828125
            },
            {
              "x": 767.98095703125,
              "y": -2895.2392578125
            },
            {
              "x": 785.174560546875,
              "y": -2990.75927734375
            },
            {
              "x": 802.3681640625,
              "y": -3086.279296875
            },
            {
              "x": 825.29296875,
              "y": -3181.79931640625
            },
            {
              "x": 848.2177734375,
              "y": -3277.3193359375
            },
            {
              "x": 867.32177734375,
              "y": -3372.83935546875
            },
            {
              "x": 886.42578125,
              "y": -3468.359375
            },
            {
              "x": 915.081787109375,
              "y": -3563.87939453125
            },
            {
              "x": 943.73779296875,
              "y": -3659.3994140625
            },
            {
              "x": 959.02099609375,
              "y": -3754.91943359375
            },
            {
              "x": 974.30419921875,
              "y": -3850.439453125
            },
            {
              "x": 987.677001953125,
              "y": -3945.95947265625
            },
            {
              "x": 1001.0498046875,
              "y": -4041.4794921875
            },
            {
              "x": 1006.781005859375,
              "y": -4136.99951171875
            },
            {
              "x": 1012.51220703125,
              "y": -4232.51953125
            },
            {
              "x": 1039.2578125,
              "y": -4328.03955078125
            },
            {
              "x": 1066.00341796875,
              "y": -4423.5595703125
            },
            {
              "x": 1079.376220703125,
              "y": -4519.07958984375
            },
            {
              "x": 1092.7490234375,
              "y": -4614.599609375
            },
            {
              "x": 1079.376220703125,
              "y": -4710.11962890625
            },
            {
              "x": 1066.00341796875,
              "y": -4805.6396484375
            },
            {
              "x": 1079.376220703125,
              "y": -4901.15966796875
            },
            {
              "x": 1092.7490234375,
              "y": -4996.6796875
            },
            {
              "x": 1069.82421875,
              "y": -5092.19970703125
            },
            {
              "x": 1046.8994140625,
              "y": -5187.7197265625
            },
            {
              "x": 1014.422607421875,
              "y": -5283.23974609375
            },
            {
              "x": 981.94580078125,
              "y": -5378.759765625
            },
            {
              "x": 936.09619140625,
              "y": -5455.17578125
            },
            {
              "x": 863.5009765625,
              "y": -5569.7998046875
            },
            {
              "x": 806.18896484375,
              "y": -5684.423828125
            },
            {
              "x": 773.712158203125,
              "y": -5760.83984375
            },
            {
              "x": 741.2353515625,
              "y": -5837.255859375
            },
            {
              "x": 718.310546875,
              "y": -5913.671875
            },
            {
              "x": 695.3857421875,
              "y": -5990.087890625
            },
            {
              "x": 703.02734375,
              "y": -6066.50390625
            },
            {
              "x": 710.6689453125,
              "y": -6142.919921875
            },
            {
              "x": 735.504150390625,
              "y": -6219.3359375
            },
            {
              "x": 760.33935546875,
              "y": -6295.751953125
            },
            {
              "x": 792.816162109375,
              "y": -6372.16796875
            },
            {
              "x": 825.29296875,
              "y": -6448.583984375
            },
            {
              "x": 863.5009765625,
              "y": -6525.0
            }
          ],
          "properties": [
            {
              "name": "source",
              "type": "string",
              "value": "approved-master-reference"
            }
          ]
        },
        {
          "id": 141,
          "name": "east-reference-bank",
          "class": "reference",
          "x": 0.0,
          "y": 0.0,
          "polyline": [
            {
              "x": 2093.798828125,
              "y": -1405.126953125
            },
            {
              "x": 2082.33642578125,
              "y": -1481.54296875
            },
            {
              "x": 2070.8740234375,
              "y": -1557.958984375
            },
            {
              "x": 2046.038818359375,
              "y": -1653.47900390625
            },
            {
              "x": 2021.20361328125,
              "y": -1748.9990234375
            },
            {
              "x": 1996.368408203125,
              "y": -1844.51904296875
            },
            {
              "x": 1971.533203125,
              "y": -1940.0390625
            },
            {
              "x": 1946.697998046875,
              "y": -2035.55908203125
            },
            {
              "x": 1921.86279296875,
              "y": -2131.0791015625
            },
            {
              "x": 1906.57958984375,
              "y": -2226.59912109375
            },
            {
              "x": 1891.29638671875,
              "y": -2322.119140625
            },
            {
              "x": 1874.102783203125,
              "y": -2417.63916015625
            },
            {
              "x": 1856.9091796875,
              "y": -2513.1591796875
            },
            {
              "x": 1841.6259765625,
              "y": -2608.67919921875
            },
            {
              "x": 1826.3427734375,
              "y": -2704.19921875
            },
            {
              "x": 1841.6259765625,
              "y": -2799.71923828125
            },
            {
              "x": 1856.9091796875,
              "y": -2895.2392578125
            },
            {
              "x": 1833.984375,
              "y": -2990.75927734375
            },
            {
              "x": 1811.0595703125,
              "y": -3086.279296875
            },
            {
              "x": 1788.134765625,
              "y": -3181.79931640625
            },
            {
              "x": 1765.2099609375,
              "y": -3277.3193359375
            },
            {
              "x": 1746.10595703125,
              "y": -3372.83935546875
            },
            {
              "x": 1727.001953125,
              "y": -3468.359375
            },
            {
              "x": 1705.987548828125,
              "y": -3563.87939453125
            },
            {
              "x": 1684.97314453125,
              "y": -3659.3994140625
            },
            {
              "x": 1667.779541015625,
              "y": -3754.91943359375
            },
            {
              "x": 1650.5859375,
              "y": -3850.439453125
            },
            {
              "x": 1637.213134765625,
              "y": -3945.95947265625
            },
            {
              "x": 1623.84033203125,
              "y": -4041.4794921875
            },
            {
              "x": 1612.3779296875,
              "y": -4136.99951171875
            },
            {
              "x": 1600.91552734375,
              "y": -4232.51953125
            },
            {
              "x": 1574.169921875,
              "y": -4328.03955078125
            },
            {
              "x": 1547.42431640625,
              "y": -4423.5595703125
            },
            {
              "x": 1534.051513671875,
              "y": -4519.07958984375
            },
            {
              "x": 1520.6787109375,
              "y": -4614.599609375
            },
            {
              "x": 1532.14111328125,
              "y": -4710.11962890625
            },
            {
              "x": 1543.603515625,
              "y": -4805.6396484375
            },
            {
              "x": 1528.3203125,
              "y": -4901.15966796875
            },
            {
              "x": 1513.037109375,
              "y": -4996.6796875
            },
            {
              "x": 1535.9619140625,
              "y": -5092.19970703125
            },
            {
              "x": 1558.88671875,
              "y": -5187.7197265625
            },
            {
              "x": 1591.363525390625,
              "y": -5283.23974609375
            },
            {
              "x": 1623.84033203125,
              "y": -5378.759765625
            },
            {
              "x": 1673.5107421875,
              "y": -5455.17578125
            },
            {
              "x": 1746.10595703125,
              "y": -5569.7998046875
            },
            {
              "x": 1803.41796875,
              "y": -5684.423828125
            },
            {
              "x": 1835.894775390625,
              "y": -5760.83984375
            },
            {
              "x": 1868.37158203125,
              "y": -5837.255859375
            },
            {
              "x": 1895.1171875,
              "y": -5913.671875
            },
            {
              "x": 1921.86279296875,
              "y": -5990.087890625
            },
            {
              "x": 1914.22119140625,
              "y": -6066.50390625
            },
            {
              "x": 1906.57958984375,
              "y": -6142.919921875
            },
            {
              "x": 1877.923583984375,
              "y": -6219.3359375
            },
            {
              "x": 1849.267578125,
              "y": -6295.751953125
            },
            {
              "x": 1818.701171875,
              "y": -6372.16796875
            },
            {
              "x": 1788.134765625,
              "y": -6448.583984375
            },
            {
              "x": 1749.9267578125,
              "y": -6525.0
            }
          ],
          "properties": [
            {
              "name": "source",
              "type": "string",
              "value": "approved-master-reference"
            }
          ]
        },
        {
          "id": 142,
          "name": "water-spine",
          "class": "reference",
          "x": 0.0,
          "y": 0.0,
          "polyline": [
            {
              "x": 1272.32666015625,
              "y": -1405.126953125
            },
            {
              "x": 1274.237060546875,
              "y": -1481.54296875
            },
            {
              "x": 1276.1474609375,
              "y": -1557.958984375
            },
            {
              "x": 1282.8338623046875,
              "y": -1653.47900390625
            },
            {
              "x": 1289.520263671875,
              "y": -1748.9990234375
            },
            {
              "x": 1292.3858642578125,
              "y": -1844.51904296875
            },
            {
              "x": 1295.25146484375,
              "y": -1940.0390625
            },
            {
              "x": 1298.1170654296875,
              "y": -2035.55908203125
            },
            {
              "x": 1300.982666015625,
              "y": -2131.0791015625
            },
            {
              "x": 1302.89306640625,
              "y": -2226.59912109375
            },
            {
              "x": 1304.803466796875,
              "y": -2322.119140625
            },
            {
              "x": 1305.7586669921875,
              "y": -2417.63916015625
            },
            {
              "x": 1306.7138671875,
              "y": -2513.1591796875
            },
            {
              "x": 1307.6690673828125,
              "y": -2608.67919921875
            },
            {
              "x": 1308.624267578125,
              "y": -2704.19921875
            },
            {
              "x": 1310.53466796875,
              "y": -2799.71923828125
            },
            {
              "x": 1312.445068359375,
              "y": -2895.2392578125
            },
            {
              "x": 1309.5794677734375,
              "y": -2990.75927734375
            },
            {
              "x": 1306.7138671875,
              "y": -3086.279296875
            },
            {
              "x": 1306.7138671875,
              "y": -3181.79931640625
            },
            {
              "x": 1306.7138671875,
              "y": -3277.3193359375
            },
            {
              "x": 1306.7138671875,
              "y": -3372.83935546875
            },
            {
              "x": 1306.7138671875,
              "y": -3468.359375
            },
            {
              "x": 1310.53466796875,
              "y": -3563.87939453125
            },
            {
              "x": 1314.35546875,
              "y": -3659.3994140625
            },
            {
              "x": 1313.4002685546875,
              "y": -3754.91943359375
            },
            {
              "x": 1312.445068359375,
              "y": -3850.439453125
            },
            {
              "x": 1312.445068359375,
              "y": -3945.95947265625
            },
            {
              "x": 1312.445068359375,
              "y": -4041.4794921875
            },
            {
              "x": 1309.5794677734375,
              "y": -4136.99951171875
            },
            {
              "x": 1306.7138671875,
              "y": -4232.51953125
            },
            {
              "x": 1306.7138671875,
              "y": -4328.03955078125
            },
            {
              "x": 1306.7138671875,
              "y": -4423.5595703125
            },
            {
              "x": 1306.7138671875,
              "y": -4519.07958984375
            },
            {
              "x": 1306.7138671875,
              "y": -4614.599609375
            },
            {
              "x": 1305.7586669921875,
              "y": -4710.11962890625
            },
            {
              "x": 1304.803466796875,
              "y": -4805.6396484375
            },
            {
              "x": 1303.8482666015625,
              "y": -4901.15966796875
            },
            {
              "x": 1302.89306640625,
              "y": -4996.6796875
            },
            {
              "x": 1302.89306640625,
              "y": -5092.19970703125
            },
            {
              "x": 1302.89306640625,
              "y": -5187.7197265625
            },
            {
              "x": 1302.89306640625,
              "y": -5283.23974609375
            },
            {
              "x": 1302.89306640625,
              "y": -5378.759765625
            },
            {
              "x": 1304.803466796875,
              "y": -5455.17578125
            },
            {
              "x": 1304.803466796875,
              "y": -5569.7998046875
            },
            {
              "x": 1304.803466796875,
              "y": -5684.423828125
            },
            {
              "x": 1304.803466796875,
              "y": -5760.83984375
            },
            {
              "x": 1304.803466796875,
              "y": -5837.255859375
            },
            {
              "x": 1306.7138671875,
              "y": -5913.671875
            },
            {
              "x": 1308.624267578125,
              "y": -5990.087890625
            },
            {
              "x": 1308.624267578125,
              "y": -6066.50390625
            },
            {
              "x": 1308.624267578125,
              "y": -6142.919921875
            },
            {
              "x": 1306.7138671875,
              "y": -6219.3359375
            },
            {
              "x": 1304.803466796875,
              "y": -6295.751953125
            },
            {
              "x": 1305.7586669921875,
              "y": -6372.16796875
            },
            {
              "x": 1306.7138671875,
              "y": -6448.583984375
            },
            {
              "x": 1306.7138671875,
              "y": -6525.0
            }
          ],
          "properties": [
            {
              "name": "source",
              "type": "string",
              "value": "approved-master-reference"
            }
          ]
        }
      ]
    },
    {
      "id": 15,
      "name": "Atmosphere Zones",
      "type": "objectgroup",
      "draworder": "topdown",
      "visible": true,
      "opacity": 1,
      "x": 0,
      "y": 0,
      "objects": [
        {
          "id": 278,
          "name": "ocean-haze",
          "class": "atmosphere",
          "x": 0.0,
          "y": -52.4658,
          "width": 2605.7861328125,
          "height": 1075.0,
          "properties": [
            {
              "name": "kind",
              "type": "string",
              "value": "tropical-haze"
            },
            {
              "name": "cloud_density",
              "type": "float",
              "value": 0.22
            },
            {
              "name": "shadow_opacity",
              "type": "float",
              "value": 0.08
            },
            {
              "name": "fog_alpha",
              "type": "float",
              "value": 0.02
            },
            {
              "name": "speed",
              "type": "int",
              "value": 10
            }
          ]
        },
        {
          "id": 279,
          "name": "island-clouds",
          "class": "atmosphere",
          "x": 0.0,
          "y": -1487.6068,
          "width": 2605.7861328125,
          "height": 1050.0,
          "properties": [
            {
              "name": "kind",
              "type": "string",
              "value": "coastal-clouds"
            },
            {
              "name": "cloud_density",
              "type": "float",
              "value": 0.35
            },
            {
              "name": "shadow_opacity",
              "type": "float",
              "value": 0.12
            },
            {
              "name": "fog_alpha",
              "type": "float",
              "value": 0.035
            },
            {
              "name": "speed",
              "type": "int",
              "value": 12
            }
          ]
        },
        {
          "id": 280,
          "name": "harbour-haze",
          "class": "atmosphere",
          "x": 0.0,
          "y": -4081.3049,
          "width": 2605.7861328125,
          "height": 2050.0,
          "properties": [
            {
              "name": "kind",
              "type": "string",
              "value": "harbour-haze"
            },
            {
              "name": "cloud_density",
              "type": "float",
              "value": 0.25
            },
            {
              "name": "shadow_opacity",
              "type": "float",
              "value": 0.1
            },
            {
              "name": "fog_alpha",
              "type": "float",
              "value": 0.045
            },
            {
              "name": "speed",
              "type": "int",
              "value": 8
            }
          ]
        },
        {
          "id": 281,
          "name": "mountain-mist",
          "class": "atmosphere",
          "x": 0.0,
          "y": -4996.7468,
          "width": 2605.7861328125,
          "height": 1100.0,
          "properties": [
            {
              "name": "kind",
              "type": "string",
              "value": "mountain-mist"
            },
            {
              "name": "cloud_density",
              "type": "float",
              "value": 0.52
            },
            {
              "name": "shadow_opacity",
              "type": "float",
              "value": 0.14
            },
            {
              "name": "fog_alpha",
              "type": "float",
              "value": 0.08
            },
            {
              "name": "speed",
              "type": "int",
              "value": 7
            }
          ]
        },
        {
          "id": 282,
          "name": "dam-spray",
          "class": "atmosphere",
          "x": 0.0,
          "y": -5343.7805,
          "width": 2605.7861328125,
          "height": 400.0,
          "properties": [
            {
              "name": "kind",
              "type": "string",
              "value": "dam-spray"
            },
            {
              "name": "cloud_density",
              "type": "float",
              "value": 0.62
            },
            {
              "name": "shadow_opacity",
              "type": "float",
              "value": 0.16
            },
            {
              "name": "fog_alpha",
              "type": "float",
              "value": 0.1
            },
            {
              "name": "speed",
              "type": "int",
              "value": 5
            }
          ]
        },
        {
          "id": 283,
          "name": "alpine-clouds",
          "class": "atmosphere",
          "x": 0.0,
          "y": -5734.787,
          "width": 2605.7861328125,
          "height": 500.0,
          "properties": [
            {
              "name": "kind",
              "type": "string",
              "value": "alpine-clouds"
            },
            {
              "name": "cloud_density",
              "type": "float",
              "value": 0.6
            },
            {
              "name": "shadow_opacity",
              "type": "float",
              "value": 0.17
            },
            {
              "name": "fog_alpha",
              "type": "float",
              "value": 0.09
            },
            {
              "name": "speed",
              "type": "int",
              "value": 6
            }
          ]
        },
        {
          "id": 284,
          "name": "snow-clouds",
          "class": "atmosphere",
          "x": 0.0,
          "y": -6861.2671,
          "width": 2605.7861328125,
          "height": 1650.0,
          "properties": [
            {
              "name": "kind",
              "type": "string",
              "value": "snow-clouds"
            },
            {
              "name": "cloud_density",
              "type": "float",
              "value": 0.82
            },
            {
              "name": "shadow_opacity",
              "type": "float",
              "value": 0.2
            },
            {
              "name": "fog_alpha",
              "type": "float",
              "value": 0.12
            },
            {
              "name": "speed",
              "type": "int",
              "value": 9
            }
          ]
        }
      ]
    },
    {
      "id": 16,
      "name": "Water Regions",
      "type": "objectgroup",
      "draworder": "topdown",
      "opacity": 1,
      "visible": true,
      "x": 0,
      "y": 0,
      "objects": [
        {
          "id": 351,
          "name": "open-coastal-water",
          "type": "",
          "class": "",
          "x": 0.0,
          "y": 0.0,
          "width": 0,
          "height": 0,
          "rotation": 0,
          "visible": true,
          "polygon": [
            {
              "x": 0.0,
              "y": 1300.0
            },
            {
              "x": 2605.7861328125,
              "y": 1300.0
            },
            {
              "x": 2605.7861328125,
              "y": -3995.6298828125
            },
            {
              "x": 0.0,
              "y": -3995.6298828125
            }
          ],
          "properties": [
            {
              "name": "district_id",
              "type": "string",
              "value": "multi-district"
            },
            {
              "name": "body_id",
              "type": "string",
              "value": "coastal-river"
            },
            {
              "name": "depth_class",
              "type": "string",
              "value": "deep"
            },
            {
              "name": "flow_x",
              "type": "float",
              "value": 0.0
            },
            {
              "name": "flow_y",
              "type": "float",
              "value": -7.0
            },
            {
              "name": "ice_coverage",
              "type": "float",
              "value": 0.0
            }
          ]
        },
        {
          "id": 352,
          "name": "canyon-river-water",
          "type": "",
          "class": "",
          "x": 0.0,
          "y": 0.0,
          "width": 0,
          "height": 0,
          "rotation": 0,
          "visible": true,
          "polygon": [
            {
              "x": 0.0,
              "y": -3995.6298828125
            },
            {
              "x": 2605.7861328125,
              "y": -3995.6298828125
            },
            {
              "x": 2605.7861328125,
              "y": -5195.361328125
            },
            {
              "x": 0.0,
              "y": -5195.361328125
            }
          ],
          "properties": [
            {
              "name": "district_id",
              "type": "string",
              "value": "multi-district"
            },
            {
              "name": "body_id",
              "type": "string",
              "value": "coastal-river"
            },
            {
              "name": "depth_class",
              "type": "string",
              "value": "river"
            },
            {
              "name": "flow_x",
              "type": "float",
              "value": 0.0
            },
            {
              "name": "flow_y",
              "type": "float",
              "value": 14.0
            },
            {
              "name": "ice_coverage",
              "type": "float",
              "value": 0.0
            }
          ]
        },
        {
          "id": 353,
          "name": "reservoir-water",
          "type": "",
          "class": "",
          "x": 0.0,
          "y": 0.0,
          "width": 0,
          "height": 0,
          "rotation": 0,
          "visible": true,
          "polygon": [
            {
              "x": 0.0,
              "y": -5195.361328125
            },
            {
              "x": 2605.7861328125,
              "y": -5195.361328125
            },
            {
              "x": 2605.7861328125,
              "y": -5621.380615234375
            },
            {
              "x": 0.0,
              "y": -5621.380615234375
            }
          ],
          "properties": [
            {
              "name": "district_id",
              "type": "string",
              "value": "multi-district"
            },
            {
              "name": "body_id",
              "type": "string",
              "value": "alpine-reservoir"
            },
            {
              "name": "depth_class",
              "type": "string",
              "value": "shallow"
            },
            {
              "name": "flow_x",
              "type": "float",
              "value": 0.0
            },
            {
              "name": "flow_y",
              "type": "float",
              "value": 2.0
            },
            {
              "name": "ice_coverage",
              "type": "float",
              "value": 0.0
            }
          ]
        },
        {
          "id": 354,
          "name": "frozen-reservoir-water",
          "type": "",
          "class": "",
          "x": 0.0,
          "y": 0.0,
          "width": 0,
          "height": 0,
          "rotation": 0,
          "visible": true,
          "polygon": [
            {
              "x": 0.0,
              "y": -5621.380615234375
            },
            {
              "x": 2605.7861328125,
              "y": -5621.380615234375
            },
            {
              "x": 2605.7861328125,
              "y": -6525.0
            },
            {
              "x": 0.0,
              "y": -6525.0
            }
          ],
          "properties": [
            {
              "name": "district_id",
              "type": "string",
              "value": "multi-district"
            },
            {
              "name": "body_id",
              "type": "string",
              "value": "alpine-reservoir"
            },
            {
              "name": "depth_class",
              "type": "string",
              "value": "river"
            },
            {
              "name": "flow_x",
              "type": "float",
              "value": 0.0
            },
            {
              "name": "flow_y",
              "type": "float",
              "value": 1.0
            },
            {
              "name": "ice_coverage",
              "type": "float",
              "value": 0.35
            }
          ]
        }
      ]
    },
    {
      "id": 17,
      "name": "Art Instances",
      "type": "objectgroup",
      "draworder": "topdown",
      "opacity": 1,
      "visible": true,
      "x": 0,
      "y": 0,
      "objects": [
        {
          "id": 357,
          "name": "civil-house-west-a",
          "class": "art-instance",
          "x": 760.0,
          "y": -2785.8392,
          "point": true,
          "rotation": -4.0,
          "visible": true,
          "properties": [
            {
              "name": "asset_id",
              "type": "string",
              "value": "civil-house"
            },
            {
              "name": "district_id",
              "type": "string",
              "value": "civil-harbour"
            },
            {
              "name": "render_layer",
              "type": "string",
              "value": "ground"
            },
            {
              "name": "elevation",
              "type": "float",
              "value": 22.0
            },
            {
              "name": "visual_width",
              "type": "float",
              "value": 180.0
            },
            {
              "name": "visual_height",
              "type": "float",
              "value": 148.0
            },
            {
              "name": "ground_width",
              "type": "float",
              "value": 125.0
            },
            {
              "name": "ground_height",
              "type": "float",
              "value": 70.0
            },
            {
              "name": "state_key",
              "type": "string",
              "value": ""
            }
          ]
        },
        {
          "id": 358,
          "name": "civil-house-west-b",
          "class": "art-instance",
          "x": 890.0,
          "y": -2890.8392,
          "point": true,
          "rotation": 5.0,
          "visible": true,
          "properties": [
            {
              "name": "asset_id",
              "type": "string",
              "value": "civil-house"
            },
            {
              "name": "district_id",
              "type": "string",
              "value": "civil-harbour"
            },
            {
              "name": "render_layer",
              "type": "string",
              "value": "ground"
            },
            {
              "name": "elevation",
              "type": "float",
              "value": 18.0
            },
            {
              "name": "visual_width",
              "type": "float",
              "value": 168.0
            },
            {
              "name": "visual_height",
              "type": "float",
              "value": 138.0
            },
            {
              "name": "ground_width",
              "type": "float",
              "value": 118.0
            },
            {
              "name": "ground_height",
              "type": "float",
              "value": 64.0
            },
            {
              "name": "state_key",
              "type": "string",
              "value": ""
            }
          ]
        },
        {
          "id": 359,
          "name": "civil-house-east-a",
          "class": "art-instance",
          "x": 1845.0,
          "y": -2790.8392,
          "point": true,
          "rotation": 4.0,
          "visible": true,
          "properties": [
            {
              "name": "asset_id",
              "type": "string",
              "value": "civil-house"
            },
            {
              "name": "district_id",
              "type": "string",
              "value": "civil-harbour"
            },
            {
              "name": "render_layer",
              "type": "string",
              "value": "ground"
            },
            {
              "name": "elevation",
              "type": "float",
              "value": 22.0
            },
            {
              "name": "visual_width",
              "type": "float",
              "value": 180.0
            },
            {
              "name": "visual_height",
              "type": "float",
              "value": 148.0
            },
            {
              "name": "ground_width",
              "type": "float",
              "value": 125.0
            },
            {
              "name": "ground_height",
              "type": "float",
              "value": 70.0
            },
            {
              "name": "state_key",
              "type": "string",
              "value": ""
            }
          ]
        },
        {
          "id": 360,
          "name": "civil-house-east-b",
          "class": "art-instance",
          "x": 1715.0,
          "y": -2910.8392,
          "point": true,
          "rotation": -5.0,
          "visible": true,
          "properties": [
            {
              "name": "asset_id",
              "type": "string",
              "value": "civil-house"
            },
            {
              "name": "district_id",
              "type": "string",
              "value": "civil-harbour"
            },
            {
              "name": "render_layer",
              "type": "string",
              "value": "ground"
            },
            {
              "name": "elevation",
              "type": "float",
              "value": 18.0
            },
            {
              "name": "visual_width",
              "type": "float",
              "value": 168.0
            },
            {
              "name": "visual_height",
              "type": "float",
              "value": 138.0
            },
            {
              "name": "ground_width",
              "type": "float",
              "value": 118.0
            },
            {
              "name": "ground_height",
              "type": "float",
              "value": 64.0
            },
            {
              "name": "state_key",
              "type": "string",
              "value": ""
            }
          ]
        },
        {
          "id": 361,
          "name": "civil-service-west",
          "class": "art-instance",
          "x": 760.0,
          "y": -2970.8392,
          "point": true,
          "rotation": -2.0,
          "visible": true,
          "properties": [
            {
              "name": "asset_id",
              "type": "string",
              "value": "industrial-hall"
            },
            {
              "name": "district_id",
              "type": "string",
              "value": "civil-harbour"
            },
            {
              "name": "render_layer",
              "type": "string",
              "value": "ground"
            },
            {
              "name": "elevation",
              "type": "float",
              "value": 20.0
            },
            {
              "name": "visual_width",
              "type": "float",
              "value": 270.0
            },
            {
              "name": "visual_height",
              "type": "float",
              "value": 165.0
            },
            {
              "name": "ground_width",
              "type": "float",
              "value": 210.0
            },
            {
              "name": "ground_height",
              "type": "float",
              "value": 95.0
            },
            {
              "name": "state_key",
              "type": "string",
              "value": ""
            }
          ]
        },
        {
          "id": 362,
          "name": "civil-service-east",
          "class": "art-instance",
          "x": 1840.0,
          "y": -2980.8392,
          "point": true,
          "rotation": 2.0,
          "visible": true,
          "properties": [
            {
              "name": "asset_id",
              "type": "string",
              "value": "industrial-hall"
            },
            {
              "name": "district_id",
              "type": "string",
              "value": "civil-harbour"
            },
            {
              "name": "render_layer",
              "type": "string",
              "value": "ground"
            },
            {
              "name": "elevation",
              "type": "float",
              "value": 20.0
            },
            {
              "name": "visual_width",
              "type": "float",
              "value": 270.0
            },
            {
              "name": "visual_height",
              "type": "float",
              "value": 165.0
            },
            {
              "name": "ground_width",
              "type": "float",
              "value": 210.0
            },
            {
              "name": "ground_height",
              "type": "float",
              "value": 95.0
            },
            {
              "name": "state_key",
              "type": "string",
              "value": ""
            }
          ]
        },
        {
          "id": 363,
          "name": "industrial-hall-west-a",
          "class": "art-instance",
          "x": 470.0,
          "y": -3246.3049,
          "point": true,
          "rotation": 0.0,
          "visible": true,
          "properties": [
            {
              "name": "asset_id",
              "type": "string",
              "value": "industrial-hall"
            },
            {
              "name": "district_id",
              "type": "string",
              "value": "industrial-harbour"
            },
            {
              "name": "render_layer",
              "type": "string",
              "value": "ground"
            },
            {
              "name": "elevation",
              "type": "float",
              "value": 28.0
            },
            {
              "name": "visual_width",
              "type": "float",
              "value": 330.0
            },
            {
              "name": "visual_height",
              "type": "float",
              "value": 202.0
            },
            {
              "name": "ground_width",
              "type": "float",
              "value": 260.0
            },
            {
              "name": "ground_height",
              "type": "float",
              "value": 112.0
            },
            {
              "name": "state_key",
              "type": "string",
              "value": ""
            }
          ]
        },
        {
          "id": 364,
          "name": "industrial-hall-west-b",
          "class": "art-instance",
          "x": 720.0,
          "y": -3416.3049,
          "point": true,
          "rotation": -5.0,
          "visible": true,
          "properties": [
            {
              "name": "asset_id",
              "type": "string",
              "value": "industrial-hall"
            },
            {
              "name": "district_id",
              "type": "string",
              "value": "industrial-harbour"
            },
            {
              "name": "render_layer",
              "type": "string",
              "value": "ground"
            },
            {
              "name": "elevation",
              "type": "float",
              "value": 28.0
            },
            {
              "name": "visual_width",
              "type": "float",
              "value": 315.0
            },
            {
              "name": "visual_height",
              "type": "float",
              "value": 194.0
            },
            {
              "name": "ground_width",
              "type": "float",
              "value": 245.0
            },
            {
              "name": "ground_height",
              "type": "float",
              "value": 108.0
            },
            {
              "name": "state_key",
              "type": "string",
              "value": ""
            }
          ]
        },
        {
          "id": 365,
          "name": "industrial-hall-east-a",
          "class": "art-instance",
          "x": 2080.0,
          "y": -3246.3049,
          "point": true,
          "rotation": 1.0,
          "visible": true,
          "properties": [
            {
              "name": "asset_id",
              "type": "string",
              "value": "industrial-hall"
            },
            {
              "name": "district_id",
              "type": "string",
              "value": "industrial-harbour"
            },
            {
              "name": "render_layer",
              "type": "string",
              "value": "ground"
            },
            {
              "name": "elevation",
              "type": "float",
              "value": 28.0
            },
            {
              "name": "visual_width",
              "type": "float",
              "value": 335.0
            },
            {
              "name": "visual_height",
              "type": "float",
              "value": 205.0
            },
            {
              "name": "ground_width",
              "type": "float",
              "value": 265.0
            },
            {
              "name": "ground_height",
              "type": "float",
              "value": 114.0
            },
            {
              "name": "state_key",
              "type": "string",
              "value": ""
            }
          ]
        },
        {
          "id": 366,
          "name": "industrial-hall-east-b",
          "class": "art-instance",
          "x": 1880.0,
          "y": -3426.3049,
          "point": true,
          "rotation": 5.0,
          "visible": true,
          "properties": [
            {
              "name": "asset_id",
              "type": "string",
              "value": "industrial-hall"
            },
            {
              "name": "district_id",
              "type": "string",
              "value": "industrial-harbour"
            },
            {
              "name": "render_layer",
              "type": "string",
              "value": "ground"
            },
            {
              "name": "elevation",
              "type": "float",
              "value": 28.0
            },
            {
              "name": "visual_width",
              "type": "float",
              "value": 300.0
            },
            {
              "name": "visual_height",
              "type": "float",
              "value": 184.0
            },
            {
              "name": "ground_width",
              "type": "float",
              "value": 235.0
            },
            {
              "name": "ground_height",
              "type": "float",
              "value": 102.0
            },
            {
              "name": "state_key",
              "type": "string",
              "value": ""
            }
          ]
        },
        {
          "id": 367,
          "name": "industrial-crane-west",
          "class": "art-instance",
          "x": 900.0,
          "y": -3431.3049,
          "point": true,
          "rotation": -5.0,
          "visible": true,
          "properties": [
            {
              "name": "asset_id",
              "type": "string",
              "value": "crane"
            },
            {
              "name": "district_id",
              "type": "string",
              "value": "industrial-harbour"
            },
            {
              "name": "render_layer",
              "type": "string",
              "value": "elevated"
            },
            {
              "name": "elevation",
              "type": "float",
              "value": 75.0
            },
            {
              "name": "visual_width",
              "type": "float",
              "value": 154.0
            },
            {
              "name": "visual_height",
              "type": "float",
              "value": 246.0
            },
            {
              "name": "ground_width",
              "type": "float",
              "value": 80.0
            },
            {
              "name": "ground_height",
              "type": "float",
              "value": 82.0
            },
            {
              "name": "state_key",
              "type": "string",
              "value": ""
            }
          ]
        },
        {
          "id": 368,
          "name": "industrial-crane-east",
          "class": "art-instance",
          "x": 1690.0,
          "y": -3424.3049,
          "point": true,
          "rotation": 5.0,
          "visible": true,
          "properties": [
            {
              "name": "asset_id",
              "type": "string",
              "value": "crane"
            },
            {
              "name": "district_id",
              "type": "string",
              "value": "industrial-harbour"
            },
            {
              "name": "render_layer",
              "type": "string",
              "value": "elevated"
            },
            {
              "name": "elevation",
              "type": "float",
              "value": 75.0
            },
            {
              "name": "visual_width",
              "type": "float",
              "value": 154.0
            },
            {
              "name": "visual_height",
              "type": "float",
              "value": 246.0
            },
            {
              "name": "ground_width",
              "type": "float",
              "value": 80.0
            },
            {
              "name": "ground_height",
              "type": "float",
              "value": 82.0
            },
            {
              "name": "state_key",
              "type": "string",
              "value": ""
            }
          ]
        },
        {
          "id": 369,
          "name": "naval-crane-west",
          "class": "art-instance",
          "x": 690.0,
          "y": -3729.4122,
          "point": true,
          "rotation": -7.0,
          "visible": true,
          "properties": [
            {
              "name": "asset_id",
              "type": "string",
              "value": "crane"
            },
            {
              "name": "district_id",
              "type": "string",
              "value": "naval-yard"
            },
            {
              "name": "render_layer",
              "type": "string",
              "value": "elevated"
            },
            {
              "name": "elevation",
              "type": "float",
              "value": 92.0
            },
            {
              "name": "visual_width",
              "type": "float",
              "value": 170.0
            },
            {
              "name": "visual_height",
              "type": "float",
              "value": 272.0
            },
            {
              "name": "ground_width",
              "type": "float",
              "value": 88.0
            },
            {
              "name": "ground_height",
              "type": "float",
              "value": 90.0
            },
            {
              "name": "state_key",
              "type": "string",
              "value": ""
            }
          ]
        },
        {
          "id": 370,
          "name": "naval-crane-east",
          "class": "art-instance",
          "x": 1925.0,
          "y": -3714.4122,
          "point": true,
          "rotation": 7.0,
          "visible": true,
          "properties": [
            {
              "name": "asset_id",
              "type": "string",
              "value": "crane"
            },
            {
              "name": "district_id",
              "type": "string",
              "value": "naval-yard"
            },
            {
              "name": "render_layer",
              "type": "string",
              "value": "elevated"
            },
            {
              "name": "elevation",
              "type": "float",
              "value": 92.0
            },
            {
              "name": "visual_width",
              "type": "float",
              "value": 170.0
            },
            {
              "name": "visual_height",
              "type": "float",
              "value": 272.0
            },
            {
              "name": "ground_width",
              "type": "float",
              "value": 88.0
            },
            {
              "name": "ground_height",
              "type": "float",
              "value": 90.0
            },
            {
              "name": "state_key",
              "type": "string",
              "value": ""
            }
          ]
        },
        {
          "id": 371,
          "name": "naval-warship-west",
          "class": "art-instance",
          "x": 925.0,
          "y": -3904.4122,
          "point": true,
          "rotation": 12.0,
          "visible": true,
          "properties": [
            {
              "name": "asset_id",
              "type": "string",
              "value": "warship-static"
            },
            {
              "name": "district_id",
              "type": "string",
              "value": "naval-yard"
            },
            {
              "name": "render_layer",
              "type": "string",
              "value": "ground"
            },
            {
              "name": "elevation",
              "type": "float",
              "value": 8.0
            },
            {
              "name": "visual_width",
              "type": "float",
              "value": 170.0
            },
            {
              "name": "visual_height",
              "type": "float",
              "value": 398.0
            },
            {
              "name": "ground_width",
              "type": "float",
              "value": 86.0
            },
            {
              "name": "ground_height",
              "type": "float",
              "value": 300.0
            },
            {
              "name": "state_key",
              "type": "string",
              "value": ""
            }
          ]
        },
        {
          "id": 372,
          "name": "naval-warship-east",
          "class": "art-instance",
          "x": 1730.0,
          "y": -3889.4122,
          "point": true,
          "rotation": -10.0,
          "visible": true,
          "properties": [
            {
              "name": "asset_id",
              "type": "string",
              "value": "warship-static"
            },
            {
              "name": "district_id",
              "type": "string",
              "value": "naval-yard"
            },
            {
              "name": "render_layer",
              "type": "string",
              "value": "ground"
            },
            {
              "name": "elevation",
              "type": "float",
              "value": 8.0
            },
            {
              "name": "visual_width",
              "type": "float",
              "value": 170.0
            },
            {
              "name": "visual_height",
              "type": "float",
              "value": 398.0
            },
            {
              "name": "ground_width",
              "type": "float",
              "value": 86.0
            },
            {
              "name": "ground_height",
              "type": "float",
              "value": 300.0
            },
            {
              "name": "state_key",
              "type": "string",
              "value": ""
            }
          ]
        },
        {
          "id": 373,
          "name": "naval-radar-west",
          "class": "art-instance",
          "x": 520.0,
          "y": -4004.4122,
          "point": true,
          "rotation": 0.0,
          "visible": true,
          "properties": [
            {
              "name": "asset_id",
              "type": "string",
              "value": "radar"
            },
            {
              "name": "district_id",
              "type": "string",
              "value": "naval-yard"
            },
            {
              "name": "render_layer",
              "type": "string",
              "value": "elevated"
            },
            {
              "name": "elevation",
              "type": "float",
              "value": 88.0
            },
            {
              "name": "visual_width",
              "type": "float",
              "value": 170.0
            },
            {
              "name": "visual_height",
              "type": "float",
              "value": 200.0
            },
            {
              "name": "ground_width",
              "type": "float",
              "value": 90.0
            },
            {
              "name": "ground_height",
              "type": "float",
              "value": 72.0
            },
            {
              "name": "state_key",
              "type": "string",
              "value": ""
            }
          ]
        },
        {
          "id": 374,
          "name": "naval-radar-east",
          "class": "art-instance",
          "x": 2085.0,
          "y": -3999.4122,
          "point": true,
          "rotation": 0.0,
          "visible": true,
          "properties": [
            {
              "name": "asset_id",
              "type": "string",
              "value": "radar"
            },
            {
              "name": "district_id",
              "type": "string",
              "value": "naval-yard"
            },
            {
              "name": "render_layer",
              "type": "string",
              "value": "elevated"
            },
            {
              "name": "elevation",
              "type": "float",
              "value": 88.0
            },
            {
              "name": "visual_width",
              "type": "float",
              "value": 170.0
            },
            {
              "name": "visual_height",
              "type": "float",
              "value": 200.0
            },
            {
              "name": "ground_width",
              "type": "float",
              "value": 90.0
            },
            {
              "name": "ground_height",
              "type": "float",
              "value": 72.0
            },
            {
              "name": "state_key",
              "type": "string",
              "value": ""
            }
          ]
        },
        {
          "id": 375,
          "name": "mountain-tunnel-west",
          "class": "art-instance",
          "x": 610.0,
          "y": -4319.8779,
          "point": true,
          "rotation": -7.0,
          "visible": true,
          "properties": [
            {
              "name": "asset_id",
              "type": "string",
              "value": "tunnel-mouth"
            },
            {
              "name": "district_id",
              "type": "string",
              "value": "mountain-transition"
            },
            {
              "name": "render_layer",
              "type": "string",
              "value": "ground"
            },
            {
              "name": "elevation",
              "type": "float",
              "value": 18.0
            },
            {
              "name": "visual_width",
              "type": "float",
              "value": 225.0
            },
            {
              "name": "visual_height",
              "type": "float",
              "value": 156.0
            },
            {
              "name": "ground_width",
              "type": "float",
              "value": 180.0
            },
            {
              "name": "ground_height",
              "type": "float",
              "value": 82.0
            },
            {
              "name": "state_key",
              "type": "string",
              "value": ""
            }
          ]
        },
        {
          "id": 376,
          "name": "mountain-tunnel-east",
          "class": "art-instance",
          "x": 1995.0,
          "y": -4334.8779,
          "point": true,
          "rotation": 7.0,
          "visible": true,
          "properties": [
            {
              "name": "asset_id",
              "type": "string",
              "value": "tunnel-mouth"
            },
            {
              "name": "district_id",
              "type": "string",
              "value": "mountain-transition"
            },
            {
              "name": "render_layer",
              "type": "string",
              "value": "ground"
            },
            {
              "name": "elevation",
              "type": "float",
              "value": 18.0
            },
            {
              "name": "visual_width",
              "type": "float",
              "value": 225.0
            },
            {
              "name": "visual_height",
              "type": "float",
              "value": 156.0
            },
            {
              "name": "ground_width",
              "type": "float",
              "value": 180.0
            },
            {
              "name": "ground_height",
              "type": "float",
              "value": 82.0
            },
            {
              "name": "state_key",
              "type": "string",
              "value": ""
            }
          ]
        },
        {
          "id": 377,
          "name": "canyon-tunnel-west",
          "class": "art-instance",
          "x": 710.0,
          "y": -4731.7468,
          "point": true,
          "rotation": -9.0,
          "visible": true,
          "properties": [
            {
              "name": "asset_id",
              "type": "string",
              "value": "tunnel-mouth"
            },
            {
              "name": "district_id",
              "type": "string",
              "value": "river-canyon"
            },
            {
              "name": "render_layer",
              "type": "string",
              "value": "ground"
            },
            {
              "name": "elevation",
              "type": "float",
              "value": 20.0
            },
            {
              "name": "visual_width",
              "type": "float",
              "value": 220.0
            },
            {
              "name": "visual_height",
              "type": "float",
              "value": 152.0
            },
            {
              "name": "ground_width",
              "type": "float",
              "value": 176.0
            },
            {
              "name": "ground_height",
              "type": "float",
              "value": 80.0
            },
            {
              "name": "state_key",
              "type": "string",
              "value": ""
            }
          ]
        },
        {
          "id": 378,
          "name": "canyon-tunnel-east",
          "class": "art-instance",
          "x": 1900.0,
          "y": -4811.7468,
          "point": true,
          "rotation": 9.0,
          "visible": true,
          "properties": [
            {
              "name": "asset_id",
              "type": "string",
              "value": "tunnel-mouth"
            },
            {
              "name": "district_id",
              "type": "string",
              "value": "river-canyon"
            },
            {
              "name": "render_layer",
              "type": "string",
              "value": "ground"
            },
            {
              "name": "elevation",
              "type": "float",
              "value": 20.0
            },
            {
              "name": "visual_width",
              "type": "float",
              "value": 220.0
            },
            {
              "name": "visual_height",
              "type": "float",
              "value": 152.0
            },
            {
              "name": "ground_width",
              "type": "float",
              "value": 176.0
            },
            {
              "name": "ground_height",
              "type": "float",
              "value": 80.0
            },
            {
              "name": "state_key",
              "type": "string",
              "value": ""
            }
          ]
        },
        {
          "id": 379,
          "name": "dam-face-main",
          "class": "art-instance",
          "x": 1302.89306640625,
          "y": -4958.4716796875,
          "point": true,
          "rotation": 0.0,
          "visible": true,
          "properties": [
            {
              "name": "asset_id",
              "type": "string",
              "value": "dam-face"
            },
            {
              "name": "district_id",
              "type": "string",
              "value": "lower-dam"
            },
            {
              "name": "render_layer",
              "type": "string",
              "value": "elevated"
            },
            {
              "name": "elevation",
              "type": "float",
              "value": 110.0
            },
            {
              "name": "visual_width",
              "type": "float",
              "value": 1040.0
            },
            {
              "name": "visual_height",
              "type": "float",
              "value": 560.0
            },
            {
              "name": "ground_width",
              "type": "float",
              "value": 920.0
            },
            {
              "name": "ground_height",
              "type": "float",
              "value": 118.0
            },
            {
              "name": "state_key",
              "type": "string",
              "value": ""
            }
          ]
        },
        {
          "id": 380,
          "name": "reservoir-radar-main",
          "class": "art-instance",
          "x": 550.0,
          "y": -5494.787,
          "point": true,
          "rotation": -3.0,
          "visible": true,
          "properties": [
            {
              "name": "asset_id",
              "type": "string",
              "value": "radar"
            },
            {
              "name": "district_id",
              "type": "string",
              "value": "alpine-reservoir"
            },
            {
              "name": "render_layer",
              "type": "string",
              "value": "elevated"
            },
            {
              "name": "elevation",
              "type": "float",
              "value": 90.0
            },
            {
              "name": "visual_width",
              "type": "float",
              "value": 175.0
            },
            {
              "name": "visual_height",
              "type": "float",
              "value": 207.0
            },
            {
              "name": "ground_width",
              "type": "float",
              "value": 92.0
            },
            {
              "name": "ground_height",
              "type": "float",
              "value": 74.0
            },
            {
              "name": "state_key",
              "type": "string",
              "value": ""
            }
          ]
        },
        {
          "id": 381,
          "name": "fortress-terrace-west",
          "class": "art-instance",
          "x": 610.0,
          "y": -5867.822265625,
          "point": true,
          "rotation": -4.0,
          "visible": true,
          "properties": [
            {
              "name": "asset_id",
              "type": "string",
              "value": "fortress-terrace"
            },
            {
              "name": "district_id",
              "type": "string",
              "value": "fortress-approach"
            },
            {
              "name": "render_layer",
              "type": "string",
              "value": "ground"
            },
            {
              "name": "elevation",
              "type": "float",
              "value": 46.0
            },
            {
              "name": "visual_width",
              "type": "float",
              "value": 420.0
            },
            {
              "name": "visual_height",
              "type": "float",
              "value": 240.0
            },
            {
              "name": "ground_width",
              "type": "float",
              "value": 350.0
            },
            {
              "name": "ground_height",
              "type": "float",
              "value": 125.0
            },
            {
              "name": "state_key",
              "type": "string",
              "value": ""
            }
          ]
        },
        {
          "id": 382,
          "name": "fortress-terrace-east",
          "class": "art-instance",
          "x": 1995.0,
          "y": -5867.822265625,
          "point": true,
          "rotation": 4.0,
          "visible": true,
          "properties": [
            {
              "name": "asset_id",
              "type": "string",
              "value": "fortress-terrace"
            },
            {
              "name": "district_id",
              "type": "string",
              "value": "fortress-approach"
            },
            {
              "name": "render_layer",
              "type": "string",
              "value": "ground"
            },
            {
              "name": "elevation",
              "type": "float",
              "value": 46.0
            },
            {
              "name": "visual_width",
              "type": "float",
              "value": 420.0
            },
            {
              "name": "visual_height",
              "type": "float",
              "value": 240.0
            },
            {
              "name": "ground_width",
              "type": "float",
              "value": 350.0
            },
            {
              "name": "ground_height",
              "type": "float",
              "value": 125.0
            },
            {
              "name": "state_key",
              "type": "string",
              "value": ""
            }
          ]
        },
        {
          "id": 383,
          "name": "citadel-wing-west",
          "class": "art-instance",
          "x": 850.0,
          "y": -5970.98388671875,
          "point": true,
          "rotation": -3.0,
          "visible": true,
          "properties": [
            {
              "name": "asset_id",
              "type": "string",
              "value": "citadel-wing"
            },
            {
              "name": "district_id",
              "type": "string",
              "value": "citadel-basin"
            },
            {
              "name": "render_layer",
              "type": "string",
              "value": "elevated"
            },
            {
              "name": "elevation",
              "type": "float",
              "value": 115.0
            },
            {
              "name": "visual_width",
              "type": "float",
              "value": 430.0
            },
            {
              "name": "visual_height",
              "type": "float",
              "value": 294.0
            },
            {
              "name": "ground_width",
              "type": "float",
              "value": 330.0
            },
            {
              "name": "ground_height",
              "type": "float",
              "value": 135.0
            },
            {
              "name": "state_key",
              "type": "string",
              "value": ""
            }
          ]
        },
        {
          "id": 384,
          "name": "citadel-wing-east",
          "class": "art-instance",
          "x": 1755.0,
          "y": -5970.98388671875,
          "point": true,
          "rotation": 3.0,
          "visible": true,
          "properties": [
            {
              "name": "asset_id",
              "type": "string",
              "value": "citadel-wing"
            },
            {
              "name": "district_id",
              "type": "string",
              "value": "citadel-basin"
            },
            {
              "name": "render_layer",
              "type": "string",
              "value": "elevated"
            },
            {
              "name": "elevation",
              "type": "float",
              "value": 115.0
            },
            {
              "name": "visual_width",
              "type": "float",
              "value": 430.0
            },
            {
              "name": "visual_height",
              "type": "float",
              "value": 294.0
            },
            {
              "name": "ground_width",
              "type": "float",
              "value": 330.0
            },
            {
              "name": "ground_height",
              "type": "float",
              "value": 135.0
            },
            {
              "name": "state_key",
              "type": "string",
              "value": ""
            }
          ]
        },
        {
          "id": 385,
          "name": "citadel-gate-main",
          "class": "art-instance",
          "x": 1302.89306640625,
          "y": -5970.98388671875,
          "point": true,
          "rotation": 0.0,
          "visible": true,
          "properties": [
            {
              "name": "asset_id",
              "type": "string",
              "value": "citadel-gate"
            },
            {
              "name": "district_id",
              "type": "string",
              "value": "citadel-basin"
            },
            {
              "name": "render_layer",
              "type": "string",
              "value": "elevated"
            },
            {
              "name": "elevation",
              "type": "float",
              "value": 145.0
            },
            {
              "name": "visual_width",
              "type": "float",
              "value": 620.0
            },
            {
              "name": "visual_height",
              "type": "float",
              "value": 442.0
            },
            {
              "name": "ground_width",
              "type": "float",
              "value": 470.0
            },
            {
              "name": "ground_height",
              "type": "float",
              "value": 165.0
            },
            {
              "name": "state_key",
              "type": "string",
              "value": ""
            }
          ]
        },
        {
          "id": 386,
          "name": "citadel-tower-west",
          "class": "art-instance",
          "x": 1035.0,
          "y": -5970.98388671875,
          "point": true,
          "rotation": -2.0,
          "visible": true,
          "properties": [
            {
              "name": "asset_id",
              "type": "string",
              "value": "citadel-tower"
            },
            {
              "name": "district_id",
              "type": "string",
              "value": "citadel-basin"
            },
            {
              "name": "render_layer",
              "type": "string",
              "value": "elevated"
            },
            {
              "name": "elevation",
              "type": "float",
              "value": 175.0
            },
            {
              "name": "visual_width",
              "type": "float",
              "value": 205.0
            },
            {
              "name": "visual_height",
              "type": "float",
              "value": 242.0
            },
            {
              "name": "ground_width",
              "type": "float",
              "value": 110.0
            },
            {
              "name": "ground_height",
              "type": "float",
              "value": 90.0
            },
            {
              "name": "state_key",
              "type": "string",
              "value": ""
            }
          ]
        },
        {
          "id": 387,
          "name": "citadel-tower-east",
          "class": "art-instance",
          "x": 1570.0,
          "y": -5970.98388671875,
          "point": true,
          "rotation": 2.0,
          "visible": true,
          "properties": [
            {
              "name": "asset_id",
              "type": "string",
              "value": "citadel-tower"
            },
            {
              "name": "district_id",
              "type": "string",
              "value": "citadel-basin"
            },
            {
              "name": "render_layer",
              "type": "string",
              "value": "elevated"
            },
            {
              "name": "elevation",
              "type": "float",
              "value": 175.0
            },
            {
              "name": "visual_width",
              "type": "float",
              "value": 205.0
            },
            {
              "name": "visual_height",
              "type": "float",
              "value": 242.0
            },
            {
              "name": "ground_width",
              "type": "float",
              "value": 110.0
            },
            {
              "name": "ground_height",
              "type": "float",
              "value": 90.0
            },
            {
              "name": "state_key",
              "type": "string",
              "value": ""
            }
          ]
        },
        {
          "id": 388,
          "name": "citadel-radar-main",
          "class": "art-instance",
          "x": 1302.89306640625,
          "y": -6257.5439453125,
          "point": true,
          "rotation": 0.0,
          "visible": true,
          "properties": [
            {
              "name": "asset_id",
              "type": "string",
              "value": "radar"
            },
            {
              "name": "district_id",
              "type": "string",
              "value": "citadel-basin"
            },
            {
              "name": "render_layer",
              "type": "string",
              "value": "elevated"
            },
            {
              "name": "elevation",
              "type": "float",
              "value": 210.0
            },
            {
              "name": "visual_width",
              "type": "float",
              "value": 190.0
            },
            {
              "name": "visual_height",
              "type": "float",
              "value": 225.0
            },
            {
              "name": "ground_width",
              "type": "float",
              "value": 95.0
            },
            {
              "name": "ground_height",
              "type": "float",
              "value": 78.0
            },
            {
              "name": "state_key",
              "type": "string",
              "value": ""
            }
          ]
        },
        {
          "id": 389,
          "name": "civil-office-west",
          "class": "art-instance",
          "x": 520.0,
          "y": -2940.0,
          "point": true,
          "rotation": -3.0,
          "visible": true,
          "properties": [
            {
              "name": "asset_id",
              "type": "string",
              "value": "harbour-office"
            },
            {
              "name": "district_id",
              "type": "string",
              "value": "civil-harbour"
            },
            {
              "name": "render_layer",
              "type": "string",
              "value": "ground"
            },
            {
              "name": "elevation",
              "type": "float",
              "value": 24.0
            },
            {
              "name": "visual_width",
              "type": "float",
              "value": 255.0
            },
            {
              "name": "visual_height",
              "type": "float",
              "value": 170.0
            },
            {
              "name": "ground_width",
              "type": "float",
              "value": 185.0
            },
            {
              "name": "ground_height",
              "type": "float",
              "value": 90.0
            },
            {
              "name": "state_key",
              "type": "string",
              "value": ""
            }
          ]
        },
        {
          "id": 390,
          "name": "civil-office-east",
          "class": "art-instance",
          "x": 2080.0,
          "y": -2950.0,
          "point": true,
          "rotation": 3.0,
          "visible": true,
          "properties": [
            {
              "name": "asset_id",
              "type": "string",
              "value": "harbour-office"
            },
            {
              "name": "district_id",
              "type": "string",
              "value": "civil-harbour"
            },
            {
              "name": "render_layer",
              "type": "string",
              "value": "ground"
            },
            {
              "name": "elevation",
              "type": "float",
              "value": 24.0
            },
            {
              "name": "visual_width",
              "type": "float",
              "value": 255.0
            },
            {
              "name": "visual_height",
              "type": "float",
              "value": 170.0
            },
            {
              "name": "ground_width",
              "type": "float",
              "value": 185.0
            },
            {
              "name": "ground_height",
              "type": "float",
              "value": 90.0
            },
            {
              "name": "state_key",
              "type": "string",
              "value": ""
            }
          ]
        },
        {
          "id": 391,
          "name": "civil-house-west-c",
          "class": "art-instance",
          "x": 1010.0,
          "y": -2835.0,
          "point": true,
          "rotation": 5.0,
          "visible": true,
          "properties": [
            {
              "name": "asset_id",
              "type": "string",
              "value": "civil-house"
            },
            {
              "name": "district_id",
              "type": "string",
              "value": "civil-harbour"
            },
            {
              "name": "render_layer",
              "type": "string",
              "value": "ground"
            },
            {
              "name": "elevation",
              "type": "float",
              "value": 18.0
            },
            {
              "name": "visual_width",
              "type": "float",
              "value": 150.0
            },
            {
              "name": "visual_height",
              "type": "float",
              "value": 110.0
            },
            {
              "name": "ground_width",
              "type": "float",
              "value": 105.0
            },
            {
              "name": "ground_height",
              "type": "float",
              "value": 62.0
            },
            {
              "name": "state_key",
              "type": "string",
              "value": ""
            }
          ]
        },
        {
          "id": 392,
          "name": "civil-house-east-c",
          "class": "art-instance",
          "x": 1595.0,
          "y": -2855.0,
          "point": true,
          "rotation": -5.0,
          "visible": true,
          "properties": [
            {
              "name": "asset_id",
              "type": "string",
              "value": "civil-house"
            },
            {
              "name": "district_id",
              "type": "string",
              "value": "civil-harbour"
            },
            {
              "name": "render_layer",
              "type": "string",
              "value": "ground"
            },
            {
              "name": "elevation",
              "type": "float",
              "value": 18.0
            },
            {
              "name": "visual_width",
              "type": "float",
              "value": 150.0
            },
            {
              "name": "visual_height",
              "type": "float",
              "value": 110.0
            },
            {
              "name": "ground_width",
              "type": "float",
              "value": 105.0
            },
            {
              "name": "ground_height",
              "type": "float",
              "value": 62.0
            },
            {
              "name": "state_key",
              "type": "string",
              "value": ""
            }
          ]
        },
        {
          "id": 393,
          "name": "industrial-fuel-west",
          "class": "art-instance",
          "x": 555.0,
          "y": -3380.0,
          "point": true,
          "rotation": 0.0,
          "visible": true,
          "properties": [
            {
              "name": "asset_id",
              "type": "string",
              "value": "fuel-tank"
            },
            {
              "name": "district_id",
              "type": "string",
              "value": "industrial-harbour"
            },
            {
              "name": "render_layer",
              "type": "string",
              "value": "ground"
            },
            {
              "name": "elevation",
              "type": "float",
              "value": 22.0
            },
            {
              "name": "visual_width",
              "type": "float",
              "value": 155.0
            },
            {
              "name": "visual_height",
              "type": "float",
              "value": 155.0
            },
            {
              "name": "ground_width",
              "type": "float",
              "value": 118.0
            },
            {
              "name": "ground_height",
              "type": "float",
              "value": 118.0
            },
            {
              "name": "state_key",
              "type": "string",
              "value": ""
            }
          ]
        },
        {
          "id": 394,
          "name": "industrial-fuel-east",
          "class": "art-instance",
          "x": 2050.0,
          "y": -3385.0,
          "point": true,
          "rotation": 0.0,
          "visible": true,
          "properties": [
            {
              "name": "asset_id",
              "type": "string",
              "value": "fuel-tank"
            },
            {
              "name": "district_id",
              "type": "string",
              "value": "industrial-harbour"
            },
            {
              "name": "render_layer",
              "type": "string",
              "value": "ground"
            },
            {
              "name": "elevation",
              "type": "float",
              "value": 22.0
            },
            {
              "name": "visual_width",
              "type": "float",
              "value": 155.0
            },
            {
              "name": "visual_height",
              "type": "float",
              "value": 155.0
            },
            {
              "name": "ground_width",
              "type": "float",
              "value": 118.0
            },
            {
              "name": "ground_height",
              "type": "float",
              "value": 118.0
            },
            {
              "name": "state_key",
              "type": "string",
              "value": ""
            }
          ]
        },
        {
          "id": 395,
          "name": "industrial-office-west",
          "class": "art-instance",
          "x": 760.0,
          "y": -3520.0,
          "point": true,
          "rotation": -4.0,
          "visible": true,
          "properties": [
            {
              "name": "asset_id",
              "type": "string",
              "value": "harbour-office"
            },
            {
              "name": "district_id",
              "type": "string",
              "value": "industrial-harbour"
            },
            {
              "name": "render_layer",
              "type": "string",
              "value": "ground"
            },
            {
              "name": "elevation",
              "type": "float",
              "value": 26.0
            },
            {
              "name": "visual_width",
              "type": "float",
              "value": 245.0
            },
            {
              "name": "visual_height",
              "type": "float",
              "value": 162.0
            },
            {
              "name": "ground_width",
              "type": "float",
              "value": 178.0
            },
            {
              "name": "ground_height",
              "type": "float",
              "value": 88.0
            },
            {
              "name": "state_key",
              "type": "string",
              "value": ""
            }
          ]
        },
        {
          "id": 396,
          "name": "industrial-office-east",
          "class": "art-instance",
          "x": 1845.0,
          "y": -3520.0,
          "point": true,
          "rotation": 4.0,
          "visible": true,
          "properties": [
            {
              "name": "asset_id",
              "type": "string",
              "value": "harbour-office"
            },
            {
              "name": "district_id",
              "type": "string",
              "value": "industrial-harbour"
            },
            {
              "name": "render_layer",
              "type": "string",
              "value": "ground"
            },
            {
              "name": "elevation",
              "type": "float",
              "value": 26.0
            },
            {
              "name": "visual_width",
              "type": "float",
              "value": 245.0
            },
            {
              "name": "visual_height",
              "type": "float",
              "value": 162.0
            },
            {
              "name": "ground_width",
              "type": "float",
              "value": 178.0
            },
            {
              "name": "ground_height",
              "type": "float",
              "value": 88.0
            },
            {
              "name": "state_key",
              "type": "string",
              "value": ""
            }
          ]
        },
        {
          "id": 397,
          "name": "naval-bunker-west",
          "class": "art-instance",
          "x": 490.0,
          "y": -3810.0,
          "point": true,
          "rotation": -2.0,
          "visible": true,
          "properties": [
            {
              "name": "asset_id",
              "type": "string",
              "value": "naval-bunker"
            },
            {
              "name": "district_id",
              "type": "string",
              "value": "naval-yard"
            },
            {
              "name": "render_layer",
              "type": "string",
              "value": "ground"
            },
            {
              "name": "elevation",
              "type": "float",
              "value": 40.0
            },
            {
              "name": "visual_width",
              "type": "float",
              "value": 280.0
            },
            {
              "name": "visual_height",
              "type": "float",
              "value": 185.0
            },
            {
              "name": "ground_width",
              "type": "float",
              "value": 210.0
            },
            {
              "name": "ground_height",
              "type": "float",
              "value": 105.0
            },
            {
              "name": "state_key",
              "type": "string",
              "value": ""
            }
          ]
        },
        {
          "id": 398,
          "name": "naval-bunker-east",
          "class": "art-instance",
          "x": 2110.0,
          "y": -3815.0,
          "point": true,
          "rotation": 2.0,
          "visible": true,
          "properties": [
            {
              "name": "asset_id",
              "type": "string",
              "value": "naval-bunker"
            },
            {
              "name": "district_id",
              "type": "string",
              "value": "naval-yard"
            },
            {
              "name": "render_layer",
              "type": "string",
              "value": "ground"
            },
            {
              "name": "elevation",
              "type": "float",
              "value": 40.0
            },
            {
              "name": "visual_width",
              "type": "float",
              "value": 280.0
            },
            {
              "name": "visual_height",
              "type": "float",
              "value": 185.0
            },
            {
              "name": "ground_width",
              "type": "float",
              "value": 210.0
            },
            {
              "name": "ground_height",
              "type": "float",
              "value": 105.0
            },
            {
              "name": "state_key",
              "type": "string",
              "value": ""
            }
          ]
        },
        {
          "id": 399,
          "name": "naval-fuel-west",
          "class": "art-instance",
          "x": 620.0,
          "y": -4020.0,
          "point": true,
          "rotation": 0.0,
          "visible": true,
          "properties": [
            {
              "name": "asset_id",
              "type": "string",
              "value": "fuel-tank"
            },
            {
              "name": "district_id",
              "type": "string",
              "value": "naval-yard"
            },
            {
              "name": "render_layer",
              "type": "string",
              "value": "ground"
            },
            {
              "name": "elevation",
              "type": "float",
              "value": 25.0
            },
            {
              "name": "visual_width",
              "type": "float",
              "value": 165.0
            },
            {
              "name": "visual_height",
              "type": "float",
              "value": 165.0
            },
            {
              "name": "ground_width",
              "type": "float",
              "value": 122.0
            },
            {
              "name": "ground_height",
              "type": "float",
              "value": 122.0
            },
            {
              "name": "state_key",
              "type": "string",
              "value": ""
            }
          ]
        },
        {
          "id": 400,
          "name": "naval-fuel-east",
          "class": "art-instance",
          "x": 1980.0,
          "y": -4010.0,
          "point": true,
          "rotation": 0.0,
          "visible": true,
          "properties": [
            {
              "name": "asset_id",
              "type": "string",
              "value": "fuel-tank"
            },
            {
              "name": "district_id",
              "type": "string",
              "value": "naval-yard"
            },
            {
              "name": "render_layer",
              "type": "string",
              "value": "ground"
            },
            {
              "name": "elevation",
              "type": "float",
              "value": 25.0
            },
            {
              "name": "visual_width",
              "type": "float",
              "value": 165.0
            },
            {
              "name": "visual_height",
              "type": "float",
              "value": 165.0
            },
            {
              "name": "ground_width",
              "type": "float",
              "value": 122.0
            },
            {
              "name": "ground_height",
              "type": "float",
              "value": 122.0
            },
            {
              "name": "state_key",
              "type": "string",
              "value": ""
            }
          ]
        },
        {
          "id": 401,
          "name": "naval-warship-mid-west",
          "class": "art-instance",
          "x": 1050.0,
          "y": -3840.0,
          "point": true,
          "rotation": 5.0,
          "visible": true,
          "properties": [
            {
              "name": "asset_id",
              "type": "string",
              "value": "warship-static"
            },
            {
              "name": "district_id",
              "type": "string",
              "value": "naval-yard"
            },
            {
              "name": "render_layer",
              "type": "string",
              "value": "ground"
            },
            {
              "name": "elevation",
              "type": "float",
              "value": 8.0
            },
            {
              "name": "visual_width",
              "type": "float",
              "value": 142.0
            },
            {
              "name": "visual_height",
              "type": "float",
              "value": 360.0
            },
            {
              "name": "ground_width",
              "type": "float",
              "value": 88.0
            },
            {
              "name": "ground_height",
              "type": "float",
              "value": 250.0
            },
            {
              "name": "state_key",
              "type": "string",
              "value": ""
            }
          ]
        },
        {
          "id": 402,
          "name": "naval-warship-mid-east",
          "class": "art-instance",
          "x": 1555.0,
          "y": -3805.0,
          "point": true,
          "rotation": -7.0,
          "visible": true,
          "properties": [
            {
              "name": "asset_id",
              "type": "string",
              "value": "warship-static"
            },
            {
              "name": "district_id",
              "type": "string",
              "value": "naval-yard"
            },
            {
              "name": "render_layer",
              "type": "string",
              "value": "ground"
            },
            {
              "name": "elevation",
              "type": "float",
              "value": 8.0
            },
            {
              "name": "visual_width",
              "type": "float",
              "value": 142.0
            },
            {
              "name": "visual_height",
              "type": "float",
              "value": 360.0
            },
            {
              "name": "ground_width",
              "type": "float",
              "value": 88.0
            },
            {
              "name": "ground_height",
              "type": "float",
              "value": 250.0
            },
            {
              "name": "state_key",
              "type": "string",
              "value": ""
            }
          ]
        },
        {
          "id": 403,
          "name": "dam-service-west",
          "class": "art-instance",
          "x": 720.0,
          "y": -5110.0,
          "point": true,
          "rotation": -5.0,
          "visible": true,
          "properties": [
            {
              "name": "asset_id",
              "type": "string",
              "value": "naval-bunker"
            },
            {
              "name": "district_id",
              "type": "string",
              "value": "lower-dam"
            },
            {
              "name": "render_layer",
              "type": "string",
              "value": "ground"
            },
            {
              "name": "elevation",
              "type": "float",
              "value": 34.0
            },
            {
              "name": "visual_width",
              "type": "float",
              "value": 240.0
            },
            {
              "name": "visual_height",
              "type": "float",
              "value": 160.0
            },
            {
              "name": "ground_width",
              "type": "float",
              "value": 175.0
            },
            {
              "name": "ground_height",
              "type": "float",
              "value": 90.0
            },
            {
              "name": "state_key",
              "type": "string",
              "value": ""
            }
          ]
        },
        {
          "id": 404,
          "name": "dam-service-east",
          "class": "art-instance",
          "x": 1880.0,
          "y": -5110.0,
          "point": true,
          "rotation": 5.0,
          "visible": true,
          "properties": [
            {
              "name": "asset_id",
              "type": "string",
              "value": "naval-bunker"
            },
            {
              "name": "district_id",
              "type": "string",
              "value": "lower-dam"
            },
            {
              "name": "render_layer",
              "type": "string",
              "value": "ground"
            },
            {
              "name": "elevation",
              "type": "float",
              "value": 34.0
            },
            {
              "name": "visual_width",
              "type": "float",
              "value": 240.0
            },
            {
              "name": "visual_height",
              "type": "float",
              "value": 160.0
            },
            {
              "name": "ground_width",
              "type": "float",
              "value": 175.0
            },
            {
              "name": "ground_height",
              "type": "float",
              "value": 90.0
            },
            {
              "name": "state_key",
              "type": "string",
              "value": ""
            }
          ]
        },
        {
          "id": 405,
          "name": "fortress-wall-west",
          "class": "art-instance",
          "x": 665.0,
          "y": -5960.0,
          "point": true,
          "rotation": -3.0,
          "visible": true,
          "properties": [
            {
              "name": "asset_id",
              "type": "string",
              "value": "fortress-wall"
            },
            {
              "name": "district_id",
              "type": "string",
              "value": "fortress-approach"
            },
            {
              "name": "render_layer",
              "type": "string",
              "value": "elevated"
            },
            {
              "name": "elevation",
              "type": "float",
              "value": 80.0
            },
            {
              "name": "visual_width",
              "type": "float",
              "value": 330.0
            },
            {
              "name": "visual_height",
              "type": "float",
              "value": 220.0
            },
            {
              "name": "ground_width",
              "type": "float",
              "value": 250.0
            },
            {
              "name": "ground_height",
              "type": "float",
              "value": 88.0
            },
            {
              "name": "state_key",
              "type": "string",
              "value": ""
            }
          ]
        },
        {
          "id": 406,
          "name": "fortress-wall-east",
          "class": "art-instance",
          "x": 1940.0,
          "y": -5960.0,
          "point": true,
          "rotation": 3.0,
          "visible": true,
          "properties": [
            {
              "name": "asset_id",
              "type": "string",
              "value": "fortress-wall"
            },
            {
              "name": "district_id",
              "type": "string",
              "value": "fortress-approach"
            },
            {
              "name": "render_layer",
              "type": "string",
              "value": "elevated"
            },
            {
              "name": "elevation",
              "type": "float",
              "value": 80.0
            },
            {
              "name": "visual_width",
              "type": "float",
              "value": 330.0
            },
            {
              "name": "visual_height",
              "type": "float",
              "value": 220.0
            },
            {
              "name": "ground_width",
              "type": "float",
              "value": 250.0
            },
            {
              "name": "ground_height",
              "type": "float",
              "value": 88.0
            },
            {
              "name": "state_key",
              "type": "string",
              "value": ""
            }
          ]
        },
        {
          "id": 407,
          "name": "citadel-bunker-west",
          "class": "art-instance",
          "x": 620.0,
          "y": -6145.0,
          "point": true,
          "rotation": -4.0,
          "visible": true,
          "properties": [
            {
              "name": "asset_id",
              "type": "string",
              "value": "citadel-bunker"
            },
            {
              "name": "district_id",
              "type": "string",
              "value": "citadel-basin"
            },
            {
              "name": "render_layer",
              "type": "string",
              "value": "elevated"
            },
            {
              "name": "elevation",
              "type": "float",
              "value": 96.0
            },
            {
              "name": "visual_width",
              "type": "float",
              "value": 285.0
            },
            {
              "name": "visual_height",
              "type": "float",
              "value": 190.0
            },
            {
              "name": "ground_width",
              "type": "float",
              "value": 205.0
            },
            {
              "name": "ground_height",
              "type": "float",
              "value": 105.0
            },
            {
              "name": "state_key",
              "type": "string",
              "value": ""
            }
          ]
        },
        {
          "id": 408,
          "name": "citadel-bunker-east",
          "class": "art-instance",
          "x": 1985.0,
          "y": -6145.0,
          "point": true,
          "rotation": 4.0,
          "visible": true,
          "properties": [
            {
              "name": "asset_id",
              "type": "string",
              "value": "citadel-bunker"
            },
            {
              "name": "district_id",
              "type": "string",
              "value": "citadel-basin"
            },
            {
              "name": "render_layer",
              "type": "string",
              "value": "elevated"
            },
            {
              "name": "elevation",
              "type": "float",
              "value": 96.0
            },
            {
              "name": "visual_width",
              "type": "float",
              "value": 285.0
            },
            {
              "name": "visual_height",
              "type": "float",
              "value": 190.0
            },
            {
              "name": "ground_width",
              "type": "float",
              "value": 205.0
            },
            {
              "name": "ground_height",
              "type": "float",
              "value": 105.0
            },
            {
              "name": "state_key",
              "type": "string",
              "value": ""
            }
          ]
        },
        {
          "id": 409,
          "name": "citadel-wall-west",
          "class": "art-instance",
          "x": 790.0,
          "y": -6290.0,
          "point": true,
          "rotation": -2.0,
          "visible": true,
          "properties": [
            {
              "name": "asset_id",
              "type": "string",
              "value": "fortress-wall"
            },
            {
              "name": "district_id",
              "type": "string",
              "value": "citadel-basin"
            },
            {
              "name": "render_layer",
              "type": "string",
              "value": "elevated"
            },
            {
              "name": "elevation",
              "type": "float",
              "value": 120.0
            },
            {
              "name": "visual_width",
              "type": "float",
              "value": 335.0
            },
            {
              "name": "visual_height",
              "type": "float",
              "value": 220.0
            },
            {
              "name": "ground_width",
              "type": "float",
              "value": 250.0
            },
            {
              "name": "ground_height",
              "type": "float",
              "value": 88.0
            },
            {
              "name": "state_key",
              "type": "string",
              "value": ""
            }
          ]
        },
        {
          "id": 410,
          "name": "citadel-wall-east",
          "class": "art-instance",
          "x": 1815.0,
          "y": -6290.0,
          "point": true,
          "rotation": 2.0,
          "visible": true,
          "properties": [
            {
              "name": "asset_id",
              "type": "string",
              "value": "fortress-wall"
            },
            {
              "name": "district_id",
              "type": "string",
              "value": "citadel-basin"
            },
            {
              "name": "render_layer",
              "type": "string",
              "value": "elevated"
            },
            {
              "name": "elevation",
              "type": "float",
              "value": 120.0
            },
            {
              "name": "visual_width",
              "type": "float",
              "value": 335.0
            },
            {
              "name": "visual_height",
              "type": "float",
              "value": 220.0
            },
            {
              "name": "ground_width",
              "type": "float",
              "value": 250.0
            },
            {
              "name": "ground_height",
              "type": "float",
              "value": 88.0
            },
            {
              "name": "state_key",
              "type": "string",
              "value": ""
            }
          ]
        },
        {
          "id": 411,
          "name": "bridge-watchtower-main",
          "class": "art-instance",
          "x": 1302.8931,
          "y": -1823.0,
          "point": true,
          "rotation": 0.0,
          "visible": true,
          "properties": [
            {
              "name": "asset_id",
              "type": "string",
              "value": "coastal-watchtower"
            },
            {
              "name": "district_id",
              "type": "string",
              "value": "bridge-gateway"
            },
            {
              "name": "render_layer",
              "type": "string",
              "value": "elevated"
            },
            {
              "name": "elevation",
              "type": "float",
              "value": 95.0
            },
            {
              "name": "visual_width",
              "type": "float",
              "value": 175.0
            },
            {
              "name": "visual_height",
              "type": "float",
              "value": 235.0
            },
            {
              "name": "ground_width",
              "type": "float",
              "value": 95.0
            },
            {
              "name": "ground_height",
              "type": "float",
              "value": 70.0
            },
            {
              "name": "state_key",
              "type": "string",
              "value": ""
            }
          ]
        },
        {
          "id": 440,
          "name": "gateway-keep-west",
          "class": "art-instance",
          "x": 665,
          "y": -2170,
          "point": true,
          "rotation": 0,
          "visible": true,
          "properties": [
            {
              "name": "asset_id",
              "type": "string",
              "value": "gateway-keep"
            },
            {
              "name": "district_id",
              "type": "string",
              "value": "bridge-gateway"
            },
            {
              "name": "render_layer",
              "type": "string",
              "value": "elevated"
            },
            {
              "name": "elevation",
              "type": "float",
              "value": 132.0
            },
            {
              "name": "visual_width",
              "type": "float",
              "value": 264.0
            },
            {
              "name": "visual_height",
              "type": "float",
              "value": 330.0
            },
            {
              "name": "ground_width",
              "type": "float",
              "value": 170.0
            },
            {
              "name": "ground_height",
              "type": "float",
              "value": 115.0
            },
            {
              "name": "state_key",
              "type": "string",
              "value": ""
            }
          ]
        },
        {
          "id": 441,
          "name": "gateway-keep-east",
          "class": "art-instance",
          "x": 1940,
          "y": -2170,
          "point": true,
          "rotation": 0,
          "visible": true,
          "properties": [
            {
              "name": "asset_id",
              "type": "string",
              "value": "gateway-keep"
            },
            {
              "name": "district_id",
              "type": "string",
              "value": "bridge-gateway"
            },
            {
              "name": "render_layer",
              "type": "string",
              "value": "elevated"
            },
            {
              "name": "elevation",
              "type": "float",
              "value": 132.0
            },
            {
              "name": "visual_width",
              "type": "float",
              "value": 264.0
            },
            {
              "name": "visual_height",
              "type": "float",
              "value": 330.0
            },
            {
              "name": "ground_width",
              "type": "float",
              "value": 170.0
            },
            {
              "name": "ground_height",
              "type": "float",
              "value": 115.0
            },
            {
              "name": "state_key",
              "type": "string",
              "value": ""
            }
          ]
        },
        {
          "id": 446,
          "name": "gateway-arch-west",
          "class": "art-instance",
          "x": 810,
          "y": -2200,
          "point": true,
          "rotation": 0,
          "visible": true,
          "properties": [
            {
              "name": "asset_id",
              "type": "string",
              "value": "gateway-arch-support"
            },
            {
              "name": "district_id",
              "type": "string",
              "value": "bridge-gateway"
            },
            {
              "name": "render_layer",
              "type": "string",
              "value": "elevated"
            },
            {
              "name": "elevation",
              "type": "float",
              "value": 105.0
            },
            {
              "name": "visual_width",
              "type": "float",
              "value": 180.0
            },
            {
              "name": "visual_height",
              "type": "float",
              "value": 252.0
            },
            {
              "name": "ground_width",
              "type": "float",
              "value": 125.0
            },
            {
              "name": "ground_height",
              "type": "float",
              "value": 90.0
            },
            {
              "name": "state_key",
              "type": "string",
              "value": ""
            }
          ]
        },
        {
          "id": 447,
          "name": "gateway-arch-east",
          "class": "art-instance",
          "x": 1795,
          "y": -2200,
          "point": true,
          "rotation": 0,
          "visible": true,
          "properties": [
            {
              "name": "asset_id",
              "type": "string",
              "value": "gateway-arch-support"
            },
            {
              "name": "district_id",
              "type": "string",
              "value": "bridge-gateway"
            },
            {
              "name": "render_layer",
              "type": "string",
              "value": "elevated"
            },
            {
              "name": "elevation",
              "type": "float",
              "value": 105.0
            },
            {
              "name": "visual_width",
              "type": "float",
              "value": 180.0
            },
            {
              "name": "visual_height",
              "type": "float",
              "value": 252.0
            },
            {
              "name": "ground_width",
              "type": "float",
              "value": 125.0
            },
            {
              "name": "ground_height",
              "type": "float",
              "value": 90.0
            },
            {
              "name": "state_key",
              "type": "string",
              "value": ""
            }
          ]
        },
        {
          "id": 448,
          "name": "civil-quay-west-a",
          "class": "art-instance",
          "x": 835,
          "y": -2708,
          "point": true,
          "rotation": 0,
          "visible": true,
          "properties": [
            {
              "name": "asset_id",
              "type": "string",
              "value": "quay-edge"
            },
            {
              "name": "district_id",
              "type": "string",
              "value": "civil-harbour"
            },
            {
              "name": "render_layer",
              "type": "string",
              "value": "ground"
            },
            {
              "name": "elevation",
              "type": "float",
              "value": 16.0
            },
            {
              "name": "visual_width",
              "type": "float",
              "value": 360.0
            },
            {
              "name": "visual_height",
              "type": "float",
              "value": 65.0
            },
            {
              "name": "ground_width",
              "type": "float",
              "value": 309.6
            },
            {
              "name": "ground_height",
              "type": "float",
              "value": 35.75
            },
            {
              "name": "state_key",
              "type": "string",
              "value": ""
            }
          ]
        },
        {
          "id": 449,
          "name": "civil-quay-west-b",
          "class": "art-instance",
          "x": 845,
          "y": -2844,
          "point": true,
          "rotation": 0,
          "visible": true,
          "properties": [
            {
              "name": "asset_id",
              "type": "string",
              "value": "quay-edge"
            },
            {
              "name": "district_id",
              "type": "string",
              "value": "civil-harbour"
            },
            {
              "name": "render_layer",
              "type": "string",
              "value": "ground"
            },
            {
              "name": "elevation",
              "type": "float",
              "value": 16.0
            },
            {
              "name": "visual_width",
              "type": "float",
              "value": 330.0
            },
            {
              "name": "visual_height",
              "type": "float",
              "value": 60.0
            },
            {
              "name": "ground_width",
              "type": "float",
              "value": 283.8
            },
            {
              "name": "ground_height",
              "type": "float",
              "value": 33.0
            },
            {
              "name": "state_key",
              "type": "string",
              "value": ""
            }
          ]
        },
        {
          "id": 450,
          "name": "civil-quay-east-a",
          "class": "art-instance",
          "x": 1760,
          "y": -2744,
          "point": true,
          "rotation": 180,
          "visible": true,
          "properties": [
            {
              "name": "asset_id",
              "type": "string",
              "value": "quay-edge"
            },
            {
              "name": "district_id",
              "type": "string",
              "value": "civil-harbour"
            },
            {
              "name": "render_layer",
              "type": "string",
              "value": "ground"
            },
            {
              "name": "elevation",
              "type": "float",
              "value": 16.0
            },
            {
              "name": "visual_width",
              "type": "float",
              "value": 350.0
            },
            {
              "name": "visual_height",
              "type": "float",
              "value": 63.0
            },
            {
              "name": "ground_width",
              "type": "float",
              "value": 301.0
            },
            {
              "name": "ground_height",
              "type": "float",
              "value": 34.650000000000006
            },
            {
              "name": "state_key",
              "type": "string",
              "value": ""
            }
          ]
        },
        {
          "id": 451,
          "name": "civil-quay-east-b",
          "class": "art-instance",
          "x": 1750,
          "y": -2884,
          "point": true,
          "rotation": 180,
          "visible": true,
          "properties": [
            {
              "name": "asset_id",
              "type": "string",
              "value": "quay-edge"
            },
            {
              "name": "district_id",
              "type": "string",
              "value": "civil-harbour"
            },
            {
              "name": "render_layer",
              "type": "string",
              "value": "ground"
            },
            {
              "name": "elevation",
              "type": "float",
              "value": 16.0
            },
            {
              "name": "visual_width",
              "type": "float",
              "value": 320.0
            },
            {
              "name": "visual_height",
              "type": "float",
              "value": 58.0
            },
            {
              "name": "ground_width",
              "type": "float",
              "value": 275.2
            },
            {
              "name": "ground_height",
              "type": "float",
              "value": 31.900000000000002
            },
            {
              "name": "state_key",
              "type": "string",
              "value": ""
            }
          ]
        },
        {
          "id": 452,
          "name": "civil-marina-west-a",
          "class": "art-instance",
          "x": 985,
          "y": -2665,
          "point": true,
          "rotation": 0,
          "visible": true,
          "properties": [
            {
              "name": "asset_id",
              "type": "string",
              "value": "marina-pier"
            },
            {
              "name": "district_id",
              "type": "string",
              "value": "civil-harbour"
            },
            {
              "name": "render_layer",
              "type": "string",
              "value": "ground"
            },
            {
              "name": "elevation",
              "type": "float",
              "value": 16.0
            },
            {
              "name": "visual_width",
              "type": "float",
              "value": 250.0
            },
            {
              "name": "visual_height",
              "type": "float",
              "value": 50.0
            },
            {
              "name": "ground_width",
              "type": "float",
              "value": 215.0
            },
            {
              "name": "ground_height",
              "type": "float",
              "value": 27.500000000000004
            },
            {
              "name": "state_key",
              "type": "string",
              "value": ""
            }
          ]
        },
        {
          "id": 453,
          "name": "civil-marina-west-b",
          "class": "art-instance",
          "x": 965,
          "y": -2912,
          "point": true,
          "rotation": 0,
          "visible": true,
          "properties": [
            {
              "name": "asset_id",
              "type": "string",
              "value": "marina-pier"
            },
            {
              "name": "district_id",
              "type": "string",
              "value": "civil-harbour"
            },
            {
              "name": "render_layer",
              "type": "string",
              "value": "ground"
            },
            {
              "name": "elevation",
              "type": "float",
              "value": 16.0
            },
            {
              "name": "visual_width",
              "type": "float",
              "value": 220.0
            },
            {
              "name": "visual_height",
              "type": "float",
              "value": 44.0
            },
            {
              "name": "ground_width",
              "type": "float",
              "value": 189.2
            },
            {
              "name": "ground_height",
              "type": "float",
              "value": 24.200000000000003
            },
            {
              "name": "state_key",
              "type": "string",
              "value": ""
            }
          ]
        },
        {
          "id": 454,
          "name": "civil-marina-east-a",
          "class": "art-instance",
          "x": 1620,
          "y": -2705,
          "point": true,
          "rotation": 180,
          "visible": true,
          "properties": [
            {
              "name": "asset_id",
              "type": "string",
              "value": "marina-pier"
            },
            {
              "name": "district_id",
              "type": "string",
              "value": "civil-harbour"
            },
            {
              "name": "render_layer",
              "type": "string",
              "value": "ground"
            },
            {
              "name": "elevation",
              "type": "float",
              "value": 16.0
            },
            {
              "name": "visual_width",
              "type": "float",
              "value": 235.0
            },
            {
              "name": "visual_height",
              "type": "float",
              "value": 47.0
            },
            {
              "name": "ground_width",
              "type": "float",
              "value": 202.1
            },
            {
              "name": "ground_height",
              "type": "float",
              "value": 25.85
            },
            {
              "name": "state_key",
              "type": "string",
              "value": ""
            }
          ]
        },
        {
          "id": 455,
          "name": "civil-marina-east-b",
          "class": "art-instance",
          "x": 1640,
          "y": -2942,
          "point": true,
          "rotation": 180,
          "visible": true,
          "properties": [
            {
              "name": "asset_id",
              "type": "string",
              "value": "marina-pier"
            },
            {
              "name": "district_id",
              "type": "string",
              "value": "civil-harbour"
            },
            {
              "name": "render_layer",
              "type": "string",
              "value": "ground"
            },
            {
              "name": "elevation",
              "type": "float",
              "value": 16.0
            },
            {
              "name": "visual_width",
              "type": "float",
              "value": 205.0
            },
            {
              "name": "visual_height",
              "type": "float",
              "value": 41.0
            },
            {
              "name": "ground_width",
              "type": "float",
              "value": 176.3
            },
            {
              "name": "ground_height",
              "type": "float",
              "value": 22.55
            },
            {
              "name": "state_key",
              "type": "string",
              "value": ""
            }
          ]
        },
        {
          "id": 456,
          "name": "civil-ramp-west",
          "class": "art-instance",
          "x": 720,
          "y": -2798,
          "point": true,
          "rotation": -8,
          "visible": true,
          "properties": [
            {
              "name": "asset_id",
              "type": "string",
              "value": "harbour-ramp"
            },
            {
              "name": "district_id",
              "type": "string",
              "value": "civil-harbour"
            },
            {
              "name": "render_layer",
              "type": "string",
              "value": "ground"
            },
            {
              "name": "elevation",
              "type": "float",
              "value": 16.0
            },
            {
              "name": "visual_width",
              "type": "float",
              "value": 160.0
            },
            {
              "name": "visual_height",
              "type": "float",
              "value": 92.0
            },
            {
              "name": "ground_width",
              "type": "float",
              "value": 137.6
            },
            {
              "name": "ground_height",
              "type": "float",
              "value": 50.6
            },
            {
              "name": "state_key",
              "type": "string",
              "value": ""
            }
          ]
        },
        {
          "id": 457,
          "name": "civil-ramp-east",
          "class": "art-instance",
          "x": 1900,
          "y": -2865,
          "point": true,
          "rotation": 8,
          "visible": true,
          "properties": [
            {
              "name": "asset_id",
              "type": "string",
              "value": "harbour-ramp"
            },
            {
              "name": "district_id",
              "type": "string",
              "value": "civil-harbour"
            },
            {
              "name": "render_layer",
              "type": "string",
              "value": "ground"
            },
            {
              "name": "elevation",
              "type": "float",
              "value": 16.0
            },
            {
              "name": "visual_width",
              "type": "float",
              "value": 160.0
            },
            {
              "name": "visual_height",
              "type": "float",
              "value": 92.0
            },
            {
              "name": "ground_width",
              "type": "float",
              "value": 137.6
            },
            {
              "name": "ground_height",
              "type": "float",
              "value": 50.6
            },
            {
              "name": "state_key",
              "type": "string",
              "value": ""
            }
          ]
        },
        {
          "id": 458,
          "name": "industrial-quay-west-a",
          "class": "art-instance",
          "x": 925,
          "y": -3180,
          "point": true,
          "rotation": 0,
          "visible": true,
          "properties": [
            {
              "name": "asset_id",
              "type": "string",
              "value": "quay-edge"
            },
            {
              "name": "district_id",
              "type": "string",
              "value": "industrial-harbour"
            },
            {
              "name": "render_layer",
              "type": "string",
              "value": "ground"
            },
            {
              "name": "elevation",
              "type": "float",
              "value": 20.0
            },
            {
              "name": "visual_width",
              "type": "float",
              "value": 390.0
            },
            {
              "name": "visual_height",
              "type": "float",
              "value": 70.0
            },
            {
              "name": "ground_width",
              "type": "float",
              "value": 335.4
            },
            {
              "name": "ground_height",
              "type": "float",
              "value": 38.5
            },
            {
              "name": "state_key",
              "type": "string",
              "value": ""
            }
          ]
        },
        {
          "id": 459,
          "name": "industrial-quay-west-b",
          "class": "art-instance",
          "x": 960,
          "y": -3398,
          "point": true,
          "rotation": 0,
          "visible": true,
          "properties": [
            {
              "name": "asset_id",
              "type": "string",
              "value": "quay-edge"
            },
            {
              "name": "district_id",
              "type": "string",
              "value": "industrial-harbour"
            },
            {
              "name": "render_layer",
              "type": "string",
              "value": "ground"
            },
            {
              "name": "elevation",
              "type": "float",
              "value": 20.0
            },
            {
              "name": "visual_width",
              "type": "float",
              "value": 420.0
            },
            {
              "name": "visual_height",
              "type": "float",
              "value": 76.0
            },
            {
              "name": "ground_width",
              "type": "float",
              "value": 361.2
            },
            {
              "name": "ground_height",
              "type": "float",
              "value": 41.800000000000004
            },
            {
              "name": "state_key",
              "type": "string",
              "value": ""
            }
          ]
        },
        {
          "id": 460,
          "name": "industrial-quay-east-a",
          "class": "art-instance",
          "x": 1670,
          "y": -3275,
          "point": true,
          "rotation": 180,
          "visible": true,
          "properties": [
            {
              "name": "asset_id",
              "type": "string",
              "value": "quay-edge"
            },
            {
              "name": "district_id",
              "type": "string",
              "value": "industrial-harbour"
            },
            {
              "name": "render_layer",
              "type": "string",
              "value": "ground"
            },
            {
              "name": "elevation",
              "type": "float",
              "value": 20.0
            },
            {
              "name": "visual_width",
              "type": "float",
              "value": 390.0
            },
            {
              "name": "visual_height",
              "type": "float",
              "value": 70.0
            },
            {
              "name": "ground_width",
              "type": "float",
              "value": 335.4
            },
            {
              "name": "ground_height",
              "type": "float",
              "value": 38.5
            },
            {
              "name": "state_key",
              "type": "string",
              "value": ""
            }
          ]
        },
        {
          "id": 461,
          "name": "industrial-quay-east-b",
          "class": "art-instance",
          "x": 1640,
          "y": -3440,
          "point": true,
          "rotation": 180,
          "visible": true,
          "properties": [
            {
              "name": "asset_id",
              "type": "string",
              "value": "quay-edge"
            },
            {
              "name": "district_id",
              "type": "string",
              "value": "industrial-harbour"
            },
            {
              "name": "render_layer",
              "type": "string",
              "value": "ground"
            },
            {
              "name": "elevation",
              "type": "float",
              "value": 20.0
            },
            {
              "name": "visual_width",
              "type": "float",
              "value": 360.0
            },
            {
              "name": "visual_height",
              "type": "float",
              "value": 65.0
            },
            {
              "name": "ground_width",
              "type": "float",
              "value": 309.6
            },
            {
              "name": "ground_height",
              "type": "float",
              "value": 35.75
            },
            {
              "name": "state_key",
              "type": "string",
              "value": ""
            }
          ]
        },
        {
          "id": 462,
          "name": "industrial-yard-west-a",
          "class": "art-instance",
          "x": 505,
          "y": -3140,
          "point": true,
          "rotation": -3,
          "visible": true,
          "properties": [
            {
              "name": "asset_id",
              "type": "string",
              "value": "service-yard"
            },
            {
              "name": "district_id",
              "type": "string",
              "value": "industrial-harbour"
            },
            {
              "name": "render_layer",
              "type": "string",
              "value": "ground"
            },
            {
              "name": "elevation",
              "type": "float",
              "value": 20.0
            },
            {
              "name": "visual_width",
              "type": "float",
              "value": 260.0
            },
            {
              "name": "visual_height",
              "type": "float",
              "value": 173.0
            },
            {
              "name": "ground_width",
              "type": "float",
              "value": 223.6
            },
            {
              "name": "ground_height",
              "type": "float",
              "value": 90.0
            },
            {
              "name": "state_key",
              "type": "string",
              "value": ""
            }
          ]
        },
        {
          "id": 463,
          "name": "industrial-yard-west-b",
          "class": "art-instance",
          "x": 640,
          "y": -3475,
          "point": true,
          "rotation": 5,
          "visible": true,
          "properties": [
            {
              "name": "asset_id",
              "type": "string",
              "value": "service-yard"
            },
            {
              "name": "district_id",
              "type": "string",
              "value": "industrial-harbour"
            },
            {
              "name": "render_layer",
              "type": "string",
              "value": "ground"
            },
            {
              "name": "elevation",
              "type": "float",
              "value": 20.0
            },
            {
              "name": "visual_width",
              "type": "float",
              "value": 240.0
            },
            {
              "name": "visual_height",
              "type": "float",
              "value": 160.0
            },
            {
              "name": "ground_width",
              "type": "float",
              "value": 206.4
            },
            {
              "name": "ground_height",
              "type": "float",
              "value": 88.0
            },
            {
              "name": "state_key",
              "type": "string",
              "value": ""
            }
          ]
        },
        {
          "id": 464,
          "name": "industrial-yard-east-a",
          "class": "art-instance",
          "x": 2100,
          "y": -3160,
          "point": true,
          "rotation": 4,
          "visible": true,
          "properties": [
            {
              "name": "asset_id",
              "type": "string",
              "value": "service-yard"
            },
            {
              "name": "district_id",
              "type": "string",
              "value": "industrial-harbour"
            },
            {
              "name": "render_layer",
              "type": "string",
              "value": "ground"
            },
            {
              "name": "elevation",
              "type": "float",
              "value": 20.0
            },
            {
              "name": "visual_width",
              "type": "float",
              "value": 260.0
            },
            {
              "name": "visual_height",
              "type": "float",
              "value": 173.0
            },
            {
              "name": "ground_width",
              "type": "float",
              "value": 223.6
            },
            {
              "name": "ground_height",
              "type": "float",
              "value": 90.0
            },
            {
              "name": "state_key",
              "type": "string",
              "value": ""
            }
          ]
        },
        {
          "id": 465,
          "name": "industrial-yard-east-b",
          "class": "art-instance",
          "x": 1965,
          "y": -3460,
          "point": true,
          "rotation": -5,
          "visible": true,
          "properties": [
            {
              "name": "asset_id",
              "type": "string",
              "value": "service-yard"
            },
            {
              "name": "district_id",
              "type": "string",
              "value": "industrial-harbour"
            },
            {
              "name": "render_layer",
              "type": "string",
              "value": "ground"
            },
            {
              "name": "elevation",
              "type": "float",
              "value": 20.0
            },
            {
              "name": "visual_width",
              "type": "float",
              "value": 225.0
            },
            {
              "name": "visual_height",
              "type": "float",
              "value": 150.0
            },
            {
              "name": "ground_width",
              "type": "float",
              "value": 193.5
            },
            {
              "name": "ground_height",
              "type": "float",
              "value": 82.5
            },
            {
              "name": "state_key",
              "type": "string",
              "value": ""
            }
          ]
        },
        {
          "id": 466,
          "name": "industrial-ramp-west",
          "class": "art-instance",
          "x": 780,
          "y": -3300,
          "point": true,
          "rotation": -9,
          "visible": true,
          "properties": [
            {
              "name": "asset_id",
              "type": "string",
              "value": "harbour-ramp"
            },
            {
              "name": "district_id",
              "type": "string",
              "value": "industrial-harbour"
            },
            {
              "name": "render_layer",
              "type": "string",
              "value": "ground"
            },
            {
              "name": "elevation",
              "type": "float",
              "value": 20.0
            },
            {
              "name": "visual_width",
              "type": "float",
              "value": 185.0
            },
            {
              "name": "visual_height",
              "type": "float",
              "value": 106.0
            },
            {
              "name": "ground_width",
              "type": "float",
              "value": 159.1
            },
            {
              "name": "ground_height",
              "type": "float",
              "value": 58.300000000000004
            },
            {
              "name": "state_key",
              "type": "string",
              "value": ""
            }
          ]
        },
        {
          "id": 467,
          "name": "industrial-ramp-east",
          "class": "art-instance",
          "x": 1840,
          "y": -3370,
          "point": true,
          "rotation": 11,
          "visible": true,
          "properties": [
            {
              "name": "asset_id",
              "type": "string",
              "value": "harbour-ramp"
            },
            {
              "name": "district_id",
              "type": "string",
              "value": "industrial-harbour"
            },
            {
              "name": "render_layer",
              "type": "string",
              "value": "ground"
            },
            {
              "name": "elevation",
              "type": "float",
              "value": 20.0
            },
            {
              "name": "visual_width",
              "type": "float",
              "value": 175.0
            },
            {
              "name": "visual_height",
              "type": "float",
              "value": 100.0
            },
            {
              "name": "ground_width",
              "type": "float",
              "value": 150.5
            },
            {
              "name": "ground_height",
              "type": "float",
              "value": 55.00000000000001
            },
            {
              "name": "state_key",
              "type": "string",
              "value": ""
            }
          ]
        },
        {
          "id": 468,
          "name": "naval-quay-west-a",
          "class": "art-instance",
          "x": 980,
          "y": -3622,
          "point": true,
          "rotation": 0,
          "visible": true,
          "properties": [
            {
              "name": "asset_id",
              "type": "string",
              "value": "quay-edge"
            },
            {
              "name": "district_id",
              "type": "string",
              "value": "naval-yard"
            },
            {
              "name": "render_layer",
              "type": "string",
              "value": "ground"
            },
            {
              "name": "elevation",
              "type": "float",
              "value": 22.0
            },
            {
              "name": "visual_width",
              "type": "float",
              "value": 430.0
            },
            {
              "name": "visual_height",
              "type": "float",
              "value": 78.0
            },
            {
              "name": "ground_width",
              "type": "float",
              "value": 369.8
            },
            {
              "name": "ground_height",
              "type": "float",
              "value": 42.900000000000006
            },
            {
              "name": "state_key",
              "type": "string",
              "value": ""
            }
          ]
        },
        {
          "id": 469,
          "name": "naval-quay-west-b",
          "class": "art-instance",
          "x": 950,
          "y": -3845,
          "point": true,
          "rotation": 0,
          "visible": true,
          "properties": [
            {
              "name": "asset_id",
              "type": "string",
              "value": "quay-edge"
            },
            {
              "name": "district_id",
              "type": "string",
              "value": "naval-yard"
            },
            {
              "name": "render_layer",
              "type": "string",
              "value": "ground"
            },
            {
              "name": "elevation",
              "type": "float",
              "value": 22.0
            },
            {
              "name": "visual_width",
              "type": "float",
              "value": 355.0
            },
            {
              "name": "visual_height",
              "type": "float",
              "value": 64.0
            },
            {
              "name": "ground_width",
              "type": "float",
              "value": 305.3
            },
            {
              "name": "ground_height",
              "type": "float",
              "value": 35.2
            },
            {
              "name": "state_key",
              "type": "string",
              "value": ""
            }
          ]
        },
        {
          "id": 470,
          "name": "naval-quay-east-a",
          "class": "art-instance",
          "x": 1605,
          "y": -3728,
          "point": true,
          "rotation": 180,
          "visible": true,
          "properties": [
            {
              "name": "asset_id",
              "type": "string",
              "value": "quay-edge"
            },
            {
              "name": "district_id",
              "type": "string",
              "value": "naval-yard"
            },
            {
              "name": "render_layer",
              "type": "string",
              "value": "ground"
            },
            {
              "name": "elevation",
              "type": "float",
              "value": 22.0
            },
            {
              "name": "visual_width",
              "type": "float",
              "value": 420.0
            },
            {
              "name": "visual_height",
              "type": "float",
              "value": 76.0
            },
            {
              "name": "ground_width",
              "type": "float",
              "value": 361.2
            },
            {
              "name": "ground_height",
              "type": "float",
              "value": 41.800000000000004
            },
            {
              "name": "state_key",
              "type": "string",
              "value": ""
            }
          ]
        },
        {
          "id": 471,
          "name": "naval-quay-east-b",
          "class": "art-instance",
          "x": 1645,
          "y": -3910,
          "point": true,
          "rotation": 180,
          "visible": true,
          "properties": [
            {
              "name": "asset_id",
              "type": "string",
              "value": "quay-edge"
            },
            {
              "name": "district_id",
              "type": "string",
              "value": "naval-yard"
            },
            {
              "name": "render_layer",
              "type": "string",
              "value": "ground"
            },
            {
              "name": "elevation",
              "type": "float",
              "value": 22.0
            },
            {
              "name": "visual_width",
              "type": "float",
              "value": 340.0
            },
            {
              "name": "visual_height",
              "type": "float",
              "value": 61.0
            },
            {
              "name": "ground_width",
              "type": "float",
              "value": 292.4
            },
            {
              "name": "ground_height",
              "type": "float",
              "value": 33.550000000000004
            },
            {
              "name": "state_key",
              "type": "string",
              "value": ""
            }
          ]
        },
        {
          "id": 472,
          "name": "naval-yard-detail-west-a",
          "class": "art-instance",
          "x": 450,
          "y": -3580,
          "point": true,
          "rotation": -4,
          "visible": true,
          "properties": [
            {
              "name": "asset_id",
              "type": "string",
              "value": "service-yard"
            },
            {
              "name": "district_id",
              "type": "string",
              "value": "naval-yard"
            },
            {
              "name": "render_layer",
              "type": "string",
              "value": "ground"
            },
            {
              "name": "elevation",
              "type": "float",
              "value": 22.0
            },
            {
              "name": "visual_width",
              "type": "float",
              "value": 285.0
            },
            {
              "name": "visual_height",
              "type": "float",
              "value": 190.0
            },
            {
              "name": "ground_width",
              "type": "float",
              "value": 245.1
            },
            {
              "name": "ground_height",
              "type": "float",
              "value": 90.0
            },
            {
              "name": "state_key",
              "type": "string",
              "value": ""
            }
          ]
        },
        {
          "id": 473,
          "name": "naval-yard-detail-west-b",
          "class": "art-instance",
          "x": 610,
          "y": -3935,
          "point": true,
          "rotation": 6,
          "visible": true,
          "properties": [
            {
              "name": "asset_id",
              "type": "string",
              "value": "service-yard"
            },
            {
              "name": "district_id",
              "type": "string",
              "value": "naval-yard"
            },
            {
              "name": "render_layer",
              "type": "string",
              "value": "ground"
            },
            {
              "name": "elevation",
              "type": "float",
              "value": 22.0
            },
            {
              "name": "visual_width",
              "type": "float",
              "value": 260.0
            },
            {
              "name": "visual_height",
              "type": "float",
              "value": 173.0
            },
            {
              "name": "ground_width",
              "type": "float",
              "value": 223.6
            },
            {
              "name": "ground_height",
              "type": "float",
              "value": 90.0
            },
            {
              "name": "state_key",
              "type": "string",
              "value": ""
            }
          ]
        },
        {
          "id": 474,
          "name": "naval-yard-detail-west-c",
          "class": "art-instance",
          "x": 360,
          "y": -3810,
          "point": true,
          "rotation": -7,
          "visible": true,
          "properties": [
            {
              "name": "asset_id",
              "type": "string",
              "value": "service-yard"
            },
            {
              "name": "district_id",
              "type": "string",
              "value": "naval-yard"
            },
            {
              "name": "render_layer",
              "type": "string",
              "value": "ground"
            },
            {
              "name": "elevation",
              "type": "float",
              "value": 22.0
            },
            {
              "name": "visual_width",
              "type": "float",
              "value": 230.0
            },
            {
              "name": "visual_height",
              "type": "float",
              "value": 153.0
            },
            {
              "name": "ground_width",
              "type": "float",
              "value": 197.79999999999998
            },
            {
              "name": "ground_height",
              "type": "float",
              "value": 84.15
            },
            {
              "name": "state_key",
              "type": "string",
              "value": ""
            }
          ]
        },
        {
          "id": 475,
          "name": "naval-yard-detail-east-a",
          "class": "art-instance",
          "x": 2160,
          "y": -3625,
          "point": true,
          "rotation": 5,
          "visible": true,
          "properties": [
            {
              "name": "asset_id",
              "type": "string",
              "value": "service-yard"
            },
            {
              "name": "district_id",
              "type": "string",
              "value": "naval-yard"
            },
            {
              "name": "render_layer",
              "type": "string",
              "value": "ground"
            },
            {
              "name": "elevation",
              "type": "float",
              "value": 22.0
            },
            {
              "name": "visual_width",
              "type": "float",
              "value": 285.0
            },
            {
              "name": "visual_height",
              "type": "float",
              "value": 190.0
            },
            {
              "name": "ground_width",
              "type": "float",
              "value": 245.1
            },
            {
              "name": "ground_height",
              "type": "float",
              "value": 90.0
            },
            {
              "name": "state_key",
              "type": "string",
              "value": ""
            }
          ]
        },
        {
          "id": 476,
          "name": "naval-yard-detail-east-b",
          "class": "art-instance",
          "x": 2010,
          "y": -3970,
          "point": true,
          "rotation": -4,
          "visible": true,
          "properties": [
            {
              "name": "asset_id",
              "type": "string",
              "value": "service-yard"
            },
            {
              "name": "district_id",
              "type": "string",
              "value": "naval-yard"
            },
            {
              "name": "render_layer",
              "type": "string",
              "value": "ground"
            },
            {
              "name": "elevation",
              "type": "float",
              "value": 22.0
            },
            {
              "name": "visual_width",
              "type": "float",
              "value": 255.0
            },
            {
              "name": "visual_height",
              "type": "float",
              "value": 170.0
            },
            {
              "name": "ground_width",
              "type": "float",
              "value": 219.29999999999998
            },
            {
              "name": "ground_height",
              "type": "float",
              "value": 90.0
            },
            {
              "name": "state_key",
              "type": "string",
              "value": ""
            }
          ]
        },
        {
          "id": 477,
          "name": "naval-ramp-west-a",
          "class": "art-instance",
          "x": 790,
          "y": -3705,
          "point": true,
          "rotation": -8,
          "visible": true,
          "properties": [
            {
              "name": "asset_id",
              "type": "string",
              "value": "harbour-ramp"
            },
            {
              "name": "district_id",
              "type": "string",
              "value": "naval-yard"
            },
            {
              "name": "render_layer",
              "type": "string",
              "value": "ground"
            },
            {
              "name": "elevation",
              "type": "float",
              "value": 22.0
            },
            {
              "name": "visual_width",
              "type": "float",
              "value": 190.0
            },
            {
              "name": "visual_height",
              "type": "float",
              "value": 109.0
            },
            {
              "name": "ground_width",
              "type": "float",
              "value": 163.4
            },
            {
              "name": "ground_height",
              "type": "float",
              "value": 59.95
            },
            {
              "name": "state_key",
              "type": "string",
              "value": ""
            }
          ]
        },
        {
          "id": 478,
          "name": "naval-ramp-west-b",
          "class": "art-instance",
          "x": 830,
          "y": -3920,
          "point": true,
          "rotation": 7,
          "visible": true,
          "properties": [
            {
              "name": "asset_id",
              "type": "string",
              "value": "harbour-ramp"
            },
            {
              "name": "district_id",
              "type": "string",
              "value": "naval-yard"
            },
            {
              "name": "render_layer",
              "type": "string",
              "value": "ground"
            },
            {
              "name": "elevation",
              "type": "float",
              "value": 22.0
            },
            {
              "name": "visual_width",
              "type": "float",
              "value": 165.0
            },
            {
              "name": "visual_height",
              "type": "float",
              "value": 94.0
            },
            {
              "name": "ground_width",
              "type": "float",
              "value": 141.9
            },
            {
              "name": "ground_height",
              "type": "float",
              "value": 51.7
            },
            {
              "name": "state_key",
              "type": "string",
              "value": ""
            }
          ]
        },
        {
          "id": 479,
          "name": "naval-ramp-east-a",
          "class": "art-instance",
          "x": 1810,
          "y": -3785,
          "point": true,
          "rotation": 10,
          "visible": true,
          "properties": [
            {
              "name": "asset_id",
              "type": "string",
              "value": "harbour-ramp"
            },
            {
              "name": "district_id",
              "type": "string",
              "value": "naval-yard"
            },
            {
              "name": "render_layer",
              "type": "string",
              "value": "ground"
            },
            {
              "name": "elevation",
              "type": "float",
              "value": 22.0
            },
            {
              "name": "visual_width",
              "type": "float",
              "value": 180.0
            },
            {
              "name": "visual_height",
              "type": "float",
              "value": 103.0
            },
            {
              "name": "ground_width",
              "type": "float",
              "value": 154.8
            },
            {
              "name": "ground_height",
              "type": "float",
              "value": 56.650000000000006
            },
            {
              "name": "state_key",
              "type": "string",
              "value": ""
            }
          ]
        },
        {
          "id": 480,
          "name": "naval-ramp-east-b",
          "class": "art-instance",
          "x": 1790,
          "y": -3985,
          "point": true,
          "rotation": -6,
          "visible": true,
          "properties": [
            {
              "name": "asset_id",
              "type": "string",
              "value": "harbour-ramp"
            },
            {
              "name": "district_id",
              "type": "string",
              "value": "naval-yard"
            },
            {
              "name": "render_layer",
              "type": "string",
              "value": "ground"
            },
            {
              "name": "elevation",
              "type": "float",
              "value": 22.0
            },
            {
              "name": "visual_width",
              "type": "float",
              "value": 160.0
            },
            {
              "name": "visual_height",
              "type": "float",
              "value": 91.0
            },
            {
              "name": "ground_width",
              "type": "float",
              "value": 137.6
            },
            {
              "name": "ground_height",
              "type": "float",
              "value": 50.050000000000004
            },
            {
              "name": "state_key",
              "type": "string",
              "value": ""
            }
          ]
        },
        {
          "id": 481,
          "name": "dam-abutment-west",
          "class": "art-instance",
          "x": 745.0,
          "y": -4975.0,
          "point": true,
          "rotation": -3.0,
          "visible": true,
          "properties": [
            {
              "name": "asset_id",
              "type": "string",
              "value": "dam-abutment"
            },
            {
              "name": "district_id",
              "type": "string",
              "value": "lower-dam"
            },
            {
              "name": "render_layer",
              "type": "string",
              "value": "elevated"
            },
            {
              "name": "elevation",
              "type": "float",
              "value": 105.0
            },
            {
              "name": "visual_width",
              "type": "float",
              "value": 330.0
            },
            {
              "name": "visual_height",
              "type": "float",
              "value": 330.0
            },
            {
              "name": "ground_width",
              "type": "float",
              "value": 240.0
            },
            {
              "name": "ground_height",
              "type": "float",
              "value": 120.0
            },
            {
              "name": "state_key",
              "type": "string",
              "value": ""
            }
          ]
        },
        {
          "id": 482,
          "name": "dam-abutment-east",
          "class": "art-instance",
          "x": 1860.0,
          "y": -4975.0,
          "point": true,
          "rotation": 3.0,
          "visible": true,
          "properties": [
            {
              "name": "asset_id",
              "type": "string",
              "value": "dam-abutment"
            },
            {
              "name": "district_id",
              "type": "string",
              "value": "lower-dam"
            },
            {
              "name": "render_layer",
              "type": "string",
              "value": "elevated"
            },
            {
              "name": "elevation",
              "type": "float",
              "value": 105.0
            },
            {
              "name": "visual_width",
              "type": "float",
              "value": 330.0
            },
            {
              "name": "visual_height",
              "type": "float",
              "value": 330.0
            },
            {
              "name": "ground_width",
              "type": "float",
              "value": 240.0
            },
            {
              "name": "ground_height",
              "type": "float",
              "value": 120.0
            },
            {
              "name": "state_key",
              "type": "string",
              "value": ""
            }
          ]
        },
        {
          "id": 483,
          "name": "dam-gallery-west",
          "class": "art-instance",
          "x": 915.0,
          "y": -5165.0,
          "point": true,
          "rotation": -3.0,
          "visible": true,
          "properties": [
            {
              "name": "asset_id",
              "type": "string",
              "value": "dam-service-gallery"
            },
            {
              "name": "district_id",
              "type": "string",
              "value": "lower-dam"
            },
            {
              "name": "render_layer",
              "type": "string",
              "value": "elevated"
            },
            {
              "name": "elevation",
              "type": "float",
              "value": 64.0
            },
            {
              "name": "visual_width",
              "type": "float",
              "value": 360.0
            },
            {
              "name": "visual_height",
              "type": "float",
              "value": 168.0
            },
            {
              "name": "ground_width",
              "type": "float",
              "value": 300.0
            },
            {
              "name": "ground_height",
              "type": "float",
              "value": 72.0
            },
            {
              "name": "state_key",
              "type": "string",
              "value": ""
            }
          ]
        },
        {
          "id": 484,
          "name": "dam-gallery-east",
          "class": "art-instance",
          "x": 1690.0,
          "y": -5165.0,
          "point": true,
          "rotation": 3.0,
          "visible": true,
          "properties": [
            {
              "name": "asset_id",
              "type": "string",
              "value": "dam-service-gallery"
            },
            {
              "name": "district_id",
              "type": "string",
              "value": "lower-dam"
            },
            {
              "name": "render_layer",
              "type": "string",
              "value": "elevated"
            },
            {
              "name": "elevation",
              "type": "float",
              "value": 64.0
            },
            {
              "name": "visual_width",
              "type": "float",
              "value": 360.0
            },
            {
              "name": "visual_height",
              "type": "float",
              "value": 168.0
            },
            {
              "name": "ground_width",
              "type": "float",
              "value": 300.0
            },
            {
              "name": "ground_height",
              "type": "float",
              "value": 72.0
            },
            {
              "name": "state_key",
              "type": "string",
              "value": ""
            }
          ]
        },
        {
          "id": 485,
          "name": "canyon-retaining-west-lower",
          "class": "art-instance",
          "x": 600.0,
          "y": -4435.0,
          "point": true,
          "rotation": -8.0,
          "visible": true,
          "properties": [
            {
              "name": "asset_id",
              "type": "string",
              "value": "canyon-retaining-wall"
            },
            {
              "name": "district_id",
              "type": "string",
              "value": "river-canyon"
            },
            {
              "name": "render_layer",
              "type": "string",
              "value": "ground"
            },
            {
              "name": "elevation",
              "type": "float",
              "value": 24.0
            },
            {
              "name": "visual_width",
              "type": "float",
              "value": 390.0
            },
            {
              "name": "visual_height",
              "type": "float",
              "value": 117.0
            },
            {
              "name": "ground_width",
              "type": "float",
              "value": 360.0
            },
            {
              "name": "ground_height",
              "type": "float",
              "value": 72.0
            },
            {
              "name": "state_key",
              "type": "string",
              "value": ""
            }
          ]
        },
        {
          "id": 486,
          "name": "canyon-retaining-east-lower",
          "class": "art-instance",
          "x": 2010.0,
          "y": -4525.0,
          "point": true,
          "rotation": 7.0,
          "visible": true,
          "properties": [
            {
              "name": "asset_id",
              "type": "string",
              "value": "canyon-retaining-wall"
            },
            {
              "name": "district_id",
              "type": "string",
              "value": "river-canyon"
            },
            {
              "name": "render_layer",
              "type": "string",
              "value": "ground"
            },
            {
              "name": "elevation",
              "type": "float",
              "value": 24.0
            },
            {
              "name": "visual_width",
              "type": "float",
              "value": 410.0
            },
            {
              "name": "visual_height",
              "type": "float",
              "value": 123.0
            },
            {
              "name": "ground_width",
              "type": "float",
              "value": 375.0
            },
            {
              "name": "ground_height",
              "type": "float",
              "value": 74.0
            },
            {
              "name": "state_key",
              "type": "string",
              "value": ""
            }
          ]
        },
        {
          "id": 487,
          "name": "canyon-retaining-west-upper",
          "class": "art-instance",
          "x": 680.0,
          "y": -4730.0,
          "point": true,
          "rotation": 11.0,
          "visible": true,
          "properties": [
            {
              "name": "asset_id",
              "type": "string",
              "value": "canyon-retaining-wall"
            },
            {
              "name": "district_id",
              "type": "string",
              "value": "river-canyon"
            },
            {
              "name": "render_layer",
              "type": "string",
              "value": "ground"
            },
            {
              "name": "elevation",
              "type": "float",
              "value": 27.0
            },
            {
              "name": "visual_width",
              "type": "float",
              "value": 430.0
            },
            {
              "name": "visual_height",
              "type": "float",
              "value": 129.0
            },
            {
              "name": "ground_width",
              "type": "float",
              "value": 395.0
            },
            {
              "name": "ground_height",
              "type": "float",
              "value": 76.0
            },
            {
              "name": "state_key",
              "type": "string",
              "value": ""
            }
          ]
        },
        {
          "id": 488,
          "name": "canyon-retaining-east-upper",
          "class": "art-instance",
          "x": 1910.0,
          "y": -4855.0,
          "point": true,
          "rotation": -9.0,
          "visible": true,
          "properties": [
            {
              "name": "asset_id",
              "type": "string",
              "value": "canyon-retaining-wall"
            },
            {
              "name": "district_id",
              "type": "string",
              "value": "river-canyon"
            },
            {
              "name": "render_layer",
              "type": "string",
              "value": "ground"
            },
            {
              "name": "elevation",
              "type": "float",
              "value": 27.0
            },
            {
              "name": "visual_width",
              "type": "float",
              "value": 380.0
            },
            {
              "name": "visual_height",
              "type": "float",
              "value": 114.0
            },
            {
              "name": "ground_width",
              "type": "float",
              "value": 350.0
            },
            {
              "name": "ground_height",
              "type": "float",
              "value": 70.0
            },
            {
              "name": "state_key",
              "type": "string",
              "value": ""
            }
          ]
        },
        {
          "id": 489,
          "name": "dam-retaining-west",
          "class": "art-instance",
          "x": 590.0,
          "y": -5135.0,
          "point": true,
          "rotation": -5.0,
          "visible": true,
          "properties": [
            {
              "name": "asset_id",
              "type": "string",
              "value": "canyon-retaining-wall"
            },
            {
              "name": "district_id",
              "type": "string",
              "value": "lower-dam"
            },
            {
              "name": "render_layer",
              "type": "string",
              "value": "ground"
            },
            {
              "name": "elevation",
              "type": "float",
              "value": 30.0
            },
            {
              "name": "visual_width",
              "type": "float",
              "value": 420.0
            },
            {
              "name": "visual_height",
              "type": "float",
              "value": 126.0
            },
            {
              "name": "ground_width",
              "type": "float",
              "value": 390.0
            },
            {
              "name": "ground_height",
              "type": "float",
              "value": 78.0
            },
            {
              "name": "state_key",
              "type": "string",
              "value": ""
            }
          ]
        },
        {
          "id": 490,
          "name": "dam-retaining-east",
          "class": "art-instance",
          "x": 2015.0,
          "y": -5205.0,
          "point": true,
          "rotation": 5.0,
          "visible": true,
          "properties": [
            {
              "name": "asset_id",
              "type": "string",
              "value": "canyon-retaining-wall"
            },
            {
              "name": "district_id",
              "type": "string",
              "value": "lower-dam"
            },
            {
              "name": "render_layer",
              "type": "string",
              "value": "ground"
            },
            {
              "name": "elevation",
              "type": "float",
              "value": 30.0
            },
            {
              "name": "visual_width",
              "type": "float",
              "value": 420.0
            },
            {
              "name": "visual_height",
              "type": "float",
              "value": 126.0
            },
            {
              "name": "ground_width",
              "type": "float",
              "value": 390.0
            },
            {
              "name": "ground_height",
              "type": "float",
              "value": 78.0
            },
            {
              "name": "state_key",
              "type": "string",
              "value": ""
            }
          ]
        },
        {
          "id": 491,
          "name": "citadel-buttress-west",
          "class": "art-instance",
          "x": 650.0,
          "y": -5980.0,
          "point": true,
          "rotation": -3.0,
          "visible": true,
          "properties": [
            {
              "name": "asset_id",
              "type": "string",
              "value": "fortress-buttress"
            },
            {
              "name": "district_id",
              "type": "string",
              "value": "citadel-basin"
            },
            {
              "name": "render_layer",
              "type": "string",
              "value": "elevated"
            },
            {
              "name": "elevation",
              "type": "float",
              "value": 130.0
            },
            {
              "name": "visual_width",
              "type": "float",
              "value": 360.0
            },
            {
              "name": "visual_height",
              "type": "float",
              "value": 360.0
            },
            {
              "name": "ground_width",
              "type": "float",
              "value": 250.0
            },
            {
              "name": "ground_height",
              "type": "float",
              "value": 145.0
            },
            {
              "name": "state_key",
              "type": "string",
              "value": ""
            }
          ]
        },
        {
          "id": 492,
          "name": "citadel-buttress-east",
          "class": "art-instance",
          "x": 1955.0,
          "y": -5980.0,
          "point": true,
          "rotation": 3.0,
          "visible": true,
          "properties": [
            {
              "name": "asset_id",
              "type": "string",
              "value": "fortress-buttress"
            },
            {
              "name": "district_id",
              "type": "string",
              "value": "citadel-basin"
            },
            {
              "name": "render_layer",
              "type": "string",
              "value": "elevated"
            },
            {
              "name": "elevation",
              "type": "float",
              "value": 130.0
            },
            {
              "name": "visual_width",
              "type": "float",
              "value": 360.0
            },
            {
              "name": "visual_height",
              "type": "float",
              "value": 360.0
            },
            {
              "name": "ground_width",
              "type": "float",
              "value": 250.0
            },
            {
              "name": "ground_height",
              "type": "float",
              "value": 145.0
            },
            {
              "name": "state_key",
              "type": "string",
              "value": ""
            }
          ]
        },
        {
          "id": 493,
          "name": "citadel-snow-terrace-west",
          "class": "art-instance",
          "x": 760.0,
          "y": -6150.0,
          "point": true,
          "rotation": -6.0,
          "visible": true,
          "properties": [
            {
              "name": "asset_id",
              "type": "string",
              "value": "fortress-snow-terrace"
            },
            {
              "name": "district_id",
              "type": "string",
              "value": "fortress-approach"
            },
            {
              "name": "render_layer",
              "type": "string",
              "value": "elevated"
            },
            {
              "name": "elevation",
              "type": "float",
              "value": 115.0
            },
            {
              "name": "visual_width",
              "type": "float",
              "value": 500.0
            },
            {
              "name": "visual_height",
              "type": "float",
              "value": 217.0
            },
            {
              "name": "ground_width",
              "type": "float",
              "value": 430.0
            },
            {
              "name": "ground_height",
              "type": "float",
              "value": 95.0
            },
            {
              "name": "state_key",
              "type": "string",
              "value": ""
            }
          ]
        },
        {
          "id": 494,
          "name": "citadel-snow-terrace-east",
          "class": "art-instance",
          "x": 1840.0,
          "y": -6205.0,
          "point": true,
          "rotation": 5.0,
          "visible": true,
          "properties": [
            {
              "name": "asset_id",
              "type": "string",
              "value": "fortress-snow-terrace"
            },
            {
              "name": "district_id",
              "type": "string",
              "value": "fortress-approach"
            },
            {
              "name": "render_layer",
              "type": "string",
              "value": "elevated"
            },
            {
              "name": "elevation",
              "type": "float",
              "value": 118.0
            },
            {
              "name": "visual_width",
              "type": "float",
              "value": 540.0
            },
            {
              "name": "visual_height",
              "type": "float",
              "value": 234.0
            },
            {
              "name": "ground_width",
              "type": "float",
              "value": 460.0
            },
            {
              "name": "ground_height",
              "type": "float",
              "value": 100.0
            },
            {
              "name": "state_key",
              "type": "string",
              "value": ""
            }
          ]
        },
        {
          "id": 495,
          "name": "gateway-cliff-bank-west",
          "class": "art-instance",
          "x": 520,
          "y": -1990,
          "point": true,
          "rotation": -2,
          "visible": true,
          "properties": [
            {
              "name": "asset_id",
              "type": "string",
              "value": "gateway-cliff-bank"
            },
            {
              "name": "district_id",
              "type": "string",
              "value": "bridge-gateway"
            },
            {
              "name": "render_layer",
              "type": "string",
              "value": "terrain"
            },
            {
              "name": "elevation",
              "type": "float",
              "value": 82.0
            },
            {
              "name": "visual_width",
              "type": "float",
              "value": 540.0
            },
            {
              "name": "visual_height",
              "type": "float",
              "value": 425.0
            },
            {
              "name": "ground_width",
              "type": "float",
              "value": 421.2
            },
            {
              "name": "ground_height",
              "type": "float",
              "value": 178.5
            },
            {
              "name": "state_key",
              "type": "string",
              "value": ""
            }
          ]
        },
        {
          "id": 496,
          "name": "gateway-cliff-bank-east",
          "class": "art-instance",
          "x": 2085,
          "y": -1990,
          "point": true,
          "rotation": 2,
          "visible": true,
          "properties": [
            {
              "name": "asset_id",
              "type": "string",
              "value": "gateway-cliff-bank"
            },
            {
              "name": "district_id",
              "type": "string",
              "value": "bridge-gateway"
            },
            {
              "name": "render_layer",
              "type": "string",
              "value": "terrain"
            },
            {
              "name": "elevation",
              "type": "float",
              "value": 82.0
            },
            {
              "name": "visual_width",
              "type": "float",
              "value": 540.0
            },
            {
              "name": "visual_height",
              "type": "float",
              "value": 425.0
            },
            {
              "name": "ground_width",
              "type": "float",
              "value": 421.2
            },
            {
              "name": "ground_height",
              "type": "float",
              "value": 178.5
            },
            {
              "name": "state_key",
              "type": "string",
              "value": ""
            }
          ]
        },
        {
          "id": 497,
          "name": "dam-canyon-shoulder-west",
          "class": "art-instance",
          "x": 750,
          "y": -4820,
          "point": true,
          "rotation": -2,
          "visible": true,
          "properties": [
            {
              "name": "asset_id",
              "type": "string",
              "value": "dam-canyon-shoulder"
            },
            {
              "name": "district_id",
              "type": "string",
              "value": "lower-dam"
            },
            {
              "name": "render_layer",
              "type": "string",
              "value": "terrain"
            },
            {
              "name": "elevation",
              "type": "float",
              "value": 130.0
            },
            {
              "name": "visual_width",
              "type": "float",
              "value": 900
            },
            {
              "name": "visual_height",
              "type": "float",
              "value": 900
            },
            {
              "name": "ground_width",
              "type": "float",
              "value": 700
            },
            {
              "name": "ground_height",
              "type": "float",
              "value": 378
            },
            {
              "name": "state_key",
              "type": "string",
              "value": ""
            }
          ]
        },
        {
          "id": 498,
          "name": "dam-canyon-shoulder-east",
          "class": "art-instance",
          "x": 1855,
          "y": -4820,
          "point": true,
          "rotation": 2,
          "visible": true,
          "properties": [
            {
              "name": "asset_id",
              "type": "string",
              "value": "dam-canyon-shoulder"
            },
            {
              "name": "district_id",
              "type": "string",
              "value": "lower-dam"
            },
            {
              "name": "render_layer",
              "type": "string",
              "value": "terrain"
            },
            {
              "name": "elevation",
              "type": "float",
              "value": 130.0
            },
            {
              "name": "visual_width",
              "type": "float",
              "value": 900
            },
            {
              "name": "visual_height",
              "type": "float",
              "value": 900
            },
            {
              "name": "ground_width",
              "type": "float",
              "value": 700
            },
            {
              "name": "ground_height",
              "type": "float",
              "value": 378
            },
            {
              "name": "state_key",
              "type": "string",
              "value": ""
            }
          ]
        },
        {
          "id": 499,
          "name": "citadel-mountain-shoulder-west",
          "class": "art-instance",
          "x": 770,
          "y": -5625,
          "point": true,
          "rotation": -2,
          "visible": true,
          "properties": [
            {
              "name": "asset_id",
              "type": "string",
              "value": "citadel-mountain-shoulder"
            },
            {
              "name": "district_id",
              "type": "string",
              "value": "citadel-basin"
            },
            {
              "name": "render_layer",
              "type": "string",
              "value": "terrain"
            },
            {
              "name": "elevation",
              "type": "float",
              "value": 150.0
            },
            {
              "name": "visual_width",
              "type": "float",
              "value": 900
            },
            {
              "name": "visual_height",
              "type": "float",
              "value": 900
            },
            {
              "name": "ground_width",
              "type": "float",
              "value": 700
            },
            {
              "name": "ground_height",
              "type": "float",
              "value": 378
            },
            {
              "name": "state_key",
              "type": "string",
              "value": ""
            }
          ]
        },
        {
          "id": 500,
          "name": "citadel-mountain-shoulder-east",
          "class": "art-instance",
          "x": 1835,
          "y": -5625,
          "point": true,
          "rotation": 2,
          "visible": true,
          "properties": [
            {
              "name": "asset_id",
              "type": "string",
              "value": "citadel-mountain-shoulder"
            },
            {
              "name": "district_id",
              "type": "string",
              "value": "citadel-basin"
            },
            {
              "name": "render_layer",
              "type": "string",
              "value": "terrain"
            },
            {
              "name": "elevation",
              "type": "float",
              "value": 150.0
            },
            {
              "name": "visual_width",
              "type": "float",
              "value": 900
            },
            {
              "name": "visual_height",
              "type": "float",
              "value": 900
            },
            {
              "name": "ground_width",
              "type": "float",
              "value": 700
            },
            {
              "name": "ground_height",
              "type": "float",
              "value": 378
            },
            {
              "name": "state_key",
              "type": "string",
              "value": ""
            }
          ]
        },
        {
          "id": 501,
          "name": "civil-boat-01",
          "class": "art-instance",
          "x": 1110,
          "y": -3060,
          "point": true,
          "rotation": -12,
          "visible": true,
          "properties": [
            {
              "name": "asset_id",
              "type": "string",
              "value": "civil-boat"
            },
            {
              "name": "district_id",
              "type": "string",
              "value": "civil-harbour"
            },
            {
              "name": "render_layer",
              "type": "string",
              "value": "ground"
            },
            {
              "name": "elevation",
              "type": "float",
              "value": 4.0
            },
            {
              "name": "visual_width",
              "type": "float",
              "value": 52.0
            },
            {
              "name": "visual_height",
              "type": "float",
              "value": 104.0
            },
            {
              "name": "ground_width",
              "type": "float",
              "value": 33.800000000000004
            },
            {
              "name": "ground_height",
              "type": "float",
              "value": 46.800000000000004
            },
            {
              "name": "state_key",
              "type": "string",
              "value": ""
            }
          ]
        },
        {
          "id": 502,
          "name": "civil-boat-02",
          "class": "art-instance",
          "x": 1265,
          "y": -3015,
          "point": true,
          "rotation": 6,
          "visible": true,
          "properties": [
            {
              "name": "asset_id",
              "type": "string",
              "value": "civil-boat"
            },
            {
              "name": "district_id",
              "type": "string",
              "value": "civil-harbour"
            },
            {
              "name": "render_layer",
              "type": "string",
              "value": "ground"
            },
            {
              "name": "elevation",
              "type": "float",
              "value": 4.0
            },
            {
              "name": "visual_width",
              "type": "float",
              "value": 52.0
            },
            {
              "name": "visual_height",
              "type": "float",
              "value": 104.0
            },
            {
              "name": "ground_width",
              "type": "float",
              "value": 33.800000000000004
            },
            {
              "name": "ground_height",
              "type": "float",
              "value": 46.800000000000004
            },
            {
              "name": "state_key",
              "type": "string",
              "value": ""
            }
          ]
        },
        {
          "id": 503,
          "name": "civil-boat-03",
          "class": "art-instance",
          "x": 1450,
          "y": -2970,
          "point": true,
          "rotation": 16,
          "visible": true,
          "properties": [
            {
              "name": "asset_id",
              "type": "string",
              "value": "civil-boat"
            },
            {
              "name": "district_id",
              "type": "string",
              "value": "civil-harbour"
            },
            {
              "name": "render_layer",
              "type": "string",
              "value": "ground"
            },
            {
              "name": "elevation",
              "type": "float",
              "value": 4.0
            },
            {
              "name": "visual_width",
              "type": "float",
              "value": 52.0
            },
            {
              "name": "visual_height",
              "type": "float",
              "value": 104.0
            },
            {
              "name": "ground_width",
              "type": "float",
              "value": 33.800000000000004
            },
            {
              "name": "ground_height",
              "type": "float",
              "value": 46.800000000000004
            },
            {
              "name": "state_key",
              "type": "string",
              "value": ""
            }
          ]
        },
        {
          "id": 504,
          "name": "civil-boat-04",
          "class": "art-instance",
          "x": 1560,
          "y": -2915,
          "point": true,
          "rotation": -7,
          "visible": true,
          "properties": [
            {
              "name": "asset_id",
              "type": "string",
              "value": "civil-boat"
            },
            {
              "name": "district_id",
              "type": "string",
              "value": "civil-harbour"
            },
            {
              "name": "render_layer",
              "type": "string",
              "value": "ground"
            },
            {
              "name": "elevation",
              "type": "float",
              "value": 4.0
            },
            {
              "name": "visual_width",
              "type": "float",
              "value": 52.0
            },
            {
              "name": "visual_height",
              "type": "float",
              "value": 104.0
            },
            {
              "name": "ground_width",
              "type": "float",
              "value": 33.800000000000004
            },
            {
              "name": "ground_height",
              "type": "float",
              "value": 46.800000000000004
            },
            {
              "name": "state_key",
              "type": "string",
              "value": ""
            }
          ]
        },
        {
          "id": 505,
          "name": "civil-boat-05",
          "class": "art-instance",
          "x": 1190,
          "y": -2860,
          "point": true,
          "rotation": 10,
          "visible": true,
          "properties": [
            {
              "name": "asset_id",
              "type": "string",
              "value": "civil-boat"
            },
            {
              "name": "district_id",
              "type": "string",
              "value": "civil-harbour"
            },
            {
              "name": "render_layer",
              "type": "string",
              "value": "ground"
            },
            {
              "name": "elevation",
              "type": "float",
              "value": 4.0
            },
            {
              "name": "visual_width",
              "type": "float",
              "value": 52.0
            },
            {
              "name": "visual_height",
              "type": "float",
              "value": 104.0
            },
            {
              "name": "ground_width",
              "type": "float",
              "value": 33.800000000000004
            },
            {
              "name": "ground_height",
              "type": "float",
              "value": 46.800000000000004
            },
            {
              "name": "state_key",
              "type": "string",
              "value": ""
            }
          ]
        },
        {
          "id": 506,
          "name": "civil-boat-06",
          "class": "art-instance",
          "x": 1390,
          "y": -2795,
          "point": true,
          "rotation": -14,
          "visible": true,
          "properties": [
            {
              "name": "asset_id",
              "type": "string",
              "value": "civil-boat"
            },
            {
              "name": "district_id",
              "type": "string",
              "value": "civil-harbour"
            },
            {
              "name": "render_layer",
              "type": "string",
              "value": "ground"
            },
            {
              "name": "elevation",
              "type": "float",
              "value": 4.0
            },
            {
              "name": "visual_width",
              "type": "float",
              "value": 52.0
            },
            {
              "name": "visual_height",
              "type": "float",
              "value": 104.0
            },
            {
              "name": "ground_width",
              "type": "float",
              "value": 33.800000000000004
            },
            {
              "name": "ground_height",
              "type": "float",
              "value": 46.800000000000004
            },
            {
              "name": "state_key",
              "type": "string",
              "value": ""
            }
          ]
        },
        {
          "id": 507,
          "name": "civil-boat-07",
          "class": "art-instance",
          "x": 1515,
          "y": -2725,
          "point": true,
          "rotation": 7,
          "visible": true,
          "properties": [
            {
              "name": "asset_id",
              "type": "string",
              "value": "civil-boat"
            },
            {
              "name": "district_id",
              "type": "string",
              "value": "civil-harbour"
            },
            {
              "name": "render_layer",
              "type": "string",
              "value": "ground"
            },
            {
              "name": "elevation",
              "type": "float",
              "value": 4.0
            },
            {
              "name": "visual_width",
              "type": "float",
              "value": 52.0
            },
            {
              "name": "visual_height",
              "type": "float",
              "value": 104.0
            },
            {
              "name": "ground_width",
              "type": "float",
              "value": 33.800000000000004
            },
            {
              "name": "ground_height",
              "type": "float",
              "value": 46.800000000000004
            },
            {
              "name": "state_key",
              "type": "string",
              "value": ""
            }
          ]
        },
        {
          "id": 508,
          "name": "civil-boat-08",
          "class": "art-instance",
          "x": 1070,
          "y": -2690,
          "point": true,
          "rotation": 18,
          "visible": true,
          "properties": [
            {
              "name": "asset_id",
              "type": "string",
              "value": "civil-boat"
            },
            {
              "name": "district_id",
              "type": "string",
              "value": "civil-harbour"
            },
            {
              "name": "render_layer",
              "type": "string",
              "value": "ground"
            },
            {
              "name": "elevation",
              "type": "float",
              "value": 4.0
            },
            {
              "name": "visual_width",
              "type": "float",
              "value": 52.0
            },
            {
              "name": "visual_height",
              "type": "float",
              "value": 104.0
            },
            {
              "name": "ground_width",
              "type": "float",
              "value": 33.800000000000004
            },
            {
              "name": "ground_height",
              "type": "float",
              "value": 46.800000000000004
            },
            {
              "name": "state_key",
              "type": "string",
              "value": ""
            }
          ]
        },
        {
          "id": 509,
          "name": "naval-support-boat-01",
          "class": "art-instance",
          "x": 1180,
          "y": -4010,
          "point": true,
          "rotation": -10,
          "visible": true,
          "properties": [
            {
              "name": "asset_id",
              "type": "string",
              "value": "civil-boat"
            },
            {
              "name": "district_id",
              "type": "string",
              "value": "naval-yard"
            },
            {
              "name": "render_layer",
              "type": "string",
              "value": "ground"
            },
            {
              "name": "elevation",
              "type": "float",
              "value": 4.0
            },
            {
              "name": "visual_width",
              "type": "float",
              "value": 58.0
            },
            {
              "name": "visual_height",
              "type": "float",
              "value": 116.0
            },
            {
              "name": "ground_width",
              "type": "float",
              "value": 37.7
            },
            {
              "name": "ground_height",
              "type": "float",
              "value": 52.2
            },
            {
              "name": "state_key",
              "type": "string",
              "value": ""
            }
          ]
        },
        {
          "id": 510,
          "name": "naval-support-boat-02",
          "class": "art-instance",
          "x": 1420,
          "y": -3925,
          "point": true,
          "rotation": 8,
          "visible": true,
          "properties": [
            {
              "name": "asset_id",
              "type": "string",
              "value": "civil-boat"
            },
            {
              "name": "district_id",
              "type": "string",
              "value": "naval-yard"
            },
            {
              "name": "render_layer",
              "type": "string",
              "value": "ground"
            },
            {
              "name": "elevation",
              "type": "float",
              "value": 4.0
            },
            {
              "name": "visual_width",
              "type": "float",
              "value": 58.0
            },
            {
              "name": "visual_height",
              "type": "float",
              "value": 116.0
            },
            {
              "name": "ground_width",
              "type": "float",
              "value": 37.7
            },
            {
              "name": "ground_height",
              "type": "float",
              "value": 52.2
            },
            {
              "name": "state_key",
              "type": "string",
              "value": ""
            }
          ]
        },
        {
          "id": 511,
          "name": "naval-support-boat-03",
          "class": "art-instance",
          "x": 1285,
          "y": -3825,
          "point": true,
          "rotation": 14,
          "visible": true,
          "properties": [
            {
              "name": "asset_id",
              "type": "string",
              "value": "civil-boat"
            },
            {
              "name": "district_id",
              "type": "string",
              "value": "naval-yard"
            },
            {
              "name": "render_layer",
              "type": "string",
              "value": "ground"
            },
            {
              "name": "elevation",
              "type": "float",
              "value": 4.0
            },
            {
              "name": "visual_width",
              "type": "float",
              "value": 58.0
            },
            {
              "name": "visual_height",
              "type": "float",
              "value": 116.0
            },
            {
              "name": "ground_width",
              "type": "float",
              "value": 37.7
            },
            {
              "name": "ground_height",
              "type": "float",
              "value": 52.2
            },
            {
              "name": "state_key",
              "type": "string",
              "value": ""
            }
          ]
        },
        {
          "id": 512,
          "name": "naval-support-boat-04",
          "class": "art-instance",
          "x": 1500,
          "y": -3715,
          "point": true,
          "rotation": -6,
          "visible": true,
          "properties": [
            {
              "name": "asset_id",
              "type": "string",
              "value": "civil-boat"
            },
            {
              "name": "district_id",
              "type": "string",
              "value": "naval-yard"
            },
            {
              "name": "render_layer",
              "type": "string",
              "value": "ground"
            },
            {
              "name": "elevation",
              "type": "float",
              "value": 4.0
            },
            {
              "name": "visual_width",
              "type": "float",
              "value": 58.0
            },
            {
              "name": "visual_height",
              "type": "float",
              "value": 116.0
            },
            {
              "name": "ground_width",
              "type": "float",
              "value": 37.7
            },
            {
              "name": "ground_height",
              "type": "float",
              "value": 52.2
            },
            {
              "name": "state_key",
              "type": "string",
              "value": ""
            }
          ]
        }
      ]
    },
    {
      "id": 18,
      "name": "Relief Zones",
      "type": "objectgroup",
      "visible": true,
      "opacity": 1,
      "draworder": "topdown",
      "objects": [
        {
          "id": 412,
          "name": "bridge-west-limestone",
          "class": "visual-zone",
          "x": 0.0,
          "y": -2530.0,
          "polygon": [
            {
              "x": 0.0,
              "y": 0.0
            },
            {
              "x": 760.0,
              "y": 0.0
            },
            {
              "x": 737.0,
              "y": 112.0
            },
            {
              "x": 718.0,
              "y": 208.0
            },
            {
              "x": 699.0,
              "y": 303.0
            },
            {
              "x": 680.0,
              "y": 399.0
            },
            {
              "x": 650.0,
              "y": 494.0
            },
            {
              "x": 619.0,
              "y": 590.0
            },
            {
              "x": 0.0,
              "y": 590.0
            }
          ],
          "visible": true,
          "rotation": 0,
          "properties": [
            {
              "name": "district_id",
              "type": "string",
              "value": "bridge-gateway"
            },
            {
              "name": "relief_kind",
              "type": "string",
              "value": "limestone-terrace"
            },
            {
              "name": "height",
              "type": "float",
              "value": 150.0
            },
            {
              "name": "roughness",
              "type": "float",
              "value": 0.78
            },
            {
              "name": "shelf_count",
              "type": "int",
              "value": 4
            },
            {
              "name": "seed",
              "type": "int",
              "value": 501
            }
          ]
        },
        {
          "id": 413,
          "name": "bridge-east-limestone",
          "class": "visual-zone",
          "x": 1850.0,
          "y": -2530.0,
          "polygon": [
            {
              "x": 0.0,
              "y": 0.0
            },
            {
              "x": 755.7860999999998,
              "y": 0.0
            },
            {
              "x": 755.7860999999998,
              "y": 590.0
            },
            {
              "x": 122.0,
              "y": 590.0
            },
            {
              "x": 97.0,
              "y": 494.0
            },
            {
              "x": 72.0,
              "y": 399.0
            },
            {
              "x": 57.0,
              "y": 303.0
            },
            {
              "x": 41.0,
              "y": 208.0
            },
            {
              "x": 24.0,
              "y": 112.0
            },
            {
              "x": 7.0,
              "y": 17.0
            }
          ],
          "visible": true,
          "rotation": 0,
          "properties": [
            {
              "name": "district_id",
              "type": "string",
              "value": "bridge-gateway"
            },
            {
              "name": "relief_kind",
              "type": "string",
              "value": "limestone-terrace"
            },
            {
              "name": "height",
              "type": "float",
              "value": 158.0
            },
            {
              "name": "roughness",
              "type": "float",
              "value": 0.82
            },
            {
              "name": "shelf_count",
              "type": "int",
              "value": 4
            },
            {
              "name": "seed",
              "type": "int",
              "value": 502
            }
          ]
        },
        {
          "id": 414,
          "name": "harbour-west-backing",
          "class": "visual-zone",
          "x": 0,
          "y": -3990,
          "polygon": [
            {
              "x": 0,
              "y": 0
            },
            {
              "x": 720,
              "y": 0
            },
            {
              "x": 800,
              "y": 1450
            },
            {
              "x": 0,
              "y": 1450
            }
          ],
          "visible": true,
          "rotation": 0,
          "properties": [
            {
              "name": "district_id",
              "type": "string",
              "value": "naval-yard"
            },
            {
              "name": "relief_kind",
              "type": "string",
              "value": "harbour-escarpment"
            },
            {
              "name": "height",
              "type": "float",
              "value": 92.0
            },
            {
              "name": "roughness",
              "type": "float",
              "value": 0.55
            },
            {
              "name": "shelf_count",
              "type": "int",
              "value": 3
            },
            {
              "name": "seed",
              "type": "int",
              "value": 520
            }
          ]
        },
        {
          "id": 415,
          "name": "harbour-east-backing",
          "class": "visual-zone",
          "x": 1810,
          "y": -3990,
          "polygon": [
            {
              "x": 60,
              "y": 0
            },
            {
              "x": 795,
              "y": 0
            },
            {
              "x": 795,
              "y": 1450
            },
            {
              "x": 0,
              "y": 1450
            }
          ],
          "visible": true,
          "rotation": 0,
          "properties": [
            {
              "name": "district_id",
              "type": "string",
              "value": "naval-yard"
            },
            {
              "name": "relief_kind",
              "type": "string",
              "value": "harbour-escarpment"
            },
            {
              "name": "height",
              "type": "float",
              "value": 96.0
            },
            {
              "name": "roughness",
              "type": "float",
              "value": 0.56
            },
            {
              "name": "shelf_count",
              "type": "int",
              "value": 3
            },
            {
              "name": "seed",
              "type": "int",
              "value": 521
            }
          ]
        },
        {
          "id": 416,
          "name": "canyon-west-wall",
          "class": "visual-zone",
          "x": 0,
          "y": -5350,
          "polygon": [
            {
              "x": 0,
              "y": 0
            },
            {
              "x": 980,
              "y": 0
            },
            {
              "x": 1050,
              "y": 900
            },
            {
              "x": 0,
              "y": 900
            }
          ],
          "visible": true,
          "rotation": 0,
          "properties": [
            {
              "name": "district_id",
              "type": "string",
              "value": "river-canyon"
            },
            {
              "name": "relief_kind",
              "type": "string",
              "value": "alpine-canyon"
            },
            {
              "name": "height",
              "type": "float",
              "value": 230.0
            },
            {
              "name": "roughness",
              "type": "float",
              "value": 0.9
            },
            {
              "name": "shelf_count",
              "type": "int",
              "value": 6
            },
            {
              "name": "seed",
              "type": "int",
              "value": 540
            }
          ]
        },
        {
          "id": 417,
          "name": "canyon-east-wall",
          "class": "visual-zone",
          "x": 1515,
          "y": -5350,
          "polygon": [
            {
              "x": 65,
              "y": 0
            },
            {
              "x": 1090,
              "y": 0
            },
            {
              "x": 1090,
              "y": 900
            },
            {
              "x": 0,
              "y": 900
            }
          ],
          "visible": true,
          "rotation": 0,
          "properties": [
            {
              "name": "district_id",
              "type": "string",
              "value": "river-canyon"
            },
            {
              "name": "relief_kind",
              "type": "string",
              "value": "alpine-canyon"
            },
            {
              "name": "height",
              "type": "float",
              "value": 240.0
            },
            {
              "name": "roughness",
              "type": "float",
              "value": 0.92
            },
            {
              "name": "shelf_count",
              "type": "int",
              "value": 6
            },
            {
              "name": "seed",
              "type": "int",
              "value": 541
            }
          ]
        },
        {
          "id": 418,
          "name": "dam-west-wall",
          "class": "visual-zone",
          "x": 0,
          "y": -5620,
          "polygon": [
            {
              "x": 0,
              "y": 0
            },
            {
              "x": 950,
              "y": 0
            },
            {
              "x": 1030,
              "y": 685
            },
            {
              "x": 0,
              "y": 685
            }
          ],
          "visible": true,
          "rotation": 0,
          "properties": [
            {
              "name": "district_id",
              "type": "string",
              "value": "lower-dam"
            },
            {
              "name": "relief_kind",
              "type": "string",
              "value": "dam-canyon"
            },
            {
              "name": "height",
              "type": "float",
              "value": 270.0
            },
            {
              "name": "roughness",
              "type": "float",
              "value": 0.88
            },
            {
              "name": "shelf_count",
              "type": "int",
              "value": 6
            },
            {
              "name": "seed",
              "type": "int",
              "value": 550
            }
          ]
        },
        {
          "id": 419,
          "name": "dam-east-wall",
          "class": "visual-zone",
          "x": 1570,
          "y": -5620,
          "polygon": [
            {
              "x": 70,
              "y": 0
            },
            {
              "x": 1035,
              "y": 0
            },
            {
              "x": 1035,
              "y": 685
            },
            {
              "x": 0,
              "y": 685
            }
          ],
          "visible": true,
          "rotation": 0,
          "properties": [
            {
              "name": "district_id",
              "type": "string",
              "value": "lower-dam"
            },
            {
              "name": "relief_kind",
              "type": "string",
              "value": "dam-canyon"
            },
            {
              "name": "height",
              "type": "float",
              "value": 270.0
            },
            {
              "name": "roughness",
              "type": "float",
              "value": 0.88
            },
            {
              "name": "shelf_count",
              "type": "int",
              "value": 6
            },
            {
              "name": "seed",
              "type": "int",
              "value": 551
            }
          ]
        },
        {
          "id": 420,
          "name": "citadel-west-massif",
          "class": "visual-zone",
          "x": 0.0,
          "y": -6525.0,
          "polygon": [
            {
              "x": 0.0,
              "y": 0.0
            },
            {
              "x": 864.0,
              "y": 0.0
            },
            {
              "x": 825.0,
              "y": 76.0
            },
            {
              "x": 793.0,
              "y": 153.0
            },
            {
              "x": 760.0,
              "y": 229.0
            },
            {
              "x": 736.0,
              "y": 306.0
            },
            {
              "x": 711.0,
              "y": 382.0
            },
            {
              "x": 703.0,
              "y": 458.0
            },
            {
              "x": 695.0,
              "y": 535.0
            },
            {
              "x": 718.0,
              "y": 611.0
            },
            {
              "x": 0.0,
              "y": 611.0
            }
          ],
          "visible": true,
          "rotation": 0,
          "properties": [
            {
              "name": "district_id",
              "type": "string",
              "value": "citadel-basin"
            },
            {
              "name": "relief_kind",
              "type": "string",
              "value": "snow-fortress"
            },
            {
              "name": "height",
              "type": "float",
              "value": 310.0
            },
            {
              "name": "roughness",
              "type": "float",
              "value": 0.95
            },
            {
              "name": "shelf_count",
              "type": "int",
              "value": 7
            },
            {
              "name": "seed",
              "type": "int",
              "value": 570
            }
          ]
        },
        {
          "id": 421,
          "name": "citadel-east-massif",
          "class": "visual-zone",
          "x": 1750.0,
          "y": -6525.0,
          "polygon": [
            {
              "x": 0.0,
              "y": 0.0
            },
            {
              "x": 855.7860999999998,
              "y": 0.0
            },
            {
              "x": 855.7860999999998,
              "y": 611.0
            },
            {
              "x": 145.0,
              "y": 611.0
            },
            {
              "x": 172.0,
              "y": 535.0
            },
            {
              "x": 164.0,
              "y": 458.0
            },
            {
              "x": 157.0,
              "y": 382.0
            },
            {
              "x": 128.0,
              "y": 306.0
            },
            {
              "x": 99.0,
              "y": 229.0
            },
            {
              "x": 69.0,
              "y": 153.0
            },
            {
              "x": 38.0,
              "y": 76.0
            }
          ],
          "visible": true,
          "rotation": 0,
          "properties": [
            {
              "name": "district_id",
              "type": "string",
              "value": "citadel-basin"
            },
            {
              "name": "relief_kind",
              "type": "string",
              "value": "snow-fortress"
            },
            {
              "name": "height",
              "type": "float",
              "value": 320.0
            },
            {
              "name": "roughness",
              "type": "float",
              "value": 0.95
            },
            {
              "name": "shelf_count",
              "type": "int",
              "value": 7
            },
            {
              "name": "seed",
              "type": "int",
              "value": 571
            }
          ]
        }
      ],
      "x": 0,
      "y": 0
    },
    {
      "id": 19,
      "name": "Material Zones",
      "type": "objectgroup",
      "visible": true,
      "opacity": 1,
      "draworder": "topdown",
      "objects": [
        {
          "id": 422,
          "name": "bridge-weathering-west",
          "class": "visual-zone",
          "x": 20.0,
          "y": -2490.0,
          "polygon": [
            {
              "x": 0.0,
              "y": 0.0
            },
            {
              "x": 725.0,
              "y": 0.0
            },
            {
              "x": 700.0,
              "y": 120.0
            },
            {
              "x": 670.0,
              "y": 250.0
            },
            {
              "x": 635.0,
              "y": 380.0
            },
            {
              "x": 605.0,
              "y": 500.0
            },
            {
              "x": 0.0,
              "y": 500.0
            }
          ],
          "visible": true,
          "rotation": 0,
          "properties": [
            {
              "name": "district_id",
              "type": "string",
              "value": "bridge-gateway"
            },
            {
              "name": "material_kind",
              "type": "string",
              "value": "limestone-weathering"
            },
            {
              "name": "opacity",
              "type": "float",
              "value": 0.34
            },
            {
              "name": "scale",
              "type": "float",
              "value": 1.0
            },
            {
              "name": "seed",
              "type": "int",
              "value": 601
            }
          ]
        },
        {
          "id": 423,
          "name": "bridge-weathering-east",
          "class": "visual-zone",
          "x": 1870.0,
          "y": -2490.0,
          "polygon": [
            {
              "x": 0.0,
              "y": 0.0
            },
            {
              "x": 715.0,
              "y": 0.0
            },
            {
              "x": 715.0,
              "y": 500.0
            },
            {
              "x": 90.0,
              "y": 500.0
            },
            {
              "x": 60.0,
              "y": 380.0
            },
            {
              "x": 35.0,
              "y": 250.0
            },
            {
              "x": 15.0,
              "y": 120.0
            }
          ],
          "visible": true,
          "rotation": 0,
          "properties": [
            {
              "name": "district_id",
              "type": "string",
              "value": "bridge-gateway"
            },
            {
              "name": "material_kind",
              "type": "string",
              "value": "limestone-weathering"
            },
            {
              "name": "opacity",
              "type": "float",
              "value": 0.34
            },
            {
              "name": "scale",
              "type": "float",
              "value": 1.0
            },
            {
              "name": "seed",
              "type": "int",
              "value": 602
            }
          ]
        },
        {
          "id": 424,
          "name": "civil-harbour-wear-west",
          "class": "visual-zone",
          "x": 40,
          "y": -3010,
          "polygon": [
            {
              "x": 0,
              "y": 0
            },
            {
              "x": 590,
              "y": 0
            },
            {
              "x": 575,
              "y": 105
            },
            {
              "x": 555,
              "y": 235
            },
            {
              "x": 530,
              "y": 360
            },
            {
              "x": 500,
              "y": 475
            },
            {
              "x": 0,
              "y": 475
            }
          ],
          "visible": true,
          "rotation": 0,
          "properties": [
            {
              "name": "district_id",
              "type": "string",
              "value": "civil-harbour"
            },
            {
              "name": "material_kind",
              "type": "string",
              "value": "harbour-wear"
            },
            {
              "name": "opacity",
              "type": "float",
              "value": 0.23
            },
            {
              "name": "scale",
              "type": "float",
              "value": 0.9
            },
            {
              "name": "seed",
              "type": "int",
              "value": 610
            }
          ]
        },
        {
          "id": 425,
          "name": "industrial-harbour-wear-west",
          "class": "visual-zone",
          "x": 25,
          "y": -3490,
          "polygon": [
            {
              "x": 0,
              "y": 0
            },
            {
              "x": 560,
              "y": 0
            },
            {
              "x": 535,
              "y": 115
            },
            {
              "x": 520,
              "y": 245
            },
            {
              "x": 500,
              "y": 365
            },
            {
              "x": 475,
              "y": 470
            },
            {
              "x": 0,
              "y": 470
            }
          ],
          "visible": true,
          "rotation": 0,
          "properties": [
            {
              "name": "district_id",
              "type": "string",
              "value": "industrial-harbour"
            },
            {
              "name": "material_kind",
              "type": "string",
              "value": "industrial-wear"
            },
            {
              "name": "opacity",
              "type": "float",
              "value": 0.29
            },
            {
              "name": "scale",
              "type": "float",
              "value": 1.1
            },
            {
              "name": "seed",
              "type": "int",
              "value": 611
            }
          ]
        },
        {
          "id": 426,
          "name": "naval-yard-wear-west",
          "class": "visual-zone",
          "x": 20,
          "y": -3990,
          "polygon": [
            {
              "x": 0,
              "y": 0
            },
            {
              "x": 720,
              "y": 0
            },
            {
              "x": 695,
              "y": 120
            },
            {
              "x": 675,
              "y": 250
            },
            {
              "x": 650,
              "y": 385
            },
            {
              "x": 620,
              "y": 495
            },
            {
              "x": 0,
              "y": 495
            }
          ],
          "visible": true,
          "rotation": 0,
          "properties": [
            {
              "name": "district_id",
              "type": "string",
              "value": "naval-yard"
            },
            {
              "name": "material_kind",
              "type": "string",
              "value": "naval-wear"
            },
            {
              "name": "opacity",
              "type": "float",
              "value": 0.27
            },
            {
              "name": "scale",
              "type": "float",
              "value": 1.0
            },
            {
              "name": "seed",
              "type": "int",
              "value": 612
            }
          ]
        },
        {
          "id": 427,
          "name": "dam-rock-strata",
          "class": "visual-zone",
          "x": 0,
          "y": -5350,
          "polygon": [
            {
              "x": 0,
              "y": 0
            },
            {
              "x": 2605,
              "y": 0
            },
            {
              "x": 2605,
              "y": 412
            },
            {
              "x": 0,
              "y": 412
            }
          ],
          "visible": true,
          "rotation": 0,
          "properties": [
            {
              "name": "district_id",
              "type": "string",
              "value": "lower-dam"
            },
            {
              "name": "material_kind",
              "type": "string",
              "value": "alpine-strata"
            },
            {
              "name": "opacity",
              "type": "float",
              "value": 0.28
            },
            {
              "name": "scale",
              "type": "float",
              "value": 1.0
            },
            {
              "name": "seed",
              "type": "int",
              "value": 620
            }
          ]
        },
        {
          "id": 428,
          "name": "citadel-snow-rock",
          "class": "visual-zone",
          "x": 0,
          "y": -6525,
          "polygon": [
            {
              "x": 0,
              "y": 0
            },
            {
              "x": 2605,
              "y": 0
            },
            {
              "x": 2605,
              "y": 665
            },
            {
              "x": 0,
              "y": 665
            }
          ],
          "visible": true,
          "rotation": 0,
          "properties": [
            {
              "name": "district_id",
              "type": "string",
              "value": "citadel-basin"
            },
            {
              "name": "material_kind",
              "type": "string",
              "value": "snow-rock"
            },
            {
              "name": "opacity",
              "type": "float",
              "value": 0.32
            },
            {
              "name": "scale",
              "type": "float",
              "value": 1.0
            },
            {
              "name": "seed",
              "type": "int",
              "value": 630
            }
          ]
        },
        {
          "id": 429,
          "name": "civil-harbour-wear-east",
          "class": "visual-zone",
          "x": 2020,
          "y": -3010,
          "polygon": [
            {
              "x": 70,
              "y": 0
            },
            {
              "x": 585,
              "y": 0
            },
            {
              "x": 585,
              "y": 475
            },
            {
              "x": 0,
              "y": 475
            },
            {
              "x": 20,
              "y": 350
            },
            {
              "x": 42,
              "y": 220
            },
            {
              "x": 58,
              "y": 105
            }
          ],
          "visible": true,
          "rotation": 0,
          "properties": [
            {
              "name": "district_id",
              "type": "string",
              "value": "civil-harbour"
            },
            {
              "name": "material_kind",
              "type": "string",
              "value": "harbour-wear"
            },
            {
              "name": "opacity",
              "type": "float",
              "value": 0.23
            },
            {
              "name": "scale",
              "type": "float",
              "value": 0.9
            },
            {
              "name": "seed",
              "type": "int",
              "value": 613
            }
          ]
        },
        {
          "id": 430,
          "name": "industrial-harbour-wear-east",
          "class": "visual-zone",
          "x": 2040,
          "y": -3490,
          "polygon": [
            {
              "x": 80,
              "y": 0
            },
            {
              "x": 565,
              "y": 0
            },
            {
              "x": 565,
              "y": 470
            },
            {
              "x": 0,
              "y": 470
            },
            {
              "x": 18,
              "y": 350
            },
            {
              "x": 40,
              "y": 230
            },
            {
              "x": 62,
              "y": 110
            }
          ],
          "visible": true,
          "rotation": 0,
          "properties": [
            {
              "name": "district_id",
              "type": "string",
              "value": "industrial-harbour"
            },
            {
              "name": "material_kind",
              "type": "string",
              "value": "industrial-wear"
            },
            {
              "name": "opacity",
              "type": "float",
              "value": 0.29
            },
            {
              "name": "scale",
              "type": "float",
              "value": 1.1
            },
            {
              "name": "seed",
              "type": "int",
              "value": 614
            }
          ]
        },
        {
          "id": 431,
          "name": "naval-yard-wear-east",
          "class": "visual-zone",
          "x": 1900,
          "y": -3990,
          "polygon": [
            {
              "x": 110,
              "y": 0
            },
            {
              "x": 685,
              "y": 0
            },
            {
              "x": 685,
              "y": 495
            },
            {
              "x": 0,
              "y": 495
            },
            {
              "x": 25,
              "y": 375
            },
            {
              "x": 55,
              "y": 245
            },
            {
              "x": 82,
              "y": 115
            }
          ],
          "visible": true,
          "rotation": 0,
          "properties": [
            {
              "name": "district_id",
              "type": "string",
              "value": "naval-yard"
            },
            {
              "name": "material_kind",
              "type": "string",
              "value": "naval-wear"
            },
            {
              "name": "opacity",
              "type": "float",
              "value": 0.27
            },
            {
              "name": "scale",
              "type": "float",
              "value": 1.0
            },
            {
              "name": "seed",
              "type": "int",
              "value": 615
            }
          ]
        }
      ],
      "x": 0,
      "y": 0
    },
    {
      "id": 20,
      "name": "Vegetation Zones",
      "type": "objectgroup",
      "visible": true,
      "opacity": 1,
      "draworder": "topdown",
      "objects": [
        {
          "id": 429,
          "name": "bridge-west-scrub",
          "class": "visual-zone",
          "x": 0.0,
          "y": -2520.0,
          "polygon": [
            {
              "x": 0.0,
              "y": 0.0
            },
            {
              "x": 750.0,
              "y": 0.0
            },
            {
              "x": 725.0,
              "y": 140.0
            },
            {
              "x": 695.0,
              "y": 280.0
            },
            {
              "x": 660.0,
              "y": 420.0
            },
            {
              "x": 625.0,
              "y": 560.0
            },
            {
              "x": 0.0,
              "y": 560.0
            }
          ],
          "visible": true,
          "rotation": 0,
          "properties": [
            {
              "name": "district_id",
              "type": "string",
              "value": "bridge-gateway"
            },
            {
              "name": "vegetation_kind",
              "type": "string",
              "value": "coastal-pine"
            },
            {
              "name": "density",
              "type": "float",
              "value": 0.78
            },
            {
              "name": "min_size",
              "type": "float",
              "value": 8.0
            },
            {
              "name": "max_size",
              "type": "float",
              "value": 24.0
            },
            {
              "name": "seed",
              "type": "int",
              "value": 701
            }
          ]
        },
        {
          "id": 430,
          "name": "bridge-east-scrub",
          "class": "visual-zone",
          "x": 1860.0,
          "y": -2520.0,
          "polygon": [
            {
              "x": 0.0,
              "y": 0.0
            },
            {
              "x": 745.7860999999998,
              "y": 0.0
            },
            {
              "x": 745.7860999999998,
              "y": 560.0
            },
            {
              "x": 115.0,
              "y": 560.0
            },
            {
              "x": 80.0,
              "y": 420.0
            },
            {
              "x": 50.0,
              "y": 280.0
            },
            {
              "x": 20.0,
              "y": 140.0
            }
          ],
          "visible": true,
          "rotation": 0,
          "properties": [
            {
              "name": "district_id",
              "type": "string",
              "value": "bridge-gateway"
            },
            {
              "name": "vegetation_kind",
              "type": "string",
              "value": "coastal-pine"
            },
            {
              "name": "density",
              "type": "float",
              "value": 0.78
            },
            {
              "name": "min_size",
              "type": "float",
              "value": 8.0
            },
            {
              "name": "max_size",
              "type": "float",
              "value": 23.0
            },
            {
              "name": "seed",
              "type": "int",
              "value": 702
            }
          ]
        },
        {
          "id": 431,
          "name": "canyon-west-pines",
          "class": "visual-zone",
          "x": 0,
          "y": -5350,
          "polygon": [
            {
              "x": 0,
              "y": 0
            },
            {
              "x": 930,
              "y": 0
            },
            {
              "x": 1000,
              "y": 900
            },
            {
              "x": 0,
              "y": 900
            }
          ],
          "visible": true,
          "rotation": 0,
          "properties": [
            {
              "name": "district_id",
              "type": "string",
              "value": "river-canyon"
            },
            {
              "name": "vegetation_kind",
              "type": "string",
              "value": "alpine-pine"
            },
            {
              "name": "density",
              "type": "float",
              "value": 0.48
            },
            {
              "name": "min_size",
              "type": "float",
              "value": 12.0
            },
            {
              "name": "max_size",
              "type": "float",
              "value": 31.0
            },
            {
              "name": "seed",
              "type": "int",
              "value": 710
            }
          ]
        },
        {
          "id": 432,
          "name": "canyon-east-pines",
          "class": "visual-zone",
          "x": 1580,
          "y": -5350,
          "polygon": [
            {
              "x": 60,
              "y": 0
            },
            {
              "x": 1025,
              "y": 0
            },
            {
              "x": 1025,
              "y": 900
            },
            {
              "x": 0,
              "y": 900
            }
          ],
          "visible": true,
          "rotation": 0,
          "properties": [
            {
              "name": "district_id",
              "type": "string",
              "value": "river-canyon"
            },
            {
              "name": "vegetation_kind",
              "type": "string",
              "value": "alpine-pine"
            },
            {
              "name": "density",
              "type": "float",
              "value": 0.46
            },
            {
              "name": "min_size",
              "type": "float",
              "value": 12.0
            },
            {
              "name": "max_size",
              "type": "float",
              "value": 30.0
            },
            {
              "name": "seed",
              "type": "int",
              "value": 711
            }
          ]
        },
        {
          "id": 433,
          "name": "fortress-sparse-pines",
          "class": "visual-zone",
          "x": 0,
          "y": -6110,
          "polygon": [
            {
              "x": 0,
              "y": 0
            },
            {
              "x": 1030,
              "y": 0
            },
            {
              "x": 970,
              "y": 490
            },
            {
              "x": 0,
              "y": 490
            }
          ],
          "visible": true,
          "rotation": 0,
          "properties": [
            {
              "name": "district_id",
              "type": "string",
              "value": "fortress-approach"
            },
            {
              "name": "vegetation_kind",
              "type": "string",
              "value": "snow-pine"
            },
            {
              "name": "density",
              "type": "float",
              "value": 0.24
            },
            {
              "name": "min_size",
              "type": "float",
              "value": 11.0
            },
            {
              "name": "max_size",
              "type": "float",
              "value": 25.0
            },
            {
              "name": "seed",
              "type": "int",
              "value": 720
            }
          ]
        }
      ],
      "x": 0,
      "y": 0
    },
    {
      "id": 21,
      "name": "Shadow Casters",
      "type": "objectgroup",
      "visible": true,
      "opacity": 1,
      "draworder": "topdown",
      "objects": [
        {
          "id": 434,
          "name": "bridge-west-mass-shadow",
          "class": "visual-zone",
          "x": 20.0,
          "y": -2480.0,
          "polygon": [
            {
              "x": 0.0,
              "y": 0.0
            },
            {
              "x": 722.0,
              "y": 0.0
            },
            {
              "x": 695.0,
              "y": 120.0
            },
            {
              "x": 665.0,
              "y": 250.0
            },
            {
              "x": 630.0,
              "y": 380.0
            },
            {
              "x": 605.0,
              "y": 500.0
            },
            {
              "x": 0.0,
              "y": 500.0
            }
          ],
          "visible": true,
          "rotation": 0,
          "properties": [
            {
              "name": "district_id",
              "type": "string",
              "value": "bridge-gateway"
            },
            {
              "name": "shadow_kind",
              "type": "string",
              "value": "terrain"
            },
            {
              "name": "offset_x",
              "type": "float",
              "value": 36.0
            },
            {
              "name": "offset_y",
              "type": "float",
              "value": 54.0
            },
            {
              "name": "opacity",
              "type": "float",
              "value": 0.22
            },
            {
              "name": "blur",
              "type": "float",
              "value": 18.0
            }
          ]
        },
        {
          "id": 435,
          "name": "bridge-east-mass-shadow",
          "class": "visual-zone",
          "x": 1875.0,
          "y": -2480.0,
          "polygon": [
            {
              "x": 0.0,
              "y": 0.0
            },
            {
              "x": 705.0,
              "y": 0.0
            },
            {
              "x": 705.0,
              "y": 500.0
            },
            {
              "x": 95.0,
              "y": 500.0
            },
            {
              "x": 63.0,
              "y": 380.0
            },
            {
              "x": 35.0,
              "y": 250.0
            },
            {
              "x": 13.0,
              "y": 120.0
            }
          ],
          "visible": true,
          "rotation": 0,
          "properties": [
            {
              "name": "district_id",
              "type": "string",
              "value": "bridge-gateway"
            },
            {
              "name": "shadow_kind",
              "type": "string",
              "value": "terrain"
            },
            {
              "name": "offset_x",
              "type": "float",
              "value": 36.0
            },
            {
              "name": "offset_y",
              "type": "float",
              "value": 54.0
            },
            {
              "name": "opacity",
              "type": "float",
              "value": 0.22
            },
            {
              "name": "blur",
              "type": "float",
              "value": 18.0
            }
          ]
        },
        {
          "id": 436,
          "name": "dam-west-mass-shadow",
          "class": "visual-zone",
          "x": 0,
          "y": -5350,
          "polygon": [
            {
              "x": 0,
              "y": 0
            },
            {
              "x": 920,
              "y": 0
            },
            {
              "x": 980,
              "y": 410
            },
            {
              "x": 0,
              "y": 410
            }
          ],
          "visible": true,
          "rotation": 0,
          "properties": [
            {
              "name": "district_id",
              "type": "string",
              "value": "lower-dam"
            },
            {
              "name": "shadow_kind",
              "type": "string",
              "value": "terrain"
            },
            {
              "name": "offset_x",
              "type": "float",
              "value": 48.0
            },
            {
              "name": "offset_y",
              "type": "float",
              "value": 66.0
            },
            {
              "name": "opacity",
              "type": "float",
              "value": 0.25
            },
            {
              "name": "blur",
              "type": "float",
              "value": 24.0
            }
          ]
        },
        {
          "id": 437,
          "name": "dam-east-mass-shadow",
          "class": "visual-zone",
          "x": 1620,
          "y": -5350,
          "polygon": [
            {
              "x": 60,
              "y": 0
            },
            {
              "x": 985,
              "y": 0
            },
            {
              "x": 985,
              "y": 410
            },
            {
              "x": 0,
              "y": 410
            }
          ],
          "visible": true,
          "rotation": 0,
          "properties": [
            {
              "name": "district_id",
              "type": "string",
              "value": "lower-dam"
            },
            {
              "name": "shadow_kind",
              "type": "string",
              "value": "terrain"
            },
            {
              "name": "offset_x",
              "type": "float",
              "value": 48.0
            },
            {
              "name": "offset_y",
              "type": "float",
              "value": 66.0
            },
            {
              "name": "opacity",
              "type": "float",
              "value": 0.25
            },
            {
              "name": "blur",
              "type": "float",
              "value": 24.0
            }
          ]
        },
        {
          "id": 438,
          "name": "citadel-west-mass-shadow",
          "class": "visual-zone",
          "x": 0.0,
          "y": -6525.0,
          "polygon": [
            {
              "x": 0.0,
              "y": 0.0
            },
            {
              "x": 845.0,
              "y": 0.0
            },
            {
              "x": 810.0,
              "y": 85.0
            },
            {
              "x": 775.0,
              "y": 175.0
            },
            {
              "x": 745.0,
              "y": 265.0
            },
            {
              "x": 710.0,
              "y": 375.0
            },
            {
              "x": 700.0,
              "y": 485.0
            },
            {
              "x": 720.0,
              "y": 660.0
            },
            {
              "x": 0.0,
              "y": 660.0
            }
          ],
          "visible": true,
          "rotation": 0,
          "properties": [
            {
              "name": "district_id",
              "type": "string",
              "value": "citadel-basin"
            },
            {
              "name": "shadow_kind",
              "type": "string",
              "value": "terrain"
            },
            {
              "name": "offset_x",
              "type": "float",
              "value": 54.0
            },
            {
              "name": "offset_y",
              "type": "float",
              "value": 72.0
            },
            {
              "name": "opacity",
              "type": "float",
              "value": 0.27
            },
            {
              "name": "blur",
              "type": "float",
              "value": 28.0
            }
          ]
        },
        {
          "id": 439,
          "name": "citadel-east-mass-shadow",
          "class": "visual-zone",
          "x": 1760.0,
          "y": -6525.0,
          "polygon": [
            {
              "x": 0.0,
              "y": 0.0
            },
            {
              "x": 845.7860999999998,
              "y": 0.0
            },
            {
              "x": 845.7860999999998,
              "y": 660.0
            },
            {
              "x": 125.0,
              "y": 660.0
            },
            {
              "x": 150.0,
              "y": 485.0
            },
            {
              "x": 140.0,
              "y": 375.0
            },
            {
              "x": 105.0,
              "y": 265.0
            },
            {
              "x": 70.0,
              "y": 175.0
            },
            {
              "x": 35.0,
              "y": 85.0
            }
          ],
          "visible": true,
          "rotation": 0,
          "properties": [
            {
              "name": "district_id",
              "type": "string",
              "value": "citadel-basin"
            },
            {
              "name": "shadow_kind",
              "type": "string",
              "value": "terrain"
            },
            {
              "name": "offset_x",
              "type": "float",
              "value": 54.0
            },
            {
              "name": "offset_y",
              "type": "float",
              "value": 72.0
            },
            {
              "name": "opacity",
              "type": "float",
              "value": 0.27
            },
            {
              "name": "blur",
              "type": "float",
              "value": 28.0
            }
          ]
        }
      ],
      "x": 0,
      "y": 0
    }
  ],
  "tilesets": []
}